(.../Program Files (x86)/EAGLE-6.4.0/ulp/pcb-gcode.ulp)
(Copyright 2005 - 2012 by John Johnson)
(See readme.txt for licensing terms.)
(This file generated from the board:)
(.../ICRI/git/Breazy/Hardware/Treo2.brd)
(Current profile is .../EAGLE-6.4.0/ulp/profiles/generic.pp  )
(This file generated 11/3/2014 10:35:43 AM)
(Settings from pcb-machine.h)
(  Tool Size)
(0.2540 )
(Z Axis Settings)
(  High     Up        Down     Drill)
(12.0000 	3.0000 	-0.0800 	-0.1350 )
(spindle on time = 3.0000)
(milling depth = -0.2540)
(text depth = -0.1270)
(tool change at 12.7000 15.2400 25.4000 )
(feed rate xy = F300.00 )
(feed rate z  = F254.00 )
(Settings from pcb-defaults.h)
(isolate min = 0.0254)
(isolate max = 0.5080)
(isolate step = 0.1270)
(Generated top outlines, top drill, bottom outlines, bottom drill, )
(Unit of measure: mm)
( Tool|       Size       |  Min Sub |  Max Sub |   Count )
( T01  0.508mm 0.0200in 0.0000in 0.0000in )
( T02  0.914mm 0.0360in 0.0000in 0.0000in )
( T03  1.016mm 0.0400in 0.0000in 0.0000in )
(Metric Mode)
G21
(Absolute Coordinates)
G90
M05
G00 Z25.4000 
G00 X12.7000 Y15.2400 
M06 T01  ; 0.5080 
G01 Z0.0000 F254.00 
M06 T01  ; 0.5080 
G00 Z3.0000 
M03
G04 P3.000000
G00 Z3.000000
G00 X-32.0000 Y34.0000 
G01 Z-0.1350 F254.00 
G01 Z3.000000
(R3.0000  P1.000000)
(G00 Z3.000000)
G00 X-32.0000 Y38.0000 
G01 Z-0.135000
G01 Z3.000000
(G00 Z3.000000)
G00 X-33.0000 Y36.0000 
G01 Z-0.135000
G01 Z3.000000
(G00 Z3.000000)
G00 X-38.0000 Y28.0000 
G01 Z-0.135000
G01 Z3.000000
(G00 Z3.000000)
G00 X-38.0000 Y30.0000 
G01 Z-0.135000
G01 Z3.000000
(G00 Z3.000000)
G00 X-6.0000 Y58.0000 
G01 Z-0.135000
G01 Z3.000000
(G00 Z3.000000)
G00 X-7.0000 Y39.0000 
G01 Z-0.135000
G01 Z3.000000
(G00 Z3.000000)
G00 X-10.0000 Y34.0000 
G01 Z-0.135000
G01 Z3.000000
(G00 Z3.000000)
G00 X-15.0000 Y35.0000 
G01 Z-0.135000
G01 Z3.000000
(G00 Z3.000000)
G00 X-18.0000 Y33.0000 
G01 Z-0.135000
G01 Z3.000000
(G00 Z3.000000)
G00 X-22.0000 Y34.0000 
G01 Z-0.135000
G01 Z3.000000
(G00 Z3.000000)
G00 X-30.0000 Y27.0000 
G01 Z-0.135000
G01 Z3.000000
M05
G00 Z25.4000 
M06 T02  ; 0.9144 
G01 Z0.0000 F254.00 
M06 T02  ; 0.9144 
G00 Z3.0000 
M03
G04 P3.000000
G00 Z3.000000
G00 X-32.0300 Y29.9800 
G01 Z-0.1350 F254.00 
G01 Z3.000000
(R3.0000  P1.000000)
(G00 Z3.000000)
G00 X-40.5600 Y37.7500 
G01 Z-0.135000
G01 Z3.000000
(G00 Z3.000000)
G00 X-40.5600 Y40.2900 
G01 Z-0.135000
G01 Z3.000000
(G00 Z3.000000)
G00 X-40.5600 Y42.8300 
G01 Z-0.135000
G01 Z3.000000
(G00 Z3.000000)
G00 X-40.5600 Y45.3700 
G01 Z-0.135000
G01 Z3.000000
(G00 Z3.000000)
G00 X-40.5600 Y47.9100 
G01 Z-0.135000
G01 Z3.000000
(G00 Z3.000000)
G00 X-40.5600 Y50.4500 
G01 Z-0.135000
G01 Z3.000000
(G00 Z3.000000)
G00 X-40.5600 Y52.9900 
G01 Z-0.135000
G01 Z3.000000
(G00 Z3.000000)
G00 X-40.5600 Y55.5300 
G01 Z-0.135000
G01 Z3.000000
(G00 Z3.000000)
G00 X-40.5600 Y58.0700 
G01 Z-0.135000
G01 Z3.000000
(G00 Z3.000000)
G00 X-40.5600 Y60.6100 
G01 Z-0.135000
G01 Z3.000000
(G00 Z3.000000)
G00 X-40.5600 Y63.1500 
G01 Z-0.135000
G01 Z3.000000
(G00 Z3.000000)
G00 X-40.5600 Y65.6900 
G01 Z-0.135000
G01 Z3.000000
(G00 Z3.000000)
G00 X-40.5600 Y68.2300 
G01 Z-0.135000
G01 Z3.000000
(G00 Z3.000000)
G00 X-40.5600 Y70.7700 
G01 Z-0.135000
G01 Z3.000000
(G00 Z3.000000)
G00 X-41.6000 Y29.9800 
G01 Z-0.135000
G01 Z3.000000
(G00 Z3.000000)
G00 X-44.1400 Y29.9800 
G01 Z-0.135000
G01 Z3.000000
(G00 Z3.000000)
G00 X-8.6600 Y55.6400 
G01 Z-0.135000
G01 Z3.000000
(G00 Z3.000000)
G00 X-10.4600 Y39.0000 
G01 Z-0.135000
G01 Z3.000000
(G00 Z3.000000)
G00 X-10.8000 Y29.6400 
G01 Z-0.135000
G01 Z3.000000
(G00 Z3.000000)
G00 X-11.2000 Y55.6400 
G01 Z-0.135000
G01 Z3.000000
(G00 Z3.000000)
G00 X-13.0000 Y39.0000 
G01 Z-0.135000
G01 Z3.000000
(G00 Z3.000000)
G00 X-13.3400 Y29.6400 
G01 Z-0.135000
G01 Z3.000000
(G00 Z3.000000)
G00 X-13.7400 Y55.6400 
G01 Z-0.135000
G01 Z3.000000
(G00 Z3.000000)
G00 X-15.5400 Y39.0000 
G01 Z-0.135000
G01 Z3.000000
(G00 Z3.000000)
G00 X-15.8800 Y29.6400 
G01 Z-0.135000
G01 Z3.000000
(G00 Z3.000000)
G00 X-16.2800 Y55.6400 
G01 Z-0.135000
G01 Z3.000000
(G00 Z3.000000)
G00 X-18.4200 Y29.6400 
G01 Z-0.135000
G01 Z3.000000
(G00 Z3.000000)
G00 X-22.2400 Y37.7500 
G01 Z-0.135000
G01 Z3.000000
(G00 Z3.000000)
G00 X-22.2400 Y40.2900 
G01 Z-0.135000
G01 Z3.000000
(G00 Z3.000000)
G00 X-22.2400 Y42.8300 
G01 Z-0.135000
G01 Z3.000000
(G00 Z3.000000)
G00 X-22.2400 Y45.3700 
G01 Z-0.135000
G01 Z3.000000
(G00 Z3.000000)
G00 X-22.2400 Y47.9100 
G01 Z-0.135000
G01 Z3.000000
(G00 Z3.000000)
G00 X-22.2400 Y50.4500 
G01 Z-0.135000
G01 Z3.000000
(G00 Z3.000000)
G00 X-22.2400 Y52.9900 
G01 Z-0.135000
G01 Z3.000000
(G00 Z3.000000)
G00 X-22.2400 Y55.5300 
G01 Z-0.135000
G01 Z3.000000
(G00 Z3.000000)
G00 X-22.2400 Y58.0700 
G01 Z-0.135000
G01 Z3.000000
(G00 Z3.000000)
G00 X-22.2400 Y60.6100 
G01 Z-0.135000
G01 Z3.000000
(G00 Z3.000000)
G00 X-22.2400 Y63.1500 
G01 Z-0.135000
G01 Z3.000000
(G00 Z3.000000)
G00 X-22.2400 Y65.6900 
G01 Z-0.135000
G01 Z3.000000
(G00 Z3.000000)
G00 X-22.2400 Y68.2300 
G01 Z-0.135000
G01 Z3.000000
(G00 Z3.000000)
G00 X-22.2400 Y70.7700 
G01 Z-0.135000
G01 Z3.000000
(G00 Z3.000000)
G00 X-26.9500 Y29.9800 
G01 Z-0.135000
G01 Z3.000000
(G00 Z3.000000)
G00 X-29.4900 Y29.9800 
G01 Z-0.135000
G01 Z3.000000
M05
G00 Z25.4000 
M06 T03  ; 1.0160 
G01 Z0.0000 F254.00 
M06 T03  ; 1.0160 
G00 Z3.0000 
M03
G04 P3.000000
G00 Z3.000000
G00 X-50.8000 Y35.5600 
G01 Z-0.1350 F254.00 
G01 Z3.000000
(R3.0000  P1.000000)
(G00 Z3.000000)
G00 X-50.8000 Y38.1000 
G01 Z-0.135000
G01 Z3.000000
(G00 Z3.000000)
G00 X-50.8000 Y40.6400 
G01 Z-0.135000
G01 Z3.000000
(G00 Z3.000000)
G00 X-50.8000 Y43.1800 
G01 Z-0.135000
G01 Z3.000000
(G00 Z3.000000)
G00 X-50.8000 Y45.7200 
G01 Z-0.135000
G01 Z3.000000
(G00 Z3.000000)
G00 X-50.8000 Y48.2600 
G01 Z-0.135000
G01 Z3.000000
(G00 Z3.000000)
G00 X-50.8000 Y50.8000 
G01 Z-0.135000
G01 Z3.000000
(G00 Z3.000000)
G00 X-50.8000 Y53.3400 
G01 Z-0.135000
G01 Z3.000000
(G00 Z3.000000)
G00 X-50.8000 Y58.4200 
G01 Z-0.135000
G01 Z3.000000
(G00 Z3.000000)
G00 X-50.8000 Y60.9600 
G01 Z-0.135000
G01 Z3.000000
(G00 Z3.000000)
G00 X-50.8000 Y63.5000 
G01 Z-0.135000
G01 Z3.000000
(G00 Z3.000000)
G00 X-50.8000 Y66.0400 
G01 Z-0.135000
G01 Z3.000000
(G00 Z3.000000)
G00 X-50.8000 Y68.5800 
G01 Z-0.135000
G01 Z3.000000
(G00 Z3.000000)
G00 X-50.8000 Y71.1200 
G01 Z-0.135000
G01 Z3.000000
(G00 Z3.000000)
G00 X-2.5400 Y31.7500 
G01 Z-0.135000
G01 Z3.000000
(G00 Z3.000000)
G00 X-2.5400 Y34.2900 
G01 Z-0.135000
G01 Z3.000000
(G00 Z3.000000)
G00 X-2.5400 Y36.8300 
G01 Z-0.135000
G01 Z3.000000
(G00 Z3.000000)
G00 X-2.5400 Y39.3700 
G01 Z-0.135000
G01 Z3.000000
(G00 Z3.000000)
G00 X-2.5400 Y41.9100 
G01 Z-0.135000
G01 Z3.000000
(G00 Z3.000000)
G00 X-2.5400 Y44.4500 
G01 Z-0.135000
G01 Z3.000000
(G00 Z3.000000)
G00 X-2.5400 Y46.9900 
G01 Z-0.135000
G01 Z3.000000
(G00 Z3.000000)
G00 X-2.5400 Y49.5300 
G01 Z-0.135000
G01 Z3.000000
(G00 Z3.000000)
G00 X-2.5400 Y53.3400 
G01 Z-0.135000
G01 Z3.000000
(G00 Z3.000000)
G00 X-2.5400 Y55.8800 
G01 Z-0.135000
G01 Z3.000000
(G00 Z3.000000)
G00 X-2.5400 Y58.4200 
G01 Z-0.135000
G01 Z3.000000
(G00 Z3.000000)
G00 X-2.5400 Y60.9600 
G01 Z-0.135000
G01 Z3.000000
(G00 Z3.000000)
G00 X-2.5400 Y63.5000 
G01 Z-0.135000
G01 Z3.000000
(G00 Z3.000000)
G00 X-2.5400 Y66.0400 
G01 Z-0.135000
G01 Z3.000000
(G00 Z3.000000)
G00 X-2.5400 Y68.5800 
G01 Z-0.135000
G01 Z3.000000
(G00 Z3.000000)
G00 X-2.5400 Y71.1200 
G01 Z-0.135000
G01 Z3.000000
(G00 Z3.000000)
G00 X-2.5400 Y26.6700 
G01 Z-0.135000
G01 Z3.000000
(G00 Z3.000000)
G00 X-2.5400 Y29.2100 
G01 Z-0.135000
G01 Z3.000000
T01 
G00 Z12.0000 
M05
M02
