(.../Program Files (x86)/EAGLE-6.4.0/ulp/pcb-gcode.ulp)
(Copyright 2005 - 2012 by John Johnson)
(See readme.txt for licensing terms.)
(This file generated from the board:)
(.../ICRI/git/Breazy/Hardware/Treo2.brd)
(Current profile is .../EAGLE-6.4.0/ulp/profiles/generic.pp  )
(This file generated 11/3/2014 10:35:32 AM)
(Settings from pcb-machine.h)
(  Tool Size)
(0.2540 )
(Z Axis Settings)
(  High     Up        Down     Drill)
(12.0000 	3.0000 	-0.0800 	-0.1350 )
(spindle on time = 3.0000)
(milling depth = -0.2540)
(text depth = -0.1270)
(tool change at 12.7000 15.2400 25.4000 )
(feed rate xy = F300.00 )
(feed rate z  = F254.00 )
(Settings from pcb-defaults.h)
(isolate min = 0.0254)
(isolate max = 0.5080)
(isolate step = 0.1270)
(Generated top outlines, top drill, bottom outlines, bottom drill, )
(Unit of measure: mm)
(Metric Mode)
G21
(Absolute Coordinates)
G90
G00 X0.0000 Y0.0000 
M03
G04 P3.000000
G00 Z3.0000 
G00 X-43.4616 Y36.1441 
G01 Z-0.0800 F254.00 
G01 X-43.4984 Y36.2078 F300.00 
G01 X-43.5174 Y36.2788 
G01 X-43.5174 Y38.7212 
G01 X-43.4984 Y38.7922 
G01 X-43.4616 Y38.8559 
G01 X-42.9339 Y39.3836 
G01 X-42.8818 Y39.4357 
G01 X-42.8420 Y39.4587 
G01 X-42.8181 Y39.4724 
G01 X-42.7471 Y39.4915 
G01 X-42.6735 Y39.4915 
G01 X-42.6055 Y39.4732 
G01 X-42.6024 Y39.4724 
G01 X-42.5387 Y39.4357 
G01 X-42.2946 Y39.1915 
G01 X-42.2579 Y39.1278 
G01 X-42.2388 Y39.0568 
G01 X-42.2388 Y38.9832 
G01 X-42.2579 Y38.9122 
G01 X-42.2946 Y38.8484 
G01 X-42.3467 Y38.7964 
G01 X-42.6449 Y38.4982 
G01 X-42.8460 Y38.0127 
G01 X-42.8460 Y37.4873 
G01 X-42.6449 Y37.0018 
G01 X-42.2734 Y36.6303 
G01 X-41.7879 Y36.4292 
G01 X-39.3321 Y36.4292 
G01 X-38.8466 Y36.6303 
G01 X-38.4751 Y37.0018 
G01 X-38.2740 Y37.4873 
G01 X-38.2740 Y38.0127 
G01 X-38.4751 Y38.4982 
G01 X-38.8254 Y38.8484 
G01 X-38.8621 Y38.9122 
G01 X-38.8812 Y38.9832 
G01 X-38.8812 Y39.0568 
G01 X-38.8621 Y39.1278 
G01 X-38.8490 Y39.1506 
G01 X-38.8254 Y39.1915 
G01 X-38.7733 Y39.2436 
G01 X-38.4751 Y39.5418 
G01 X-38.2740 Y40.0273 
G01 X-38.2740 Y40.5527 
G01 X-38.4751 Y41.0382 
G01 X-38.8254 Y41.3884 
G01 X-38.8621 Y41.4522 
G01 X-38.8812 Y41.5232 
G01 X-38.8812 Y41.5968 
G01 X-38.8621 Y41.6678 
G01 X-38.8490 Y41.6906 
G01 X-38.8254 Y41.7315 
G01 X-38.7733 Y41.7836 
G01 X-38.4751 Y42.0818 
G01 X-38.2740 Y42.5673 
G01 X-38.2740 Y43.0927 
G01 X-38.4751 Y43.5782 
G01 X-38.8254 Y43.9284 
G01 X-38.8621 Y43.9922 
G01 X-38.8812 Y44.0632 
G01 X-38.8812 Y44.1368 
G01 X-38.8621 Y44.2078 
G01 X-38.8490 Y44.2306 
G01 X-38.8254 Y44.2716 
G01 X-38.7733 Y44.3236 
G01 X-38.4751 Y44.6218 
G01 X-38.2740 Y45.1073 
G01 X-38.2740 Y45.6327 
G01 X-38.4751 Y46.1182 
G01 X-38.8254 Y46.4684 
G01 X-38.8621 Y46.5322 
G01 X-38.8812 Y46.6032 
G01 X-38.8812 Y46.6768 
G01 X-38.8621 Y46.7478 
G01 X-38.8490 Y46.7706 
G01 X-38.8254 Y46.8116 
G01 X-38.7733 Y46.8636 
G01 X-38.4751 Y47.1618 
G01 X-38.2740 Y47.6473 
G01 X-38.2740 Y48.1727 
G01 X-38.4751 Y48.6582 
G01 X-38.8254 Y49.0084 
G01 X-38.8621 Y49.0722 
G01 X-38.8812 Y49.1432 
G01 X-38.8812 Y49.2168 
G01 X-38.8621 Y49.2878 
G01 X-38.8490 Y49.3106 
G01 X-38.8254 Y49.3516 
G01 X-38.7733 Y49.4036 
G01 X-38.4751 Y49.7018 
G01 X-38.2740 Y50.1873 
G01 X-38.2740 Y50.7127 
G01 X-38.4751 Y51.1982 
G01 X-38.7741 Y51.4972 
G01 X-38.8254 Y51.5484 
G01 X-38.8484 Y51.5883 
G01 X-38.8621 Y51.6122 
G01 X-38.8812 Y51.6832 
G01 X-38.8812 Y51.7568 
G01 X-38.8621 Y51.8278 
G01 X-38.8254 Y51.8916 
G01 X-38.7733 Y51.9436 
G01 X-38.4751 Y52.2418 
G01 X-38.2740 Y52.7273 
G01 X-38.2740 Y53.2527 
G01 X-38.4751 Y53.7382 
G01 X-38.8254 Y54.0884 
G01 X-38.8621 Y54.1522 
G01 X-38.8812 Y54.2232 
G01 X-38.8812 Y54.2968 
G01 X-38.8621 Y54.3678 
G01 X-38.8490 Y54.3906 
G01 X-38.8254 Y54.4316 
G01 X-38.7733 Y54.4836 
G01 X-38.4751 Y54.7818 
G01 X-38.2740 Y55.2673 
G01 X-38.2740 Y55.7927 
G01 X-38.4751 Y56.2782 
G01 X-38.8254 Y56.6284 
G01 X-38.8621 Y56.6922 
G01 X-38.8812 Y56.7632 
G01 X-38.8812 Y56.8368 
G01 X-38.8621 Y56.9078 
G01 X-38.8490 Y56.9306 
G01 X-38.8254 Y56.9716 
G01 X-38.7733 Y57.0236 
G01 X-38.4751 Y57.3218 
G01 X-38.2740 Y57.8073 
G01 X-38.2740 Y58.3327 
G01 X-38.4751 Y58.8182 
G01 X-38.8254 Y59.1684 
G01 X-38.8621 Y59.2322 
G01 X-38.8812 Y59.3032 
G01 X-38.8812 Y59.3768 
G01 X-38.8621 Y59.4478 
G01 X-38.8490 Y59.4706 
G01 X-38.8254 Y59.5115 
G01 X-38.7733 Y59.5636 
G01 X-38.4751 Y59.8618 
G01 X-38.2740 Y60.3473 
G01 X-38.2740 Y60.8727 
G01 X-38.4751 Y61.3582 
G01 X-38.8254 Y61.7084 
G01 X-38.8621 Y61.7722 
G01 X-38.8812 Y61.8432 
G01 X-38.8812 Y61.9168 
G01 X-38.8621 Y61.9878 
G01 X-38.8490 Y62.0106 
G01 X-38.8254 Y62.0516 
G01 X-38.7733 Y62.1036 
G01 X-38.4751 Y62.4018 
G01 X-38.2651 Y62.9087 
G01 X-38.2604 Y62.9265 
G01 X-38.2511 Y62.9425 
G01 X-38.2441 Y62.9596 
G01 X-38.2328 Y62.9742 
G01 X-38.2236 Y62.9902 
G01 X-38.2105 Y63.0033 
G01 X-38.1993 Y63.0179 
G01 X-38.1846 Y63.0292 
G01 X-38.1716 Y63.0422 
G01 X-38.1556 Y63.0515 
G01 X-38.1409 Y63.0627 
G01 X-38.1238 Y63.0698 
G01 X-38.1078 Y63.0790 
G01 X-38.0900 Y63.0838 
G01 X-38.0729 Y63.0909 
G01 X-38.0546 Y63.0933 
G01 X-38.0368 Y63.0981 
G01 X-38.0183 Y63.0981 
G01 X-38.0000 Y63.1005 
G01 X-37.9817 Y63.0981 
G01 X-37.9632 Y63.0981 
G01 X-37.9454 Y63.0933 
G01 X-37.9271 Y63.0909 
G01 X-37.9100 Y63.0838 
G01 X-37.8922 Y63.0790 
G01 X-37.8762 Y63.0698 
G01 X-37.8591 Y63.0627 
G01 X-37.8444 Y63.0515 
G01 X-37.8284 Y63.0422 
G01 X-37.8154 Y63.0292 
G01 X-37.8007 Y63.0179 
G01 X-37.7895 Y63.0033 
G01 X-37.7764 Y62.9902 
G01 X-37.7672 Y62.9742 
G01 X-37.7559 Y62.9596 
G01 X-37.7489 Y62.9425 
G01 X-37.7396 Y62.9265 
G01 X-37.7349 Y62.9087 
G01 X-37.7278 Y62.8916 
G01 X-37.7254 Y62.8733 
G01 X-37.7206 Y62.8555 
G01 X-37.7206 Y62.8370 
G01 X-37.7182 Y62.8187 
G01 X-37.7206 Y62.8004 
G01 X-37.7206 Y61.1157 
G01 X-36.8843 Y60.2794 
G01 X-36.7252 Y60.2794 
G01 X-36.6542 Y60.2604 
G01 X-36.5904 Y60.2236 
G01 X-36.5384 Y60.1716 
G01 X-36.5016 Y60.1078 
G01 X-36.4826 Y60.0368 
G01 X-36.4826 Y41.9040 
G01 X-36.4091 Y41.7266 
G01 X-32.9194 Y38.2369 
G01 X-32.8826 Y38.1732 
G01 X-32.8636 Y38.1022 
G01 X-32.8636 Y37.8282 
G01 X-32.7321 Y37.5108 
G01 X-32.4892 Y37.2679 
G01 X-32.1718 Y37.1364 
G01 X-31.8282 Y37.1364 
G01 X-31.5108 Y37.2679 
G01 X-31.2679 Y37.5108 
G01 X-31.1364 Y37.8282 
G01 X-31.1364 Y38.1718 
G01 X-31.2679 Y38.4892 
G01 X-31.5108 Y38.7321 
G01 X-31.8282 Y38.8636 
G01 X-32.1022 Y38.8636 
G01 X-32.1732 Y38.8826 
G01 X-32.2369 Y38.9194 
G01 X-32.2889 Y38.9714 
G01 X-35.4616 Y42.1441 
G01 X-35.4984 Y42.2078 
G01 X-35.5174 Y42.2788 
G01 X-35.5174 Y60.0368 
G01 X-35.4984 Y60.1078 
G01 X-35.4616 Y60.1716 
G01 X-35.4096 Y60.2236 
G01 X-35.3458 Y60.2604 
G01 X-35.2748 Y60.2794 
G01 X-34.7252 Y60.2794 
G01 X-34.6542 Y60.2604 
G01 X-34.5904 Y60.2236 
G01 X-34.5384 Y60.1716 
G01 X-34.5016 Y60.1078 
G01 X-34.4826 Y60.0368 
G01 X-34.4826 Y42.9040 
G01 X-34.4091 Y42.7266 
G01 X-27.5384 Y35.8559 
G01 X-27.5016 Y35.7922 
G01 X-27.4826 Y35.7212 
G01 X-27.4826 Y32.3592 
G01 X-27.4802 Y32.3409 
G01 X-27.4826 Y32.3226 
G01 X-27.4826 Y32.3041 
G01 X-27.4874 Y32.2863 
G01 X-27.4898 Y32.2680 
G01 X-27.4969 Y32.2509 
G01 X-27.5016 Y32.2331 
G01 X-27.5109 Y32.2171 
G01 X-27.5179 Y32.2000 
G01 X-27.5292 Y32.1853 
G01 X-27.5384 Y32.1693 
G01 X-27.5515 Y32.1563 
G01 X-27.5627 Y32.1416 
G01 X-27.5774 Y32.1304 
G01 X-27.5904 Y32.1173 
G01 X-27.6064 Y32.1081 
G01 X-27.6211 Y32.0968 
G01 X-27.6382 Y32.0898 
G01 X-27.6542 Y32.0805 
G01 X-27.6720 Y32.0758 
G01 X-27.6982 Y32.0649 
G01 X-28.0484 Y31.7146 
G01 X-28.1121 Y31.6779 
G01 X-28.1832 Y31.6588 
G01 X-28.2568 Y31.6588 
G01 X-28.3278 Y31.6779 
G01 X-28.3506 Y31.6910 
G01 X-28.3916 Y31.7146 
G01 X-28.4436 Y31.7667 
G01 X-28.7418 Y32.0649 
G01 X-29.2273 Y32.2660 
G01 X-29.7527 Y32.2660 
G01 X-30.2382 Y32.0649 
G01 X-30.6097 Y31.6934 
G01 X-30.6404 Y31.6192 
G01 X-30.6410 Y31.6156 
G01 X-30.6545 Y31.5852 
G01 X-30.6672 Y31.5547 
G01 X-30.6694 Y31.5518 
G01 X-30.6709 Y31.5484 
G01 X-30.6918 Y31.5226 
G01 X-30.7119 Y31.4963 
G01 X-30.7149 Y31.4941 
G01 X-30.7172 Y31.4912 
G01 X-30.7440 Y31.4717 
G01 X-30.7703 Y31.4516 
G01 X-30.7737 Y31.4501 
G01 X-30.7767 Y31.4479 
G01 X-30.8077 Y31.4361 
G01 X-30.8383 Y31.4234 
G01 X-30.8419 Y31.4229 
G01 X-30.8454 Y31.4216 
G01 X-30.8784 Y31.4181 
G01 X-30.9112 Y31.4138 
G01 X-30.9149 Y31.4143 
G01 X-30.9186 Y31.4139 
G01 X-30.9514 Y31.4191 
G01 X-30.9841 Y31.4234 
G01 X-30.9876 Y31.4248 
G01 X-30.9913 Y31.4254 
G01 X-31.0216 Y31.4389 
G01 X-31.0288 Y31.4419 
G01 X-30.9943 Y31.3742 
G01 X-30.9399 Y31.2069 
G01 X-30.9124 Y31.0332 
G01 X-30.9124 Y28.9268 
G01 X-30.9399 Y28.7531 
G01 X-30.9943 Y28.5858 
G01 X-31.0288 Y28.5181 
G01 X-31.0216 Y28.5211 
G01 X-30.9913 Y28.5346 
G01 X-30.9876 Y28.5352 
G01 X-30.9841 Y28.5366 
G01 X-30.9514 Y28.5409 
G01 X-30.9186 Y28.5461 
G01 X-30.9149 Y28.5457 
G01 X-30.9112 Y28.5462 
G01 X-30.8784 Y28.5419 
G01 X-30.8454 Y28.5384 
G01 X-30.8419 Y28.5371 
G01 X-30.8383 Y28.5366 
G01 X-30.8077 Y28.5239 
G01 X-30.7767 Y28.5121 
G01 X-30.7737 Y28.5099 
G01 X-30.7703 Y28.5084 
G01 X-30.7440 Y28.4883 
G01 X-30.7172 Y28.4688 
G01 X-30.7149 Y28.4659 
G01 X-30.7119 Y28.4637 
G01 X-30.6918 Y28.4374 
G01 X-30.6709 Y28.4116 
G01 X-30.6694 Y28.4082 
G01 X-30.6672 Y28.4053 
G01 X-30.6545 Y28.3748 
G01 X-30.6410 Y28.3444 
G01 X-30.6404 Y28.3407 
G01 X-30.6097 Y28.2666 
G01 X-30.5384 Y28.1953 
G01 X-30.5278 Y28.1769 
G01 X-30.5016 Y28.1316 
G01 X-30.4879 Y28.0804 
G01 X-30.4826 Y28.0606 
G01 X-30.4826 Y27.8177 
G01 X-30.5016 Y27.7466 
G01 X-30.5384 Y27.6829 
G01 X-30.5904 Y27.6309 
G01 X-30.7321 Y27.4892 
G01 X-30.8636 Y27.1718 
G01 X-30.8636 Y26.8282 
G01 X-30.7321 Y26.5108 
G01 X-30.4892 Y26.2679 
G01 X-30.4826 Y26.2651 
G01 X-30.4647 Y26.2604 
G01 X-30.4487 Y26.2511 
G01 X-30.4317 Y26.2441 
G01 X-30.4170 Y26.2328 
G01 X-30.4010 Y26.2236 
G01 X-30.3880 Y26.2105 
G01 X-30.3733 Y26.1993 
G01 X-30.3621 Y26.1846 
G01 X-30.3490 Y26.1716 
G01 X-30.3398 Y26.1556 
G01 X-30.3285 Y26.1409 
G01 X-30.3215 Y26.1238 
G01 X-30.3122 Y26.1078 
G01 X-30.3074 Y26.0900 
G01 X-30.3004 Y26.0729 
G01 X-30.2980 Y26.0546 
G01 X-30.2932 Y26.0368 
G01 X-30.2932 Y26.0183 
G01 X-30.2908 Y26.0000 
G01 X-30.2932 Y25.9817 
G01 X-30.2932 Y25.9632 
G01 X-30.2980 Y25.9454 
G01 X-30.3004 Y25.9271 
G01 X-30.3074 Y25.9100 
G01 X-30.3122 Y25.8922 
G01 X-30.3215 Y25.8762 
G01 X-30.3285 Y25.8591 
G01 X-30.3398 Y25.8445 
G01 X-30.3490 Y25.8284 
G01 X-30.3621 Y25.8154 
G01 X-30.3733 Y25.8007 
G01 X-30.3880 Y25.7895 
G01 X-30.4010 Y25.7764 
G01 X-30.4170 Y25.7672 
G01 X-30.4317 Y25.7559 
G01 X-30.4487 Y25.7489 
G01 X-30.4647 Y25.7396 
G01 X-30.4826 Y25.7349 
G01 X-30.4996 Y25.7278 
G01 X-30.5179 Y25.7254 
G01 X-30.5358 Y25.7206 
G01 X-30.5543 Y25.7206 
G01 X-30.5726 Y25.7182 
G01 X-30.5909 Y25.7206 
G01 X-34.6397 Y25.7206 
G01 X-34.6680 Y25.7189 
G01 X-34.6764 Y25.7206 
G01 X-34.6848 Y25.7206 
G01 X-34.7123 Y25.7279 
G01 X-34.7401 Y25.7336 
G01 X-34.7477 Y25.7374 
G01 X-34.7559 Y25.7396 
G01 X-34.7805 Y25.7538 
G01 X-34.8059 Y25.7665 
G01 X-34.8123 Y25.7722 
G01 X-34.8196 Y25.7764 
G01 X-34.8397 Y25.7965 
G01 X-34.8610 Y25.8154 
G01 X-34.8656 Y25.8224 
G01 X-34.8716 Y25.8284 
G01 X-34.8858 Y25.8530 
G01 X-34.9015 Y25.8768 
G01 X-34.9042 Y25.8848 
G01 X-34.9084 Y25.8922 
G01 X-34.9158 Y25.9196 
G01 X-34.9248 Y25.9465 
G01 X-34.9253 Y25.9550 
G01 X-34.9275 Y25.9632 
G01 X-34.9275 Y25.9916 
G01 X-34.9292 Y26.0200 
G01 X-34.9275 Y26.0283 
G01 X-34.9275 Y26.0368 
G01 X-34.9201 Y26.0642 
G01 X-34.9144 Y26.0921 
G01 X-34.9106 Y26.0996 
G01 X-34.9084 Y26.1078 
G01 X-34.8942 Y26.1324 
G01 X-34.6363 Y26.6483 
G01 X-34.6341 Y26.6565 
G01 X-34.6199 Y26.6811 
G01 X-34.6072 Y26.7065 
G01 X-34.6016 Y26.7128 
G01 X-34.5973 Y26.7202 
G01 X-34.5909 Y26.7266 
G01 X-34.5747 Y26.7657 
G01 X-34.5727 Y26.7755 
G01 X-34.5607 Y26.7995 
G01 X-34.5504 Y26.8243 
G01 X-34.5443 Y26.8323 
G01 X-34.5254 Y26.8700 
G01 X-34.5248 Y26.8791 
G01 X-34.5220 Y26.8872 
G01 X-34.5209 Y26.8956 
G01 X-34.5174 Y26.9040 
G01 X-34.5174 Y26.9462 
G01 X-34.5193 Y26.9561 
G01 X-34.5174 Y26.9829 
G01 X-34.5174 Y27.0097 
G01 X-34.5148 Y27.0194 
G01 X-34.5118 Y27.0615 
G01 X-34.5147 Y27.0702 
G01 X-34.5152 Y27.0787 
G01 X-34.5174 Y27.0869 
G01 X-34.5174 Y27.1153 
G01 X-34.5191 Y27.1436 
G01 X-34.5174 Y27.1519 
G01 X-34.5174 Y32.0960 
G01 X-34.5909 Y32.2734 
G01 X-36.5776 Y34.2601 
G01 X-36.7266 Y34.4091 
G01 X-36.9040 Y34.4826 
G01 X-41.7212 Y34.4826 
G01 X-41.7922 Y34.5016 
G01 X-41.8559 Y34.5384 
G01 X-41.9079 Y34.5904 
G01 X-43.4616 Y36.1441 
G00 Z3.0000 
G00 X-15.8965 Y57.8734 
G01 Z-0.0800 F254.00 
G01 X-15.9125 Y57.8826 F300.00 
G01 X-15.9296 Y57.8897 
G01 X-15.9442 Y57.9009 
G01 X-15.9602 Y57.9101 
G01 X-15.9733 Y57.9232 
G01 X-15.9879 Y57.9344 
G01 X-15.9992 Y57.9491 
G01 X-16.0122 Y57.9622 
G01 X-16.0214 Y57.9781 
G01 X-16.0327 Y57.9928 
G01 X-16.0398 Y58.0099 
G01 X-16.0490 Y58.0259 
G01 X-16.0538 Y58.0437 
G01 X-16.0609 Y58.0608 
G01 X-16.0633 Y58.0791 
G01 X-16.0680 Y58.0969 
G01 X-16.0680 Y58.1154 
G01 X-16.0705 Y58.1337 
G01 X-16.0680 Y58.1520 
G01 X-16.0680 Y58.1705 
G01 X-16.0633 Y58.1883 
G01 X-16.0609 Y58.2067 
G01 X-16.0538 Y58.2237 
G01 X-16.0490 Y58.2416 
G01 X-16.0398 Y58.2576 
G01 X-16.0327 Y58.2746 
G01 X-16.0215 Y58.2893 
G01 X-16.0122 Y58.3053 
G01 X-15.9992 Y58.3183 
G01 X-15.9879 Y58.3330 
G01 X-15.9733 Y58.3442 
G01 X-15.9079 Y58.4095 
G01 X-15.8559 Y58.4616 
G01 X-15.7922 Y58.4984 
G01 X-15.7212 Y58.5174 
G01 X-13.2788 Y58.5174 
G01 X-13.2078 Y58.4984 
G01 X-13.1441 Y58.4616 
G01 X-12.3815 Y57.6990 
G01 X-12.3669 Y57.6878 
G01 X-12.3556 Y57.6731 
G01 X-12.3426 Y57.6601 
G01 X-12.3333 Y57.6441 
G01 X-12.3221 Y57.6294 
G01 X-12.3150 Y57.6124 
G01 X-12.3058 Y57.5964 
G01 X-12.3010 Y57.5785 
G01 X-12.2939 Y57.5615 
G01 X-12.2915 Y57.5432 
G01 X-12.2868 Y57.5253 
G01 X-12.2868 Y57.5068 
G01 X-12.2843 Y57.4885 
G01 X-12.2868 Y57.4702 
G01 X-12.2868 Y57.4517 
G01 X-12.2915 Y57.4339 
G01 X-12.2939 Y57.4156 
G01 X-12.3010 Y57.3985 
G01 X-12.3058 Y57.3807 
G01 X-12.3150 Y57.3647 
G01 X-12.3504 Y57.2792 
G01 X-12.3510 Y57.2756 
G01 X-12.3645 Y57.2453 
G01 X-12.3772 Y57.2147 
G01 X-12.3794 Y57.2118 
G01 X-12.3809 Y57.2084 
G01 X-12.4018 Y57.1826 
G01 X-12.4219 Y57.1563 
G01 X-12.4249 Y57.1541 
G01 X-12.4272 Y57.1512 
G01 X-12.4540 Y57.1317 
G01 X-12.4803 Y57.1116 
G01 X-12.4837 Y57.1101 
G01 X-12.4867 Y57.1080 
G01 X-12.5177 Y57.0961 
G01 X-12.5483 Y57.0834 
G01 X-12.5520 Y57.0829 
G01 X-12.5554 Y57.0816 
G01 X-12.5884 Y57.0781 
G01 X-12.6212 Y57.0738 
G01 X-12.6249 Y57.0743 
G01 X-12.6286 Y57.0739 
G01 X-12.6613 Y57.0791 
G01 X-12.6941 Y57.0834 
G01 X-12.6976 Y57.0848 
G01 X-12.7012 Y57.0854 
G01 X-12.7315 Y57.0989 
G01 X-12.7388 Y57.1019 
G01 X-12.7043 Y57.0342 
G01 X-12.6499 Y56.8669 
G01 X-12.6224 Y56.6932 
G01 X-12.6224 Y54.5868 
G01 X-12.6499 Y54.4131 
G01 X-12.7043 Y54.2458 
G01 X-12.7388 Y54.1781 
G01 X-12.7315 Y54.1811 
G01 X-12.7012 Y54.1946 
G01 X-12.6976 Y54.1952 
G01 X-12.6941 Y54.1966 
G01 X-12.6613 Y54.2009 
G01 X-12.6286 Y54.2061 
G01 X-12.6249 Y54.2057 
G01 X-12.6212 Y54.2062 
G01 X-12.5884 Y54.2019 
G01 X-12.5554 Y54.1984 
G01 X-12.5520 Y54.1971 
G01 X-12.5483 Y54.1966 
G01 X-12.5176 Y54.1839 
G01 X-12.4867 Y54.1720 
G01 X-12.4837 Y54.1699 
G01 X-12.4803 Y54.1684 
G01 X-12.4540 Y54.1482 
G01 X-12.4272 Y54.1288 
G01 X-12.4249 Y54.1259 
G01 X-12.4219 Y54.1237 
G01 X-12.4018 Y54.0974 
G01 X-12.3809 Y54.0716 
G01 X-12.3794 Y54.0682 
G01 X-12.3772 Y54.0653 
G01 X-12.3645 Y54.0347 
G01 X-12.3510 Y54.0044 
G01 X-12.3504 Y54.0008 
G01 X-12.3197 Y53.9266 
G01 X-11.9482 Y53.5551 
G01 X-11.4627 Y53.3540 
G01 X-10.9373 Y53.3540 
G01 X-10.4518 Y53.5551 
G01 X-10.1016 Y53.9054 
G01 X-10.0378 Y53.9421 
G01 X-9.9668 Y53.9612 
G01 X-9.8932 Y53.9612 
G01 X-9.8222 Y53.9421 
G01 X-9.7994 Y53.9290 
G01 X-9.7584 Y53.9054 
G01 X-9.7064 Y53.8533 
G01 X-9.4082 Y53.5551 
G01 X-8.9227 Y53.3540 
G01 X-8.3973 Y53.3540 
G01 X-7.9118 Y53.5551 
G01 X-7.5403 Y53.9266 
G01 X-7.3392 Y54.4121 
G01 X-7.3392 Y56.8679 
G01 X-7.5403 Y57.3534 
G01 X-7.9118 Y57.7249 
G01 X-8.3973 Y57.9260 
G01 X-8.9227 Y57.9260 
G01 X-9.4082 Y57.7249 
G01 X-9.7072 Y57.4259 
G01 X-9.7584 Y57.3746 
G01 X-9.7983 Y57.3516 
G01 X-9.8222 Y57.3379 
G01 X-9.8932 Y57.3188 
G01 X-9.9668 Y57.3188 
G01 X-10.0378 Y57.3379 
G01 X-10.1016 Y57.3746 
G01 X-10.1536 Y57.4267 
G01 X-10.4518 Y57.7249 
G01 X-10.9373 Y57.9260 
G01 X-11.1646 Y57.9260 
G01 X-11.2356 Y57.9450 
G01 X-11.2993 Y57.9818 
G01 X-11.3513 Y58.0338 
G01 X-12.5776 Y59.2601 
G01 X-12.7266 Y59.4091 
G01 X-12.9040 Y59.4826 
G01 X-16.0960 Y59.4826 
G01 X-16.2734 Y59.4091 
G01 X-18.2601 Y57.4224 
G01 X-18.4091 Y57.2734 
G01 X-18.4826 Y57.0960 
G01 X-18.4826 Y45.9040 
G01 X-18.4091 Y45.7266 
G01 X-13.9814 Y41.2989 
G01 X-13.9293 Y41.2468 
G01 X-13.9063 Y41.2070 
G01 X-13.8926 Y41.1831 
G01 X-13.8735 Y41.1121 
G01 X-13.8735 Y41.0385 
G01 X-13.8926 Y40.9674 
G01 X-13.9293 Y40.9037 
G01 X-14.1197 Y40.7134 
G01 X-14.1504 Y40.6392 
G01 X-14.1510 Y40.6356 
G01 X-14.1645 Y40.6053 
G01 X-14.1772 Y40.5747 
G01 X-14.1794 Y40.5718 
G01 X-14.1809 Y40.5684 
G01 X-14.2018 Y40.5426 
G01 X-14.2219 Y40.5163 
G01 X-14.2249 Y40.5141 
G01 X-14.2272 Y40.5112 
G01 X-14.2540 Y40.4918 
G01 X-14.2803 Y40.4716 
G01 X-14.2837 Y40.4701 
G01 X-14.2867 Y40.4680 
G01 X-14.3176 Y40.4561 
G01 X-14.3483 Y40.4434 
G01 X-14.3520 Y40.4429 
G01 X-14.3554 Y40.4416 
G01 X-14.3884 Y40.4381 
G01 X-14.4212 Y40.4338 
G01 X-14.4249 Y40.4343 
G01 X-14.4286 Y40.4339 
G01 X-14.4613 Y40.4391 
G01 X-14.4941 Y40.4434 
G01 X-14.4976 Y40.4448 
G01 X-14.5012 Y40.4454 
G01 X-14.5315 Y40.4589 
G01 X-14.5388 Y40.4619 
G01 X-14.5043 Y40.3942 
G01 X-14.4499 Y40.2269 
G01 X-14.4224 Y40.0532 
G01 X-14.4224 Y37.9468 
G01 X-14.4499 Y37.7731 
G01 X-14.5043 Y37.6058 
G01 X-14.5388 Y37.5381 
G01 X-14.5315 Y37.5411 
G01 X-14.5012 Y37.5546 
G01 X-14.4976 Y37.5552 
G01 X-14.4941 Y37.5566 
G01 X-14.4613 Y37.5609 
G01 X-14.4286 Y37.5661 
G01 X-14.4249 Y37.5657 
G01 X-14.4212 Y37.5662 
G01 X-14.3884 Y37.5619 
G01 X-14.3554 Y37.5584 
G01 X-14.3520 Y37.5571 
G01 X-14.3483 Y37.5566 
G01 X-14.3176 Y37.5439 
G01 X-14.2867 Y37.5320 
G01 X-14.2837 Y37.5299 
G01 X-14.2803 Y37.5284 
G01 X-14.2540 Y37.5082 
G01 X-14.2272 Y37.4888 
G01 X-14.2249 Y37.4859 
G01 X-14.2219 Y37.4837 
G01 X-14.2018 Y37.4574 
G01 X-14.1809 Y37.4316 
G01 X-14.1794 Y37.4282 
G01 X-14.1772 Y37.4253 
G01 X-14.1645 Y37.3947 
G01 X-14.1510 Y37.3644 
G01 X-14.1504 Y37.3608 
G01 X-14.1197 Y37.2866 
G01 X-13.7482 Y36.9151 
G01 X-13.6720 Y36.8835 
G01 X-13.6542 Y36.8787 
G01 X-13.6382 Y36.8695 
G01 X-13.6211 Y36.8624 
G01 X-13.6064 Y36.8512 
G01 X-13.5904 Y36.8420 
G01 X-13.5774 Y36.8289 
G01 X-13.5627 Y36.8177 
G01 X-13.5515 Y36.8030 
G01 X-13.5384 Y36.7899 
G01 X-13.5292 Y36.7740 
G01 X-13.5179 Y36.7593 
G01 X-13.5109 Y36.7422 
G01 X-13.5016 Y36.7262 
G01 X-13.4969 Y36.7084 
G01 X-13.4898 Y36.6913 
G01 X-13.4874 Y36.6730 
G01 X-13.4826 Y36.6552 
G01 X-13.4826 Y36.6367 
G01 X-13.4802 Y36.6184 
G01 X-13.4826 Y36.6001 
G01 X-13.4826 Y32.1807 
G01 X-13.4802 Y32.1624 
G01 X-13.4826 Y32.1441 
G01 X-13.4826 Y32.1257 
G01 X-13.4874 Y32.1078 
G01 X-13.4898 Y32.0895 
G01 X-13.4969 Y32.0724 
G01 X-13.5016 Y32.0546 
G01 X-13.5109 Y32.0386 
G01 X-13.5179 Y32.0215 
G01 X-13.5292 Y32.0069 
G01 X-13.5384 Y31.9909 
G01 X-13.5515 Y31.9778 
G01 X-13.5627 Y31.9632 
G01 X-13.5774 Y31.9519 
G01 X-13.5904 Y31.9389 
G01 X-13.6064 Y31.9296 
G01 X-13.6211 Y31.9184 
G01 X-13.6382 Y31.9113 
G01 X-13.6542 Y31.9021 
G01 X-13.6720 Y31.8973 
G01 X-14.0882 Y31.7249 
G01 X-14.3872 Y31.4259 
G01 X-14.4384 Y31.3746 
G01 X-14.4783 Y31.3516 
G01 X-14.5022 Y31.3379 
G01 X-14.5732 Y31.3188 
G01 X-14.6468 Y31.3188 
G01 X-14.7178 Y31.3379 
G01 X-14.7816 Y31.3746 
G01 X-14.8336 Y31.4267 
G01 X-15.1318 Y31.7249 
G01 X-15.6173 Y31.9260 
G01 X-16.1427 Y31.9260 
G01 X-16.6282 Y31.7249 
G01 X-16.9784 Y31.3746 
G01 X-17.0237 Y31.3485 
G01 X-17.0422 Y31.3379 
G01 X-17.0743 Y31.3292 
G01 X-17.1132 Y31.3188 
G01 X-17.1868 Y31.3188 
G01 X-17.2050 Y31.3237 
G01 X-17.2578 Y31.3379 
G01 X-17.3216 Y31.3746 
G01 X-17.3736 Y31.4267 
G01 X-17.4616 Y31.5147 
G01 X-17.4893 Y31.5627 
G01 X-17.4984 Y31.5784 
G01 X-17.5074 Y31.6122 
G01 X-17.5174 Y31.6494 
G01 X-17.5174 Y32.1823 
G01 X-17.4984 Y32.2534 
G01 X-17.4616 Y32.3171 
G01 X-17.4096 Y32.3691 
G01 X-17.2679 Y32.5108 
G01 X-17.1364 Y32.8282 
G01 X-17.1364 Y33.1718 
G01 X-17.2679 Y33.4892 
G01 X-17.5108 Y33.7321 
G01 X-17.8282 Y33.8636 
G01 X-18.1718 Y33.8636 
G01 X-18.4892 Y33.7321 
G01 X-18.7321 Y33.4892 
G01 X-18.8636 Y33.1718 
G01 X-18.8636 Y32.8282 
G01 X-18.7321 Y32.5108 
G01 X-18.6128 Y32.3914 
G01 X-18.5981 Y32.3802 
G01 X-18.5869 Y32.3655 
G01 X-18.5738 Y32.3525 
G01 X-18.5646 Y32.3365 
G01 X-18.5533 Y32.3218 
G01 X-18.5463 Y32.3048 
G01 X-18.5370 Y32.2888 
G01 X-18.5322 Y32.2709 
G01 X-18.5252 Y32.2539 
G01 X-18.5228 Y32.2356 
G01 X-18.5180 Y32.2177 
G01 X-18.5180 Y32.1992 
G01 X-18.5156 Y32.1809 
G01 X-18.5180 Y32.1626 
G01 X-18.5180 Y32.1441 
G01 X-18.5228 Y32.1263 
G01 X-18.5252 Y32.1080 
G01 X-18.5322 Y32.0909 
G01 X-18.5370 Y32.0731 
G01 X-18.5462 Y32.0571 
G01 X-18.5533 Y32.0400 
G01 X-18.5646 Y32.0254 
G01 X-18.5738 Y32.0094 
G01 X-18.5869 Y31.9963 
G01 X-18.5981 Y31.9817 
G01 X-18.6128 Y31.9704 
G01 X-18.6258 Y31.9574 
G01 X-18.6418 Y31.9481 
G01 X-18.6565 Y31.9369 
G01 X-18.6735 Y31.9298 
G01 X-18.6895 Y31.9206 
G01 X-18.7074 Y31.9158 
G01 X-19.1682 Y31.7249 
G01 X-19.5397 Y31.3534 
G01 X-19.7408 Y30.8679 
G01 X-19.7408 Y28.4121 
G01 X-19.5323 Y27.9087 
G01 X-19.5099 Y27.8699 
G01 X-19.5008 Y27.8362 
G01 X-19.4908 Y27.7989 
G01 X-19.4908 Y27.7622 
G01 X-19.4908 Y27.7253 
G01 X-19.4996 Y27.6926 
G01 X-19.5098 Y27.6542 
G01 X-19.5255 Y27.6271 
G01 X-19.5466 Y27.5905 
G01 X-19.5660 Y27.5711 
G01 X-19.5986 Y27.5385 
G01 X-19.6255 Y27.5230 
G01 X-19.6623 Y27.5017 
G01 X-19.6961 Y27.4926 
G01 X-19.7334 Y27.4826 
G01 X-19.7700 Y27.4826 
G01 X-19.8069 Y27.4826 
G01 X-25.9766 Y27.4826 
G01 X-26.0476 Y27.5016 
G01 X-26.1113 Y27.5384 
G01 X-26.1634 Y27.5904 
G01 X-26.1864 Y27.6303 
G01 X-26.2001 Y27.6542 
G01 X-26.2192 Y27.7252 
G01 X-26.2192 Y27.7988 
G01 X-26.2001 Y27.8698 
G01 X-26.1634 Y27.9336 
G01 X-25.8303 Y28.2666 
G01 X-25.6292 Y28.7521 
G01 X-25.6292 Y31.2079 
G01 X-25.8303 Y31.6934 
G01 X-26.2018 Y32.0649 
G01 X-26.3280 Y32.1172 
G01 X-26.3458 Y32.1220 
G01 X-26.3618 Y32.1312 
G01 X-26.3789 Y32.1383 
G01 X-26.3936 Y32.1495 
G01 X-26.4096 Y32.1587 
G01 X-26.4226 Y32.1718 
G01 X-26.4373 Y32.1830 
G01 X-26.4485 Y32.1977 
G01 X-26.4616 Y32.2108 
G01 X-26.4708 Y32.2268 
G01 X-26.4821 Y32.2414 
G01 X-26.4891 Y32.2585 
G01 X-26.4984 Y32.2745 
G01 X-26.5031 Y32.2923 
G01 X-26.5102 Y32.3094 
G01 X-26.5126 Y32.3277 
G01 X-26.5174 Y32.3455 
G01 X-26.5174 Y32.3640 
G01 X-26.5198 Y32.3823 
G01 X-26.5174 Y32.4006 
G01 X-26.5174 Y36.0960 
G01 X-26.5909 Y36.2734 
G01 X-26.7919 Y36.4744 
G01 X-33.4616 Y43.1441 
G01 X-33.4984 Y43.2078 
G01 X-33.5174 Y43.2788 
G01 X-33.5174 Y60.0368 
G01 X-33.4984 Y60.1078 
G01 X-33.4616 Y60.1716 
G01 X-33.4096 Y60.2236 
G01 X-33.3458 Y60.2604 
G01 X-33.2748 Y60.2794 
G01 X-27.1157 Y60.2794 
G01 X-25.2794 Y62.1157 
G01 X-25.2794 Y72.0368 
G01 X-25.2604 Y72.1078 
G01 X-25.2236 Y72.1716 
G01 X-25.1716 Y72.2236 
G01 X-25.1078 Y72.2604 
G01 X-25.0368 Y72.2794 
G01 X-24.2014 Y72.2794 
G01 X-24.1304 Y72.2604 
G01 X-24.0667 Y72.2236 
G01 X-24.0146 Y72.1716 
G01 X-23.9779 Y72.1078 
G01 X-23.9588 Y72.0368 
G01 X-23.9588 Y71.9632 
G01 X-23.9779 Y71.8922 
G01 X-24.0146 Y71.8284 
G01 X-24.0667 Y71.7764 
G01 X-24.3249 Y71.5182 
G01 X-24.5260 Y71.0327 
G01 X-24.5260 Y70.5073 
G01 X-24.3249 Y70.0218 
G01 X-23.9746 Y69.6716 
G01 X-23.9379 Y69.6078 
G01 X-23.9188 Y69.5368 
G01 X-23.9188 Y69.4632 
G01 X-23.9379 Y69.3922 
G01 X-23.9510 Y69.3693 
G01 X-23.9746 Y69.3284 
G01 X-24.0267 Y69.2764 
G01 X-24.3249 Y68.9782 
G01 X-24.5260 Y68.4927 
G01 X-24.5260 Y67.9673 
G01 X-24.3249 Y67.4818 
G01 X-24.0259 Y67.1828 
G01 X-23.9746 Y67.1316 
G01 X-23.9516 Y67.0917 
G01 X-23.9379 Y67.0678 
G01 X-23.9188 Y66.9968 
G01 X-23.9188 Y66.9232 
G01 X-23.9379 Y66.8522 
G01 X-23.9746 Y66.7884 
G01 X-24.0267 Y66.7364 
G01 X-24.3249 Y66.4382 
G01 X-24.5260 Y65.9527 
G01 X-24.5260 Y65.4273 
G01 X-24.3249 Y64.9418 
G01 X-24.0259 Y64.6428 
G01 X-23.9746 Y64.5915 
G01 X-23.9516 Y64.5517 
G01 X-23.9379 Y64.5278 
G01 X-23.9188 Y64.4568 
G01 X-23.9188 Y64.3832 
G01 X-23.9379 Y64.3122 
G01 X-23.9746 Y64.2484 
G01 X-24.0267 Y64.1964 
G01 X-24.3249 Y63.8982 
G01 X-24.5260 Y63.4127 
G01 X-24.5260 Y62.8873 
G01 X-24.3249 Y62.4018 
G01 X-24.0259 Y62.1028 
G01 X-23.9746 Y62.0516 
G01 X-23.9516 Y62.0117 
G01 X-23.9379 Y61.9878 
G01 X-23.9188 Y61.9168 
G01 X-23.9188 Y61.8432 
G01 X-23.9379 Y61.7722 
G01 X-23.9746 Y61.7084 
G01 X-24.0267 Y61.6564 
G01 X-24.3249 Y61.3582 
G01 X-24.5260 Y60.8727 
G01 X-24.5260 Y60.3473 
G01 X-24.3249 Y59.8618 
G01 X-24.0259 Y59.5628 
G01 X-23.9746 Y59.5115 
G01 X-23.9516 Y59.4717 
G01 X-23.9379 Y59.4478 
G01 X-23.9188 Y59.3768 
G01 X-23.9188 Y59.3032 
G01 X-23.9379 Y59.2322 
G01 X-23.9746 Y59.1684 
G01 X-24.0267 Y59.1164 
G01 X-24.3249 Y58.8182 
G01 X-24.5260 Y58.3327 
G01 X-24.5260 Y57.8073 
G01 X-24.3249 Y57.3218 
G01 X-24.0259 Y57.0228 
G01 X-23.9746 Y56.9716 
G01 X-23.9516 Y56.9317 
G01 X-23.9379 Y56.9078 
G01 X-23.9188 Y56.8368 
G01 X-23.9188 Y56.7632 
G01 X-23.9379 Y56.6922 
G01 X-23.9746 Y56.6284 
G01 X-24.0267 Y56.5764 
G01 X-24.3249 Y56.2782 
G01 X-24.5260 Y55.7927 
G01 X-24.5260 Y55.2673 
G01 X-24.3249 Y54.7818 
G01 X-24.0259 Y54.4828 
G01 X-23.9746 Y54.4316 
G01 X-23.9516 Y54.3917 
G01 X-23.9379 Y54.3678 
G01 X-23.9188 Y54.2968 
G01 X-23.9188 Y54.2232 
G01 X-23.9379 Y54.1522 
G01 X-23.9746 Y54.0884 
G01 X-24.0267 Y54.0364 
G01 X-24.3249 Y53.7382 
G01 X-24.5260 Y53.2527 
G01 X-24.5260 Y52.7273 
G01 X-24.3249 Y52.2418 
G01 X-23.9746 Y51.8916 
G01 X-23.9379 Y51.8278 
G01 X-23.9188 Y51.7568 
G01 X-23.9188 Y51.6832 
G01 X-23.9379 Y51.6122 
G01 X-23.9510 Y51.5894 
G01 X-23.9746 Y51.5484 
G01 X-24.0267 Y51.4964 
G01 X-24.3249 Y51.1982 
G01 X-24.5260 Y50.7127 
G01 X-24.5260 Y50.1873 
G01 X-24.3249 Y49.7018 
G01 X-24.0259 Y49.4028 
G01 X-23.9746 Y49.3516 
G01 X-23.9516 Y49.3117 
G01 X-23.9379 Y49.2878 
G01 X-23.9188 Y49.2168 
G01 X-23.9188 Y49.1432 
G01 X-23.9379 Y49.0722 
G01 X-23.9746 Y49.0084 
G01 X-24.0267 Y48.9564 
G01 X-24.3249 Y48.6582 
G01 X-24.5260 Y48.1727 
G01 X-24.5260 Y47.6473 
G01 X-24.3249 Y47.1618 
G01 X-23.9746 Y46.8116 
G01 X-23.9379 Y46.7478 
G01 X-23.9188 Y46.6768 
G01 X-23.9188 Y46.6032 
G01 X-23.9379 Y46.5322 
G01 X-23.9510 Y46.5094 
G01 X-23.9746 Y46.4684 
G01 X-24.0267 Y46.4164 
G01 X-24.3249 Y46.1182 
G01 X-24.5260 Y45.6327 
G01 X-24.5260 Y45.1073 
G01 X-24.3249 Y44.6218 
G01 X-24.0259 Y44.3228 
G01 X-23.9746 Y44.2716 
G01 X-23.9516 Y44.2317 
G01 X-23.9379 Y44.2078 
G01 X-23.9188 Y44.1368 
G01 X-23.9188 Y44.0632 
G01 X-23.9379 Y43.9922 
G01 X-23.9746 Y43.9284 
G01 X-24.0267 Y43.8764 
G01 X-24.3249 Y43.5782 
G01 X-24.5260 Y43.0927 
G01 X-24.5260 Y42.5673 
G01 X-24.3249 Y42.0818 
G01 X-24.0259 Y41.7828 
G01 X-23.9746 Y41.7315 
G01 X-23.9516 Y41.6917 
G01 X-23.9379 Y41.6678 
G01 X-23.9188 Y41.5968 
G01 X-23.9188 Y41.5232 
G01 X-23.9379 Y41.4522 
G01 X-23.9746 Y41.3884 
G01 X-24.0267 Y41.3364 
G01 X-24.3249 Y41.0382 
G01 X-24.5260 Y40.5527 
G01 X-24.5260 Y40.0273 
G01 X-24.3249 Y39.5418 
G01 X-23.9534 Y39.1703 
G01 X-23.8792 Y39.1396 
G01 X-23.8756 Y39.1390 
G01 X-23.8453 Y39.1255 
G01 X-23.8147 Y39.1128 
G01 X-23.8118 Y39.1106 
G01 X-23.8084 Y39.1091 
G01 X-23.7826 Y39.0882 
G01 X-23.7563 Y39.0681 
G01 X-23.7541 Y39.0651 
G01 X-23.7512 Y39.0628 
G01 X-23.7318 Y39.0360 
G01 X-23.7116 Y39.0097 
G01 X-23.7101 Y39.0063 
G01 X-23.7080 Y39.0033 
G01 X-23.6961 Y38.9724 
G01 X-23.6834 Y38.9417 
G01 X-23.6829 Y38.9380 
G01 X-23.6816 Y38.9346 
G01 X-23.6781 Y38.9016 
G01 X-23.6738 Y38.8688 
G01 X-23.6743 Y38.8651 
G01 X-23.6739 Y38.8614 
G01 X-23.6791 Y38.8287 
G01 X-23.6834 Y38.7958 
G01 X-23.6848 Y38.7924 
G01 X-23.6854 Y38.7887 
G01 X-23.6989 Y38.7585 
G01 X-23.7019 Y38.7512 
G01 X-23.6342 Y38.7857 
G01 X-23.4669 Y38.8401 
G01 X-23.2932 Y38.8676 
G01 X-21.1868 Y38.8676 
G01 X-21.0131 Y38.8401 
G01 X-20.8458 Y38.7857 
G01 X-20.7781 Y38.7512 
G01 X-20.7811 Y38.7585 
G01 X-20.7946 Y38.7887 
G01 X-20.7952 Y38.7924 
G01 X-20.7966 Y38.7958 
G01 X-20.8009 Y38.8287 
G01 X-20.8061 Y38.8614 
G01 X-20.8057 Y38.8651 
G01 X-20.8062 Y38.8688 
G01 X-20.8019 Y38.9016 
G01 X-20.7984 Y38.9346 
G01 X-20.7971 Y38.9380 
G01 X-20.7966 Y38.9417 
G01 X-20.7839 Y38.9724 
G01 X-20.7720 Y39.0033 
G01 X-20.7699 Y39.0063 
G01 X-20.7684 Y39.0097 
G01 X-20.7482 Y39.0360 
G01 X-20.7288 Y39.0628 
G01 X-20.7259 Y39.0651 
G01 X-20.7237 Y39.0681 
G01 X-20.6974 Y39.0882 
G01 X-20.6716 Y39.1091 
G01 X-20.6682 Y39.1106 
G01 X-20.6653 Y39.1128 
G01 X-20.6347 Y39.1255 
G01 X-20.6044 Y39.1390 
G01 X-20.6008 Y39.1396 
G01 X-20.5266 Y39.1703 
G01 X-20.1551 Y39.5418 
G01 X-19.9540 Y40.0273 
G01 X-19.9540 Y40.5527 
G01 X-20.1551 Y41.0382 
G01 X-20.5053 Y41.3884 
G01 X-20.5421 Y41.4522 
G01 X-20.5612 Y41.5232 
G01 X-20.5612 Y41.5968 
G01 X-20.5421 Y41.6678 
G01 X-20.5290 Y41.6906 
G01 X-20.5054 Y41.7315 
G01 X-20.4533 Y41.7836 
G01 X-20.1551 Y42.0818 
G01 X-19.9540 Y42.5673 
G01 X-19.9540 Y43.0927 
G01 X-20.1551 Y43.5782 
G01 X-20.5053 Y43.9284 
G01 X-20.5421 Y43.9922 
G01 X-20.5612 Y44.0632 
G01 X-20.5612 Y44.1368 
G01 X-20.5421 Y44.2078 
G01 X-20.5290 Y44.2306 
G01 X-20.5054 Y44.2716 
G01 X-20.4533 Y44.3236 
G01 X-20.1551 Y44.6218 
G01 X-19.9540 Y45.1073 
G01 X-19.9540 Y45.6327 
G01 X-20.1551 Y46.1182 
G01 X-20.4541 Y46.4172 
G01 X-20.5054 Y46.4684 
G01 X-20.5284 Y46.5083 
G01 X-20.5421 Y46.5322 
G01 X-20.5612 Y46.6032 
G01 X-20.5612 Y46.6768 
G01 X-20.5421 Y46.7478 
G01 X-20.5053 Y46.8116 
G01 X-20.4533 Y46.8636 
G01 X-20.1551 Y47.1618 
G01 X-19.9540 Y47.6473 
G01 X-19.9540 Y48.1727 
G01 X-20.1551 Y48.6582 
G01 X-20.5053 Y49.0084 
G01 X-20.5421 Y49.0722 
G01 X-20.5612 Y49.1432 
G01 X-20.5612 Y49.2168 
G01 X-20.5421 Y49.2878 
G01 X-20.5290 Y49.3106 
G01 X-20.5054 Y49.3516 
G01 X-20.4533 Y49.4036 
G01 X-20.1551 Y49.7018 
G01 X-19.9540 Y50.1873 
G01 X-19.9540 Y50.7127 
G01 X-20.1551 Y51.1982 
G01 X-20.4541 Y51.4972 
G01 X-20.5054 Y51.5484 
G01 X-20.5284 Y51.5883 
G01 X-20.5421 Y51.6122 
G01 X-20.5612 Y51.6832 
G01 X-20.5612 Y51.7568 
G01 X-20.5421 Y51.8278 
G01 X-20.5053 Y51.8916 
G01 X-20.4533 Y51.9436 
G01 X-20.1551 Y52.2418 
G01 X-19.9540 Y52.7273 
G01 X-19.9540 Y53.2527 
G01 X-20.1551 Y53.7382 
G01 X-20.5053 Y54.0884 
G01 X-20.5421 Y54.1522 
G01 X-20.5612 Y54.2232 
G01 X-20.5612 Y54.2968 
G01 X-20.5421 Y54.3678 
G01 X-20.5290 Y54.3906 
G01 X-20.5054 Y54.4316 
G01 X-20.4533 Y54.4836 
G01 X-20.1551 Y54.7818 
G01 X-19.9540 Y55.2673 
G01 X-19.9540 Y55.7927 
G01 X-20.1551 Y56.2782 
G01 X-20.5053 Y56.6284 
G01 X-20.5421 Y56.6922 
G01 X-20.5612 Y56.7632 
G01 X-20.5612 Y56.8368 
G01 X-20.5421 Y56.9078 
G01 X-20.5290 Y56.9306 
G01 X-20.5054 Y56.9716 
G01 X-20.4533 Y57.0236 
G01 X-20.1551 Y57.3218 
G01 X-19.9540 Y57.8073 
G01 X-19.9540 Y58.3327 
G01 X-20.1551 Y58.8182 
G01 X-20.5053 Y59.1684 
G01 X-20.5421 Y59.2322 
G01 X-20.5612 Y59.3032 
G01 X-20.5612 Y59.3768 
G01 X-20.5421 Y59.4478 
G01 X-20.5290 Y59.4706 
G01 X-20.5054 Y59.5115 
G01 X-20.4533 Y59.5636 
G01 X-20.1551 Y59.8618 
G01 X-19.9540 Y60.3473 
G01 X-19.9540 Y60.8727 
G01 X-20.1551 Y61.3582 
G01 X-20.5053 Y61.7084 
G01 X-20.5421 Y61.7722 
G01 X-20.5612 Y61.8432 
G01 X-20.5612 Y61.9168 
G01 X-20.5421 Y61.9878 
G01 X-20.5290 Y62.0106 
G01 X-20.5054 Y62.0516 
G01 X-20.4533 Y62.1036 
G01 X-20.1551 Y62.4018 
G01 X-20.1235 Y62.4780 
G01 X-20.1187 Y62.4958 
G01 X-20.1095 Y62.5118 
G01 X-20.1024 Y62.5289 
G01 X-20.0912 Y62.5436 
G01 X-20.0820 Y62.5596 
G01 X-20.0689 Y62.5726 
G01 X-20.0577 Y62.5873 
G01 X-20.0430 Y62.5985 
G01 X-20.0299 Y62.6116 
G01 X-20.0140 Y62.6208 
G01 X-19.9993 Y62.6321 
G01 X-19.9822 Y62.6391 
G01 X-19.9662 Y62.6484 
G01 X-19.9484 Y62.6531 
G01 X-19.9313 Y62.6602 
G01 X-19.9130 Y62.6626 
G01 X-19.8952 Y62.6674 
G01 X-19.8767 Y62.6674 
G01 X-19.8584 Y62.6698 
G01 X-19.8401 Y62.6674 
G01 X-19.7540 Y62.6674 
G01 X-19.5766 Y62.7409 
G01 X-17.8559 Y64.4616 
G01 X-17.7922 Y64.4984 
G01 X-17.7212 Y64.5174 
G01 X-4.3188 Y64.5174 
G01 X-4.2478 Y64.4984 
G01 X-4.2240 Y64.4846 
G01 X-4.1841 Y64.4616 
G01 X-3.9346 Y64.2121 
G01 X-3.9200 Y64.2009 
G01 X-3.9087 Y64.1862 
G01 X-3.8957 Y64.1732 
G01 X-3.8864 Y64.1572 
G01 X-3.8752 Y64.1425 
G01 X-3.8681 Y64.1255 
G01 X-3.8589 Y64.1095 
G01 X-3.8541 Y64.0916 
G01 X-3.8470 Y64.0746 
G01 X-3.8446 Y64.0562 
G01 X-3.8398 Y64.0384 
G01 X-3.8398 Y64.0199 
G01 X-3.8374 Y64.0016 
G01 X-3.8398 Y63.9833 
G01 X-3.8398 Y63.9648 
G01 X-3.8446 Y63.9470 
G01 X-3.8470 Y63.9287 
G01 X-3.8541 Y63.9116 
G01 X-3.8589 Y63.8938 
G01 X-3.8681 Y63.8778 
G01 X-3.9116 Y63.7728 
G01 X-3.9116 Y63.2272 
G01 X-3.7028 Y62.7230 
G01 X-3.3813 Y62.4016 
G01 X-3.3445 Y62.3378 
G01 X-3.3255 Y62.2668 
G01 X-3.3255 Y62.1932 
G01 X-3.3445 Y62.1222 
G01 X-3.3577 Y62.0994 
G01 X-3.3813 Y62.0584 
G01 X-3.4333 Y62.0064 
G01 X-3.7028 Y61.7370 
G01 X-3.9116 Y61.2328 
G01 X-3.9116 Y60.6872 
G01 X-3.7028 Y60.1830 
G01 X-3.3813 Y59.8616 
G01 X-3.3445 Y59.7978 
G01 X-3.3255 Y59.7268 
G01 X-3.3255 Y59.6532 
G01 X-3.3445 Y59.5822 
G01 X-3.3577 Y59.5594 
G01 X-3.3813 Y59.5184 
G01 X-3.4333 Y59.4664 
G01 X-3.7028 Y59.1970 
G01 X-3.9202 Y58.6720 
G01 X-3.9250 Y58.6542 
G01 X-3.9342 Y58.6382 
G01 X-3.9413 Y58.6211 
G01 X-3.9526 Y58.6064 
G01 X-3.9618 Y58.5904 
G01 X-3.9748 Y58.5774 
G01 X-3.9861 Y58.5627 
G01 X-4.0008 Y58.5515 
G01 X-4.0138 Y58.5384 
G01 X-4.0298 Y58.5292 
G01 X-4.0445 Y58.5179 
G01 X-4.0615 Y58.5109 
G01 X-4.0775 Y58.5016 
G01 X-4.0954 Y58.4969 
G01 X-4.1124 Y58.4898 
G01 X-4.1307 Y58.4874 
G01 X-4.1486 Y58.4826 
G01 X-4.1671 Y58.4826 
G01 X-4.1854 Y58.4802 
G01 X-4.2037 Y58.4826 
G01 X-5.1823 Y58.4826 
G01 X-5.2534 Y58.5016 
G01 X-5.3171 Y58.5384 
G01 X-5.3691 Y58.5904 
G01 X-5.5108 Y58.7321 
G01 X-5.8282 Y58.8636 
G01 X-6.1718 Y58.8636 
G01 X-6.4892 Y58.7321 
G01 X-6.7321 Y58.4892 
G01 X-6.8636 Y58.1718 
G01 X-6.8636 Y57.8282 
G01 X-6.7321 Y57.5108 
G01 X-6.4892 Y57.2679 
G01 X-6.1718 Y57.1364 
G01 X-5.8282 Y57.1364 
G01 X-5.5108 Y57.2679 
G01 X-5.3171 Y57.4616 
G01 X-5.2534 Y57.4984 
G01 X-5.1823 Y57.5174 
G01 X-3.6561 Y57.5174 
G01 X-3.6172 Y57.5070 
G01 X-3.5850 Y57.4984 
G01 X-3.5665 Y57.4877 
G01 X-3.5213 Y57.4616 
G01 X-3.4333 Y57.3736 
G01 X-3.3835 Y57.3237 
G01 X-3.3445 Y57.2578 
G01 X-3.3308 Y57.2066 
G01 X-3.3255 Y57.1868 
G01 X-3.3255 Y57.1132 
G01 X-3.3355 Y57.0760 
G01 X-3.3445 Y57.0422 
G01 X-3.3536 Y57.0265 
G01 X-3.3813 Y56.9784 
G01 X-3.4333 Y56.9264 
G01 X-3.7028 Y56.6570 
G01 X-3.9116 Y56.1528 
G01 X-3.9116 Y55.6072 
G01 X-3.7028 Y55.1030 
G01 X-3.3813 Y54.7816 
G01 X-3.3729 Y54.7670 
G01 X-3.3445 Y54.7178 
G01 X-3.3255 Y54.6468 
G01 X-3.3255 Y54.5732 
G01 X-3.3445 Y54.5022 
G01 X-3.3683 Y54.4609 
G01 X-3.3813 Y54.4384 
G01 X-3.4333 Y54.3864 
G01 X-3.7028 Y54.1170 
G01 X-3.9116 Y53.6128 
G01 X-3.9116 Y53.0672 
G01 X-3.7028 Y52.5630 
G01 X-3.3170 Y52.1772 
G01 X-2.8128 Y51.9684 
G01 X-2.2672 Y51.9684 
G01 X-1.7630 Y52.1772 
G01 X-1.3772 Y52.5630 
G01 X-1.2651 Y52.8336 
G01 X-1.2604 Y52.8515 
G01 X-1.2511 Y52.8675 
G01 X-1.2441 Y52.8845 
G01 X-1.2328 Y52.8992 
G01 X-1.2236 Y52.9152 
G01 X-1.2105 Y52.9282 
G01 X-1.1993 Y52.9429 
G01 X-1.1846 Y52.9541 
G01 X-1.1716 Y52.9672 
G01 X-1.1556 Y52.9764 
G01 X-1.1409 Y52.9877 
G01 X-1.1238 Y52.9947 
G01 X-1.1078 Y53.0040 
G01 X-1.0900 Y53.0088 
G01 X-1.0729 Y53.0158 
G01 X-1.0546 Y53.0182 
G01 X-1.0368 Y53.0230 
G01 X-1.0183 Y53.0230 
G01 X-1.0000 Y53.0254 
G01 X-0.9817 Y53.0230 
G01 X-0.9632 Y53.0230 
G01 X-0.9454 Y53.0182 
G01 X-0.9271 Y53.0158 
G01 X-0.9100 Y53.0088 
G01 X-0.8922 Y53.0040 
G01 X-0.8762 Y52.9947 
G01 X-0.8591 Y52.9877 
G01 X-0.8444 Y52.9764 
G01 X-0.8284 Y52.9672 
G01 X-0.8154 Y52.9541 
G01 X-0.8007 Y52.9429 
G01 X-0.7895 Y52.9282 
G01 X-0.7764 Y52.9152 
G01 X-0.7672 Y52.8992 
G01 X-0.7559 Y52.8845 
G01 X-0.7489 Y52.8675 
G01 X-0.7396 Y52.8515 
G01 X-0.7349 Y52.8336 
G01 X-0.7278 Y52.8166 
G01 X-0.7254 Y52.7982 
G01 X-0.7206 Y52.7804 
G01 X-0.7206 Y52.7619 
G01 X-0.7182 Y52.7436 
G01 X-0.7206 Y52.7253 
G01 X-0.7206 Y50.1447 
G01 X-0.7182 Y50.1264 
G01 X-0.7206 Y50.1081 
G01 X-0.7206 Y50.0896 
G01 X-0.7254 Y50.0718 
G01 X-0.7278 Y50.0534 
G01 X-0.7349 Y50.0364 
G01 X-0.7396 Y50.0185 
G01 X-0.7489 Y50.0025 
G01 X-0.7559 Y49.9855 
G01 X-0.7672 Y49.9708 
G01 X-0.7764 Y49.9548 
G01 X-0.7895 Y49.9418 
G01 X-0.8007 Y49.9271 
G01 X-0.8154 Y49.9159 
G01 X-0.8284 Y49.9028 
G01 X-0.8444 Y49.8936 
G01 X-0.8591 Y49.8823 
G01 X-0.8762 Y49.8753 
G01 X-0.8922 Y49.8660 
G01 X-0.9100 Y49.8612 
G01 X-0.9271 Y49.8542 
G01 X-0.9454 Y49.8518 
G01 X-0.9632 Y49.8470 
G01 X-0.9817 Y49.8470 
G01 X-1.0000 Y49.8446 
G01 X-1.0183 Y49.8470 
G01 X-1.0368 Y49.8470 
G01 X-1.0546 Y49.8518 
G01 X-1.0729 Y49.8542 
G01 X-1.0900 Y49.8612 
G01 X-1.1078 Y49.8660 
G01 X-1.1238 Y49.8752 
G01 X-1.1409 Y49.8823 
G01 X-1.1556 Y49.8936 
G01 X-1.1716 Y49.9028 
G01 X-1.1846 Y49.9159 
G01 X-1.1993 Y49.9271 
G01 X-1.2105 Y49.9418 
G01 X-1.2236 Y49.9548 
G01 X-1.2328 Y49.9708 
G01 X-1.2441 Y49.9855 
G01 X-1.2511 Y50.0025 
G01 X-1.2604 Y50.0185 
G01 X-1.2651 Y50.0364 
G01 X-1.3772 Y50.3070 
G01 X-1.7630 Y50.6928 
G01 X-2.2672 Y50.9016 
G01 X-2.8128 Y50.9016 
G01 X-2.9178 Y50.8581 
G01 X-2.9338 Y50.8489 
G01 X-2.9516 Y50.8441 
G01 X-2.9687 Y50.8370 
G01 X-2.9870 Y50.8346 
G01 X-3.0048 Y50.8298 
G01 X-3.0233 Y50.8298 
G01 X-3.0416 Y50.8274 
G01 X-3.0599 Y50.8298 
G01 X-3.0784 Y50.8298 
G01 X-3.0962 Y50.8346 
G01 X-3.1146 Y50.8370 
G01 X-3.1316 Y50.8441 
G01 X-3.1495 Y50.8489 
G01 X-3.1655 Y50.8581 
G01 X-3.1825 Y50.8652 
G01 X-3.1972 Y50.8764 
G01 X-3.2132 Y50.8857 
G01 X-3.2262 Y50.8987 
G01 X-3.2409 Y50.9100 
G01 X-3.2521 Y50.9246 
G01 X-4.7366 Y52.4091 
G01 X-4.9140 Y52.4826 
G01 X-13.7212 Y52.4826 
G01 X-13.7922 Y52.5016 
G01 X-13.8559 Y52.5384 
G01 X-14.6285 Y53.3110 
G01 X-14.6405 Y53.3197 
G01 X-14.6502 Y53.3317 
G01 X-14.6598 Y53.3404 
G01 X-14.6635 Y53.3460 
G01 X-14.6700 Y53.3525 
G01 X-14.6774 Y53.3654 
G01 X-14.6868 Y53.3769 
G01 X-14.6937 Y53.3926 
G01 X-14.6999 Y53.4021 
G01 X-14.7016 Y53.4072 
G01 X-14.7068 Y53.4162 
G01 X-14.7106 Y53.4306 
G01 X-14.7167 Y53.4441 
G01 X-14.7196 Y53.4626 
G01 X-14.7227 Y53.4721 
G01 X-14.7229 Y53.4763 
G01 X-14.7258 Y53.4873 
G01 X-14.7258 Y53.5021 
G01 X-14.7281 Y53.5168 
G01 X-14.7260 Y53.5367 
G01 X-14.7265 Y53.5455 
G01 X-14.7258 Y53.5488 
G01 X-14.7258 Y53.5608 
G01 X-14.7220 Y53.5752 
G01 X-14.7204 Y53.5900 
G01 X-14.7129 Y53.6095 
G01 X-14.7112 Y53.6175 
G01 X-14.7068 Y53.6319 
G01 X-14.6993 Y53.6448 
G01 X-14.6940 Y53.6586 
G01 X-14.6814 Y53.6760 
G01 X-14.6778 Y53.6830 
G01 X-14.6700 Y53.6956 
G01 X-14.6595 Y53.7061 
G01 X-14.6507 Y53.7181 
G01 X-14.6341 Y53.7316 
G01 X-14.6286 Y53.7377 
G01 X-14.6180 Y53.7476 
G01 X-14.6051 Y53.7551 
G01 X-14.5936 Y53.7644 
G01 X-14.5743 Y53.7730 
G01 X-14.5669 Y53.7778 
G01 X-14.5643 Y53.7786 
G01 X-14.5543 Y53.7844 
G01 X-14.5399 Y53.7883 
G01 X-14.5263 Y53.7943 
G01 X-14.5064 Y53.7974 
G01 X-14.4969 Y53.8005 
G01 X-14.4935 Y53.8007 
G01 X-14.4832 Y53.8034 
G01 X-14.4683 Y53.8034 
G01 X-14.4537 Y53.8058 
G01 X-14.4438 Y53.8047 
G01 X-14.4681 Y53.8223 
G01 X-14.5925 Y53.9467 
G01 X-14.6959 Y54.0891 
G01 X-14.7757 Y54.2458 
G01 X-14.8301 Y54.4131 
G01 X-14.8576 Y54.5868 
G01 X-14.8576 Y56.6932 
G01 X-14.8301 Y56.8669 
G01 X-14.7757 Y57.0342 
G01 X-14.7412 Y57.1019 
G01 X-14.7485 Y57.0989 
G01 X-14.7787 Y57.0854 
G01 X-14.7824 Y57.0848 
G01 X-14.7858 Y57.0834 
G01 X-14.8187 Y57.0791 
G01 X-14.8514 Y57.0739 
G01 X-14.8551 Y57.0743 
G01 X-14.8588 Y57.0738 
G01 X-14.8916 Y57.0781 
G01 X-14.9246 Y57.0816 
G01 X-14.9280 Y57.0829 
G01 X-14.9317 Y57.0834 
G01 X-14.9624 Y57.0961 
G01 X-14.9933 Y57.1080 
G01 X-14.9963 Y57.1101 
G01 X-14.9997 Y57.1116 
G01 X-15.0260 Y57.1318 
G01 X-15.0528 Y57.1512 
G01 X-15.0551 Y57.1541 
G01 X-15.0581 Y57.1563 
G01 X-15.0782 Y57.1826 
G01 X-15.0991 Y57.2084 
G01 X-15.1006 Y57.2118 
G01 X-15.1028 Y57.2147 
G01 X-15.1155 Y57.2453 
G01 X-15.1290 Y57.2756 
G01 X-15.1296 Y57.2792 
G01 X-15.1603 Y57.3534 
G01 X-15.5318 Y57.7249 
G01 X-15.8787 Y57.8686 
G01 X-15.8965 Y57.8734 
G00 Z3.0000 
G00 X-9.3424 Y40.0532 
G01 Z-0.0800 F254.00 
G01 X-9.3424 Y39.2794 F300.00 
G01 X-7.5991 Y39.2794 
G01 X-7.5852 Y39.3128 
G01 X-7.5130 Y39.4210 
G01 X-7.4210 Y39.5130 
G01 X-7.3128 Y39.5852 
G01 X-7.1926 Y39.6350 
G01 X-7.0650 Y39.6604 
G01 X-6.9350 Y39.6604 
G01 X-6.8074 Y39.6350 
G01 X-6.6872 Y39.5852 
G01 X-6.5790 Y39.5130 
G01 X-6.4870 Y39.4210 
G01 X-6.4148 Y39.3128 
G01 X-6.3650 Y39.1926 
G01 X-6.3396 Y39.0650 
G01 X-6.3396 Y38.9350 
G01 X-6.3650 Y38.8074 
G01 X-6.4148 Y38.6872 
G01 X-6.4870 Y38.5790 
G01 X-6.5790 Y38.4870 
G01 X-6.6872 Y38.4148 
G01 X-6.8074 Y38.3650 
G01 X-6.9350 Y38.3396 
G01 X-7.0650 Y38.3396 
G01 X-7.1926 Y38.3650 
G01 X-7.3128 Y38.4148 
G01 X-7.4210 Y38.4870 
G01 X-7.5130 Y38.5790 
G01 X-7.5852 Y38.6872 
G01 X-7.5991 Y38.7206 
G01 X-9.3424 Y38.7206 
G01 X-9.3424 Y37.9468 
G01 X-9.3699 Y37.7731 
G01 X-9.4243 Y37.6058 
G01 X-9.5041 Y37.4490 
G01 X-9.6075 Y37.3067 
G01 X-9.7319 Y37.1823 
G01 X-9.8742 Y37.0789 
G01 X-10.0310 Y36.9991 
G01 X-10.1983 Y36.9447 
G01 X-10.3720 Y36.9172 
G01 X-10.5480 Y36.9172 
G01 X-10.7217 Y36.9447 
G01 X-10.8890 Y36.9991 
G01 X-11.0457 Y37.0789 
G01 X-11.1881 Y37.1823 
G01 X-11.3125 Y37.3067 
G01 X-11.4159 Y37.4490 
G01 X-11.4957 Y37.6058 
G01 X-11.5501 Y37.7731 
G01 X-11.5776 Y37.9468 
G01 X-11.5776 Y40.0532 
G01 X-11.5501 Y40.2269 
G01 X-11.4957 Y40.3942 
G01 X-11.4159 Y40.5509 
G01 X-11.3125 Y40.6933 
G01 X-11.1881 Y40.8177 
G01 X-11.0457 Y40.9211 
G01 X-10.8890 Y41.0009 
G01 X-10.7217 Y41.0553 
G01 X-10.5480 Y41.0828 
G01 X-10.3720 Y41.0828 
G01 X-10.1983 Y41.0553 
G01 X-10.0310 Y41.0009 
G01 X-9.8742 Y40.9211 
G01 X-9.7319 Y40.8177 
G01 X-9.6075 Y40.6933 
G01 X-9.5041 Y40.5509 
G01 X-9.4243 Y40.3942 
G01 X-9.3699 Y40.2269 
G01 X-9.3424 Y40.0532 
G00 Z3.0000 
G00 X-39.5068 Y67.1124 
G01 Z-0.0800 F254.00 
G01 X-41.6132 Y67.1124 F300.00 
G01 X-41.7869 Y67.1399 
G01 X-41.9542 Y67.1943 
G01 X-42.1109 Y67.2741 
G01 X-42.2533 Y67.3775 
G01 X-42.3777 Y67.5019 
G01 X-42.4811 Y67.6442 
G01 X-42.5609 Y67.8010 
G01 X-42.6153 Y67.9683 
G01 X-42.6428 Y68.1420 
G01 X-42.6428 Y68.3180 
G01 X-42.6153 Y68.4917 
G01 X-42.5609 Y68.6590 
G01 X-42.4811 Y68.8157 
G01 X-42.3777 Y68.9581 
G01 X-42.2533 Y69.0825 
G01 X-42.1109 Y69.1859 
G01 X-41.9542 Y69.2657 
G01 X-41.7869 Y69.3201 
G01 X-41.6132 Y69.3476 
G01 X-39.5068 Y69.3476 
G01 X-39.3331 Y69.3201 
G01 X-39.1658 Y69.2657 
G01 X-39.0091 Y69.1859 
G01 X-38.8667 Y69.0825 
G01 X-38.7423 Y68.9581 
G01 X-38.6389 Y68.8157 
G01 X-38.5591 Y68.6590 
G01 X-38.5047 Y68.4917 
G01 X-38.4772 Y68.3180 
G01 X-38.4772 Y68.1420 
G01 X-38.5047 Y67.9683 
G01 X-38.5591 Y67.8010 
G01 X-38.6389 Y67.6442 
G01 X-38.7423 Y67.5019 
G01 X-38.8667 Y67.3775 
G01 X-39.0091 Y67.2741 
G01 X-39.1658 Y67.1943 
G01 X-39.3331 Y67.1399 
G01 X-39.5068 Y67.1124 
G00 Z3.0000 
G00 X-39.5068 Y64.5724 
G01 Z-0.0800 F254.00 
G01 X-41.6132 Y64.5724 F300.00 
G01 X-41.7869 Y64.5999 
G01 X-41.9542 Y64.6543 
G01 X-42.1109 Y64.7341 
G01 X-42.2533 Y64.8375 
G01 X-42.3777 Y64.9619 
G01 X-42.4811 Y65.1043 
G01 X-42.5609 Y65.2610 
G01 X-42.6153 Y65.4283 
G01 X-42.6428 Y65.6020 
G01 X-42.6428 Y65.7780 
G01 X-42.6153 Y65.9517 
G01 X-42.5609 Y66.1190 
G01 X-42.4811 Y66.2757 
G01 X-42.3777 Y66.4181 
G01 X-42.2533 Y66.5425 
G01 X-42.1109 Y66.6459 
G01 X-41.9542 Y66.7257 
G01 X-41.7869 Y66.7801 
G01 X-41.6132 Y66.8076 
G01 X-39.5068 Y66.8076 
G01 X-39.3331 Y66.7801 
G01 X-39.1658 Y66.7257 
G01 X-39.0091 Y66.6459 
G01 X-38.8667 Y66.5425 
G01 X-38.7423 Y66.4181 
G01 X-38.6389 Y66.2757 
G01 X-38.5591 Y66.1190 
G01 X-38.5047 Y65.9517 
G01 X-38.4772 Y65.7780 
G01 X-38.4772 Y65.6020 
G01 X-38.5047 Y65.4283 
G01 X-38.5591 Y65.2610 
G01 X-38.6389 Y65.1043 
G01 X-38.7423 Y64.9619 
G01 X-38.8667 Y64.8375 
G01 X-39.0091 Y64.7341 
G01 X-39.1658 Y64.6543 
G01 X-39.3331 Y64.5999 
G01 X-39.5068 Y64.5724 
G00 Z3.0000 
G00 X-39.5068 Y62.0324 
G01 Z-0.0800 F254.00 
G01 X-41.6132 Y62.0324 F300.00 
G01 X-41.7869 Y62.0599 
G01 X-41.9542 Y62.1143 
G01 X-42.1109 Y62.1941 
G01 X-42.2533 Y62.2975 
G01 X-42.3777 Y62.4219 
G01 X-42.4811 Y62.5643 
G01 X-42.5609 Y62.7210 
G01 X-42.6153 Y62.8883 
G01 X-42.6428 Y63.0620 
G01 X-42.6428 Y63.2380 
G01 X-42.6153 Y63.4117 
G01 X-42.5609 Y63.5790 
G01 X-42.4811 Y63.7357 
G01 X-42.3777 Y63.8781 
G01 X-42.2533 Y64.0025 
G01 X-42.1109 Y64.1059 
G01 X-41.9542 Y64.1857 
G01 X-41.7869 Y64.2401 
G01 X-41.6132 Y64.2676 
G01 X-39.5068 Y64.2676 
G01 X-39.3331 Y64.2401 
G01 X-39.1658 Y64.1857 
G01 X-39.0091 Y64.1059 
G01 X-38.8667 Y64.0025 
G01 X-38.7423 Y63.8781 
G01 X-38.6389 Y63.7357 
G01 X-38.5591 Y63.5790 
G01 X-38.5047 Y63.4117 
G01 X-38.4772 Y63.2380 
G01 X-38.4772 Y63.0620 
G01 X-38.5047 Y62.8883 
G01 X-38.5591 Y62.7210 
G01 X-38.6389 Y62.5643 
G01 X-38.7423 Y62.4219 
G01 X-38.8667 Y62.2975 
G01 X-39.0091 Y62.1941 
G01 X-39.1658 Y62.1143 
G01 X-39.3331 Y62.0599 
G01 X-39.5068 Y62.0324 
G00 Z3.0000 
G00 X-39.5068 Y59.4924 
G01 Z-0.0800 F254.00 
G01 X-41.6132 Y59.4924 F300.00 
G01 X-41.7869 Y59.5199 
G01 X-41.9542 Y59.5743 
G01 X-42.1109 Y59.6541 
G01 X-42.2533 Y59.7575 
G01 X-42.3777 Y59.8819 
G01 X-42.4811 Y60.0243 
G01 X-42.5609 Y60.1810 
G01 X-42.6153 Y60.3483 
G01 X-42.6428 Y60.5220 
G01 X-42.6428 Y60.6980 
G01 X-42.6153 Y60.8717 
G01 X-42.5609 Y61.0390 
G01 X-42.4811 Y61.1957 
G01 X-42.3777 Y61.3381 
G01 X-42.2533 Y61.4625 
G01 X-42.1109 Y61.5659 
G01 X-41.9542 Y61.6457 
G01 X-41.7869 Y61.7001 
G01 X-41.6132 Y61.7276 
G01 X-39.5068 Y61.7276 
G01 X-39.3331 Y61.7001 
G01 X-39.1658 Y61.6457 
G01 X-39.0091 Y61.5659 
G01 X-38.8667 Y61.4625 
G01 X-38.7423 Y61.3381 
G01 X-38.6389 Y61.1957 
G01 X-38.5591 Y61.0390 
G01 X-38.5047 Y60.8717 
G01 X-38.4772 Y60.6980 
G01 X-38.4772 Y60.5220 
G01 X-38.5047 Y60.3483 
G01 X-38.5591 Y60.1810 
G01 X-38.6389 Y60.0243 
G01 X-38.7423 Y59.8819 
G01 X-38.8667 Y59.7575 
G01 X-39.0091 Y59.6541 
G01 X-39.1658 Y59.5743 
G01 X-39.3331 Y59.5199 
G01 X-39.5068 Y59.4924 
G00 Z3.0000 
G00 X-39.5068 Y56.9524 
G01 Z-0.0800 F254.00 
G01 X-41.6132 Y56.9524 F300.00 
G01 X-41.7869 Y56.9799 
G01 X-41.9542 Y57.0343 
G01 X-42.1109 Y57.1141 
G01 X-42.2533 Y57.2175 
G01 X-42.3777 Y57.3419 
G01 X-42.4811 Y57.4843 
G01 X-42.5609 Y57.6410 
G01 X-42.6153 Y57.8083 
G01 X-42.6428 Y57.9820 
G01 X-42.6428 Y58.1580 
G01 X-42.6153 Y58.3317 
G01 X-42.5609 Y58.4990 
G01 X-42.4811 Y58.6557 
G01 X-42.3777 Y58.7981 
G01 X-42.2533 Y58.9225 
G01 X-42.1109 Y59.0259 
G01 X-41.9542 Y59.1057 
G01 X-41.7869 Y59.1601 
G01 X-41.6132 Y59.1876 
G01 X-39.5068 Y59.1876 
G01 X-39.3331 Y59.1601 
G01 X-39.1658 Y59.1057 
G01 X-39.0091 Y59.0259 
G01 X-38.8667 Y58.9225 
G01 X-38.7423 Y58.7981 
G01 X-38.6389 Y58.6557 
G01 X-38.5591 Y58.4990 
G01 X-38.5047 Y58.3317 
G01 X-38.4772 Y58.1580 
G01 X-38.4772 Y57.9820 
G01 X-38.5047 Y57.8083 
G01 X-38.5591 Y57.6410 
G01 X-38.6389 Y57.4843 
G01 X-38.7423 Y57.3419 
G01 X-38.8667 Y57.2175 
G01 X-39.0091 Y57.1141 
G01 X-39.1658 Y57.0343 
G01 X-39.3331 Y56.9799 
G01 X-39.5068 Y56.9524 
G00 Z3.0000 
G00 X-39.5068 Y54.4124 
G01 Z-0.0800 F254.00 
G01 X-41.6132 Y54.4124 F300.00 
G01 X-41.7869 Y54.4399 
G01 X-41.9542 Y54.4943 
G01 X-42.1109 Y54.5741 
G01 X-42.2533 Y54.6775 
G01 X-42.3777 Y54.8019 
G01 X-42.4811 Y54.9443 
G01 X-42.5609 Y55.1010 
G01 X-42.6153 Y55.2683 
G01 X-42.6428 Y55.4420 
G01 X-42.6428 Y55.6180 
G01 X-42.6153 Y55.7917 
G01 X-42.5609 Y55.9590 
G01 X-42.4811 Y56.1157 
G01 X-42.3777 Y56.2581 
G01 X-42.2533 Y56.3825 
G01 X-42.1109 Y56.4859 
G01 X-41.9542 Y56.5657 
G01 X-41.7869 Y56.6201 
G01 X-41.6132 Y56.6476 
G01 X-39.5068 Y56.6476 
G01 X-39.3331 Y56.6201 
G01 X-39.1658 Y56.5657 
G01 X-39.0091 Y56.4859 
G01 X-38.8667 Y56.3825 
G01 X-38.7423 Y56.2581 
G01 X-38.6389 Y56.1157 
G01 X-38.5591 Y55.9590 
G01 X-38.5047 Y55.7917 
G01 X-38.4772 Y55.6180 
G01 X-38.4772 Y55.4420 
G01 X-38.5047 Y55.2683 
G01 X-38.5591 Y55.1010 
G01 X-38.6389 Y54.9443 
G01 X-38.7423 Y54.8019 
G01 X-38.8667 Y54.6775 
G01 X-39.0091 Y54.5741 
G01 X-39.1658 Y54.4943 
G01 X-39.3331 Y54.4399 
G01 X-39.5068 Y54.4124 
G00 Z3.0000 
G00 X-39.5068 Y69.6524 
G01 Z-0.0800 F254.00 
G01 X-41.6132 Y69.6524 F300.00 
G01 X-41.7869 Y69.6799 
G01 X-41.9542 Y69.7343 
G01 X-42.1109 Y69.8141 
G01 X-42.2533 Y69.9175 
G01 X-42.3777 Y70.0419 
G01 X-42.4811 Y70.1843 
G01 X-42.5609 Y70.3410 
G01 X-42.6153 Y70.5083 
G01 X-42.6428 Y70.6820 
G01 X-42.6428 Y70.8580 
G01 X-42.6153 Y71.0317 
G01 X-42.5609 Y71.1990 
G01 X-42.4811 Y71.3557 
G01 X-42.3777 Y71.4981 
G01 X-42.2533 Y71.6225 
G01 X-42.1109 Y71.7259 
G01 X-41.9542 Y71.8057 
G01 X-41.7869 Y71.8601 
G01 X-41.6132 Y71.8876 
G01 X-39.5068 Y71.8876 
G01 X-39.3331 Y71.8601 
G01 X-39.1658 Y71.8057 
G01 X-39.0091 Y71.7259 
G01 X-38.8667 Y71.6225 
G01 X-38.7423 Y71.4981 
G01 X-38.6389 Y71.3557 
G01 X-38.5591 Y71.1990 
G01 X-38.5047 Y71.0317 
G01 X-38.4772 Y70.8580 
G01 X-38.4772 Y70.6820 
G01 X-38.5047 Y70.5083 
G01 X-38.5591 Y70.3410 
G01 X-38.6389 Y70.1843 
G01 X-38.7423 Y70.0419 
G01 X-38.8667 Y69.9175 
G01 X-39.0091 Y69.8141 
G01 X-39.1658 Y69.7343 
G01 X-39.3331 Y69.6799 
G01 X-39.5068 Y69.6524 
G00 Z3.0000 
G00 X-39.5068 Y49.3324 
G01 Z-0.0800 F254.00 
G01 X-41.6132 Y49.3324 F300.00 
G01 X-41.7869 Y49.3599 
G01 X-41.9542 Y49.4143 
G01 X-42.1109 Y49.4941 
G01 X-42.2533 Y49.5975 
G01 X-42.3777 Y49.7219 
G01 X-42.4811 Y49.8643 
G01 X-42.5609 Y50.0210 
G01 X-42.6153 Y50.1883 
G01 X-42.6428 Y50.3620 
G01 X-42.6428 Y50.5380 
G01 X-42.6153 Y50.7117 
G01 X-42.5609 Y50.8790 
G01 X-42.4811 Y51.0357 
G01 X-42.3777 Y51.1781 
G01 X-42.2533 Y51.3025 
G01 X-42.1109 Y51.4059 
G01 X-41.9542 Y51.4857 
G01 X-41.7869 Y51.5401 
G01 X-41.6132 Y51.5676 
G01 X-39.5068 Y51.5676 
G01 X-39.3331 Y51.5401 
G01 X-39.1658 Y51.4857 
G01 X-39.0091 Y51.4059 
G01 X-38.8667 Y51.3025 
G01 X-38.7423 Y51.1781 
G01 X-38.6389 Y51.0357 
G01 X-38.5591 Y50.8790 
G01 X-38.5047 Y50.7117 
G01 X-38.4772 Y50.5380 
G01 X-38.4772 Y50.3620 
G01 X-38.5047 Y50.1883 
G01 X-38.5591 Y50.0210 
G01 X-38.6389 Y49.8643 
G01 X-38.7423 Y49.7219 
G01 X-38.8667 Y49.5975 
G01 X-39.0091 Y49.4941 
G01 X-39.1658 Y49.4143 
G01 X-39.3331 Y49.3599 
G01 X-39.5068 Y49.3324 
G00 Z3.0000 
G00 X-39.5068 Y51.8724 
G01 Z-0.0800 F254.00 
G01 X-41.6132 Y51.8724 F300.00 
G01 X-41.7869 Y51.8999 
G01 X-41.9542 Y51.9543 
G01 X-42.1109 Y52.0341 
G01 X-42.2533 Y52.1375 
G01 X-42.3777 Y52.2619 
G01 X-42.4811 Y52.4043 
G01 X-42.5609 Y52.5610 
G01 X-42.6153 Y52.7283 
G01 X-42.6428 Y52.9020 
G01 X-42.6428 Y53.0780 
G01 X-42.6153 Y53.2517 
G01 X-42.5609 Y53.4190 
G01 X-42.4811 Y53.5757 
G01 X-42.3777 Y53.7181 
G01 X-42.2533 Y53.8425 
G01 X-42.1109 Y53.9459 
G01 X-41.9542 Y54.0257 
G01 X-41.7869 Y54.0801 
G01 X-41.6132 Y54.1076 
G01 X-39.5068 Y54.1076 
G01 X-39.3331 Y54.0801 
G01 X-39.1658 Y54.0257 
G01 X-39.0091 Y53.9459 
G01 X-38.8667 Y53.8425 
G01 X-38.7423 Y53.7181 
G01 X-38.6389 Y53.5757 
G01 X-38.5591 Y53.4190 
G01 X-38.5047 Y53.2517 
G01 X-38.4772 Y53.0780 
G01 X-38.4772 Y52.9020 
G01 X-38.5047 Y52.7283 
G01 X-38.5591 Y52.5610 
G01 X-38.6389 Y52.4043 
G01 X-38.7423 Y52.2619 
G01 X-38.8667 Y52.1375 
G01 X-39.0091 Y52.0341 
G01 X-39.1658 Y51.9543 
G01 X-39.3331 Y51.8999 
G01 X-39.5068 Y51.8724 
G00 Z3.0000 
G00 X-39.5068 Y46.7924 
G01 Z-0.0800 F254.00 
G01 X-41.6132 Y46.7924 F300.00 
G01 X-41.7869 Y46.8199 
G01 X-41.9542 Y46.8743 
G01 X-42.1109 Y46.9541 
G01 X-42.2533 Y47.0575 
G01 X-42.3777 Y47.1819 
G01 X-42.4811 Y47.3242 
G01 X-42.5609 Y47.4810 
G01 X-42.6153 Y47.6483 
G01 X-42.6428 Y47.8220 
G01 X-42.6428 Y47.9980 
G01 X-42.6153 Y48.1717 
G01 X-42.5609 Y48.3390 
G01 X-42.4811 Y48.4957 
G01 X-42.3777 Y48.6381 
G01 X-42.2533 Y48.7625 
G01 X-42.1109 Y48.8659 
G01 X-41.9542 Y48.9457 
G01 X-41.7869 Y49.0001 
G01 X-41.6132 Y49.0276 
G01 X-39.5068 Y49.0276 
G01 X-39.3331 Y49.0001 
G01 X-39.1658 Y48.9457 
G01 X-39.0091 Y48.8659 
G01 X-38.8667 Y48.7625 
G01 X-38.7423 Y48.6381 
G01 X-38.6389 Y48.4957 
G01 X-38.5591 Y48.3390 
G01 X-38.5047 Y48.1717 
G01 X-38.4772 Y47.9980 
G01 X-38.4772 Y47.8220 
G01 X-38.5047 Y47.6483 
G01 X-38.5591 Y47.4810 
G01 X-38.6389 Y47.3242 
G01 X-38.7423 Y47.1819 
G01 X-38.8667 Y47.0575 
G01 X-39.0091 Y46.9541 
G01 X-39.1658 Y46.8743 
G01 X-39.3331 Y46.8199 
G01 X-39.5068 Y46.7924 
G00 Z3.0000 
G00 X-39.5068 Y44.2524 
G01 Z-0.0800 F254.00 
G01 X-41.6132 Y44.2524 F300.00 
G01 X-41.7869 Y44.2799 
G01 X-41.9542 Y44.3343 
G01 X-42.1109 Y44.4141 
G01 X-42.2533 Y44.5175 
G01 X-42.3777 Y44.6419 
G01 X-42.4811 Y44.7843 
G01 X-42.5609 Y44.9410 
G01 X-42.6153 Y45.1083 
G01 X-42.6428 Y45.2820 
G01 X-42.6428 Y45.4580 
G01 X-42.6153 Y45.6317 
G01 X-42.5609 Y45.7990 
G01 X-42.4811 Y45.9557 
G01 X-42.3777 Y46.0981 
G01 X-42.2533 Y46.2225 
G01 X-42.1109 Y46.3259 
G01 X-41.9542 Y46.4057 
G01 X-41.7869 Y46.4601 
G01 X-41.6132 Y46.4876 
G01 X-39.5068 Y46.4876 
G01 X-39.3331 Y46.4601 
G01 X-39.1658 Y46.4057 
G01 X-39.0091 Y46.3259 
G01 X-38.8667 Y46.2225 
G01 X-38.7423 Y46.0981 
G01 X-38.6389 Y45.9557 
G01 X-38.5591 Y45.7990 
G01 X-38.5047 Y45.6317 
G01 X-38.4772 Y45.4580 
G01 X-38.4772 Y45.2820 
G01 X-38.5047 Y45.1083 
G01 X-38.5591 Y44.9410 
G01 X-38.6389 Y44.7843 
G01 X-38.7423 Y44.6419 
G01 X-38.8667 Y44.5175 
G01 X-39.0091 Y44.4141 
G01 X-39.1658 Y44.3343 
G01 X-39.3331 Y44.2799 
G01 X-39.5068 Y44.2524 
G00 Z3.0000 
G00 X-39.5068 Y41.7124 
G01 Z-0.0800 F254.00 
G01 X-41.6132 Y41.7124 F300.00 
G01 X-41.7869 Y41.7399 
G01 X-41.9542 Y41.7943 
G01 X-42.1109 Y41.8741 
G01 X-42.2533 Y41.9775 
G01 X-42.3777 Y42.1019 
G01 X-42.4811 Y42.2443 
G01 X-42.5609 Y42.4010 
G01 X-42.6153 Y42.5683 
G01 X-42.6428 Y42.7420 
G01 X-42.6428 Y42.9180 
G01 X-42.6153 Y43.0917 
G01 X-42.5609 Y43.2590 
G01 X-42.4811 Y43.4157 
G01 X-42.3777 Y43.5581 
G01 X-42.2533 Y43.6825 
G01 X-42.1109 Y43.7859 
G01 X-41.9542 Y43.8657 
G01 X-41.7869 Y43.9201 
G01 X-41.6132 Y43.9476 
G01 X-39.5068 Y43.9476 
G01 X-39.3331 Y43.9201 
G01 X-39.1658 Y43.8657 
G01 X-39.0091 Y43.7859 
G01 X-38.8667 Y43.6825 
G01 X-38.7423 Y43.5581 
G01 X-38.6389 Y43.4157 
G01 X-38.5591 Y43.2590 
G01 X-38.5047 Y43.0917 
G01 X-38.4772 Y42.9180 
G01 X-38.4772 Y42.7420 
G01 X-38.5047 Y42.5683 
G01 X-38.5591 Y42.4010 
G01 X-38.6389 Y42.2443 
G01 X-38.7423 Y42.1019 
G01 X-38.8667 Y41.9775 
G01 X-39.0091 Y41.8741 
G01 X-39.1658 Y41.7943 
G01 X-39.3331 Y41.7399 
G01 X-39.5068 Y41.7124 
G00 Z3.0000 
G00 X-39.5068 Y36.6324 
G01 Z-0.0800 F254.00 
G01 X-41.6132 Y36.6324 F300.00 
G01 X-41.7869 Y36.6599 
G01 X-41.9542 Y36.7143 
G01 X-42.1109 Y36.7941 
G01 X-42.2533 Y36.8975 
G01 X-42.3777 Y37.0219 
G01 X-42.4811 Y37.1643 
G01 X-42.5609 Y37.3210 
G01 X-42.6153 Y37.4883 
G01 X-42.6428 Y37.6620 
G01 X-42.6428 Y37.8380 
G01 X-42.6153 Y38.0117 
G01 X-42.5609 Y38.1790 
G01 X-42.4811 Y38.3357 
G01 X-42.3777 Y38.4781 
G01 X-42.2533 Y38.6025 
G01 X-42.1109 Y38.7059 
G01 X-41.9542 Y38.7857 
G01 X-41.7869 Y38.8401 
G01 X-41.6132 Y38.8676 
G01 X-39.5068 Y38.8676 
G01 X-39.3331 Y38.8401 
G01 X-39.1658 Y38.7857 
G01 X-39.0091 Y38.7059 
G01 X-38.8667 Y38.6025 
G01 X-38.7423 Y38.4781 
G01 X-38.6389 Y38.3357 
G01 X-38.5591 Y38.1790 
G01 X-38.5047 Y38.0117 
G01 X-38.4772 Y37.8380 
G01 X-38.4772 Y37.6620 
G01 X-38.5047 Y37.4883 
G01 X-38.5591 Y37.3210 
G01 X-38.6389 Y37.1643 
G01 X-38.7423 Y37.0219 
G01 X-38.8667 Y36.8975 
G01 X-39.0091 Y36.7941 
G01 X-39.1658 Y36.7143 
G01 X-39.3331 Y36.6599 
G01 X-39.5068 Y36.6324 
G00 Z3.0000 
G00 X-21.1868 Y67.1124 
G01 Z-0.0800 F254.00 
G01 X-23.2932 Y67.1124 F300.00 
G01 X-23.4669 Y67.1399 
G01 X-23.6342 Y67.1943 
G01 X-23.7909 Y67.2741 
G01 X-23.9333 Y67.3775 
G01 X-24.0577 Y67.5019 
G01 X-24.1611 Y67.6442 
G01 X-24.2409 Y67.8010 
G01 X-24.2953 Y67.9683 
G01 X-24.3228 Y68.1420 
G01 X-24.3228 Y68.3180 
G01 X-24.2953 Y68.4917 
G01 X-24.2409 Y68.6590 
G01 X-24.1611 Y68.8157 
G01 X-24.0577 Y68.9581 
G01 X-23.9333 Y69.0825 
G01 X-23.7909 Y69.1859 
G01 X-23.6342 Y69.2657 
G01 X-23.4669 Y69.3201 
G01 X-23.2932 Y69.3476 
G01 X-21.1868 Y69.3476 
G01 X-21.0131 Y69.3201 
G01 X-20.8458 Y69.2657 
G01 X-20.6891 Y69.1859 
G01 X-20.5467 Y69.0825 
G01 X-20.4223 Y68.9581 
G01 X-20.3189 Y68.8157 
G01 X-20.2391 Y68.6590 
G01 X-20.1847 Y68.4917 
G01 X-20.1572 Y68.3180 
G01 X-20.1572 Y68.1420 
G01 X-20.1847 Y67.9683 
G01 X-20.2391 Y67.8010 
G01 X-20.3189 Y67.6442 
G01 X-20.4223 Y67.5019 
G01 X-20.5467 Y67.3775 
G01 X-20.6891 Y67.2741 
G01 X-20.8458 Y67.1943 
G01 X-21.0131 Y67.1399 
G01 X-21.1868 Y67.1124 
G00 Z3.0000 
G00 X-21.1868 Y64.5724 
G01 Z-0.0800 F254.00 
G01 X-23.2932 Y64.5724 F300.00 
G01 X-23.4669 Y64.5999 
G01 X-23.6342 Y64.6543 
G01 X-23.7909 Y64.7341 
G01 X-23.9333 Y64.8375 
G01 X-24.0577 Y64.9619 
G01 X-24.1611 Y65.1043 
G01 X-24.2409 Y65.2610 
G01 X-24.2953 Y65.4283 
G01 X-24.3228 Y65.6020 
G01 X-24.3228 Y65.7780 
G01 X-24.2953 Y65.9517 
G01 X-24.2409 Y66.1190 
G01 X-24.1611 Y66.2757 
G01 X-24.0577 Y66.4181 
G01 X-23.9333 Y66.5425 
G01 X-23.7909 Y66.6459 
G01 X-23.6342 Y66.7257 
G01 X-23.4669 Y66.7801 
G01 X-23.2932 Y66.8076 
G01 X-21.1868 Y66.8076 
G01 X-21.0131 Y66.7801 
G01 X-20.8458 Y66.7257 
G01 X-20.6891 Y66.6459 
G01 X-20.5467 Y66.5425 
G01 X-20.4223 Y66.4181 
G01 X-20.3189 Y66.2757 
G01 X-20.2516 Y66.1435 
G01 X-19.2236 Y67.1716 
G01 X-19.1716 Y67.2236 
G01 X-19.1078 Y67.2604 
G01 X-19.0368 Y67.2794 
G01 X-3.4632 Y67.2794 
G01 X-3.3922 Y67.2604 
G01 X-3.3284 Y67.2236 
G01 X-3.1469 Y67.0421 
G01 X-2.9885 Y67.1228 
G01 X-2.8136 Y67.1796 
G01 X-2.6320 Y67.2084 
G01 X-2.4480 Y67.2084 
G01 X-2.2664 Y67.1796 
G01 X-2.0915 Y67.1228 
G01 X-1.9276 Y67.0393 
G01 X-1.7788 Y66.9312 
G01 X-1.6488 Y66.8012 
G01 X-1.5407 Y66.6524 
G01 X-1.4572 Y66.4885 
G01 X-1.4004 Y66.3136 
G01 X-1.3716 Y66.1320 
G01 X-1.3716 Y65.9480 
G01 X-1.4004 Y65.7664 
G01 X-1.4572 Y65.5915 
G01 X-1.5407 Y65.4276 
G01 X-1.6488 Y65.2788 
G01 X-1.7788 Y65.1488 
G01 X-1.9276 Y65.0407 
G01 X-2.0915 Y64.9572 
G01 X-2.2664 Y64.9004 
G01 X-2.4480 Y64.8716 
G01 X-2.6320 Y64.8716 
G01 X-2.8136 Y64.9004 
G01 X-2.9885 Y64.9572 
G01 X-3.1524 Y65.0407 
G01 X-3.3012 Y65.1488 
G01 X-3.4312 Y65.2788 
G01 X-3.5393 Y65.4276 
G01 X-3.6228 Y65.5915 
G01 X-3.6796 Y65.7664 
G01 X-3.7084 Y65.9480 
G01 X-3.7084 Y66.1320 
G01 X-3.6796 Y66.3136 
G01 X-3.6228 Y66.4885 
G01 X-3.5421 Y66.6469 
G01 X-3.6157 Y66.7206 
G01 X-18.8843 Y66.7206 
G01 X-20.1384 Y65.4664 
G01 X-20.1827 Y65.4409 
G01 X-20.1847 Y65.4283 
G01 X-20.2391 Y65.2610 
G01 X-20.3189 Y65.1043 
G01 X-20.4223 Y64.9619 
G01 X-20.5467 Y64.8375 
G01 X-20.6891 Y64.7341 
G01 X-20.8458 Y64.6543 
G01 X-21.0131 Y64.5999 
G01 X-21.1868 Y64.5724 
G00 Z3.0000 
G00 X-21.1868 Y59.4924 
G01 Z-0.0800 F254.00 
G01 X-23.2932 Y59.4924 F300.00 
G01 X-23.4669 Y59.5199 
G01 X-23.6342 Y59.5743 
G01 X-23.7909 Y59.6541 
G01 X-23.9333 Y59.7575 
G01 X-24.0577 Y59.8819 
G01 X-24.1611 Y60.0243 
G01 X-24.2409 Y60.1810 
G01 X-24.2953 Y60.3483 
G01 X-24.3228 Y60.5220 
G01 X-24.3228 Y60.6980 
G01 X-24.2953 Y60.8717 
G01 X-24.2409 Y61.0390 
G01 X-24.1611 Y61.1957 
G01 X-24.0577 Y61.3381 
G01 X-23.9333 Y61.4625 
G01 X-23.7909 Y61.5659 
G01 X-23.6342 Y61.6457 
G01 X-23.4669 Y61.7001 
G01 X-23.2932 Y61.7276 
G01 X-21.1868 Y61.7276 
G01 X-21.0131 Y61.7001 
G01 X-20.8458 Y61.6457 
G01 X-20.6891 Y61.5659 
G01 X-20.5467 Y61.4625 
G01 X-20.4223 Y61.3381 
G01 X-20.3189 Y61.1957 
G01 X-20.2391 Y61.0390 
G01 X-20.1847 Y60.8717 
G01 X-20.1572 Y60.6980 
G01 X-20.1572 Y60.5220 
G01 X-20.1847 Y60.3483 
G01 X-20.2391 Y60.1810 
G01 X-20.3189 Y60.0243 
G01 X-20.4223 Y59.8819 
G01 X-20.5467 Y59.7575 
G01 X-20.6891 Y59.6541 
G01 X-20.8458 Y59.5743 
G01 X-21.0131 Y59.5199 
G01 X-21.1868 Y59.4924 
G00 Z3.0000 
G00 X-21.1868 Y56.9524 
G01 Z-0.0800 F254.00 
G01 X-23.2932 Y56.9524 F300.00 
G01 X-23.4669 Y56.9799 
G01 X-23.6342 Y57.0343 
G01 X-23.7909 Y57.1141 
G01 X-23.9333 Y57.2175 
G01 X-24.0577 Y57.3419 
G01 X-24.1611 Y57.4843 
G01 X-24.2409 Y57.6410 
G01 X-24.2953 Y57.8083 
G01 X-24.3228 Y57.9820 
G01 X-24.3228 Y58.1580 
G01 X-24.2953 Y58.3317 
G01 X-24.2409 Y58.4990 
G01 X-24.1611 Y58.6557 
G01 X-24.0577 Y58.7981 
G01 X-23.9333 Y58.9225 
G01 X-23.7909 Y59.0259 
G01 X-23.6342 Y59.1057 
G01 X-23.4669 Y59.1601 
G01 X-23.2932 Y59.1876 
G01 X-21.1868 Y59.1876 
G01 X-21.0131 Y59.1601 
G01 X-20.8458 Y59.1057 
G01 X-20.6891 Y59.0259 
G01 X-20.5467 Y58.9225 
G01 X-20.4223 Y58.7981 
G01 X-20.3189 Y58.6557 
G01 X-20.2391 Y58.4990 
G01 X-20.1847 Y58.3317 
G01 X-20.1572 Y58.1580 
G01 X-20.1572 Y57.9820 
G01 X-20.1847 Y57.8083 
G01 X-20.2391 Y57.6410 
G01 X-20.3189 Y57.4843 
G01 X-20.4223 Y57.3419 
G01 X-20.5467 Y57.2175 
G01 X-20.6891 Y57.1141 
G01 X-20.8458 Y57.0343 
G01 X-21.0131 Y56.9799 
G01 X-21.1868 Y56.9524 
G00 Z3.0000 
G00 X-21.1868 Y54.4124 
G01 Z-0.0800 F254.00 
G01 X-23.2932 Y54.4124 F300.00 
G01 X-23.4669 Y54.4399 
G01 X-23.6342 Y54.4943 
G01 X-23.7909 Y54.5741 
G01 X-23.9333 Y54.6775 
G01 X-24.0577 Y54.8019 
G01 X-24.1611 Y54.9443 
G01 X-24.2409 Y55.1010 
G01 X-24.2953 Y55.2683 
G01 X-24.3228 Y55.4420 
G01 X-24.3228 Y55.6180 
G01 X-24.2953 Y55.7917 
G01 X-24.2409 Y55.9590 
G01 X-24.1611 Y56.1157 
G01 X-24.0577 Y56.2581 
G01 X-23.9333 Y56.3825 
G01 X-23.7909 Y56.4859 
G01 X-23.6342 Y56.5657 
G01 X-23.4669 Y56.6201 
G01 X-23.2932 Y56.6476 
G01 X-21.1868 Y56.6476 
G01 X-21.0131 Y56.6201 
G01 X-20.8458 Y56.5657 
G01 X-20.6891 Y56.4859 
G01 X-20.5467 Y56.3825 
G01 X-20.4223 Y56.2581 
G01 X-20.3189 Y56.1157 
G01 X-20.2391 Y55.9590 
G01 X-20.1847 Y55.7917 
G01 X-20.1572 Y55.6180 
G01 X-20.1572 Y55.4420 
G01 X-20.1847 Y55.2683 
G01 X-20.2391 Y55.1010 
G01 X-20.3189 Y54.9443 
G01 X-20.4223 Y54.8019 
G01 X-20.5467 Y54.6775 
G01 X-20.6891 Y54.5741 
G01 X-20.8458 Y54.4943 
G01 X-21.0131 Y54.4399 
G01 X-21.1868 Y54.4124 
G00 Z3.0000 
G00 X-21.1868 Y69.6524 
G01 Z-0.0800 F254.00 
G01 X-23.2932 Y69.6524 F300.00 
G01 X-23.4669 Y69.6799 
G01 X-23.6342 Y69.7343 
G01 X-23.7909 Y69.8141 
G01 X-23.9333 Y69.9175 
G01 X-24.0577 Y70.0419 
G01 X-24.1611 Y70.1843 
G01 X-24.2409 Y70.3410 
G01 X-24.2953 Y70.5083 
G01 X-24.3228 Y70.6820 
G01 X-24.3228 Y70.8580 
G01 X-24.2953 Y71.0317 
G01 X-24.2409 Y71.1990 
G01 X-24.1611 Y71.3557 
G01 X-24.0577 Y71.4981 
G01 X-23.9333 Y71.6225 
G01 X-23.7909 Y71.7259 
G01 X-23.6342 Y71.8057 
G01 X-23.4669 Y71.8601 
G01 X-23.2932 Y71.8876 
G01 X-21.1868 Y71.8876 
G01 X-21.0131 Y71.8601 
G01 X-20.8458 Y71.8057 
G01 X-20.6891 Y71.7259 
G01 X-20.5467 Y71.6225 
G01 X-20.4223 Y71.4981 
G01 X-20.3189 Y71.3557 
G01 X-20.2391 Y71.1990 
G01 X-20.1847 Y71.0317 
G01 X-20.1572 Y70.8580 
G01 X-20.1572 Y70.6820 
G01 X-20.1847 Y70.5083 
G01 X-20.2391 Y70.3410 
G01 X-20.3189 Y70.1843 
G01 X-20.4223 Y70.0419 
G01 X-20.5467 Y69.9175 
G01 X-20.6891 Y69.8141 
G01 X-20.8458 Y69.7343 
G01 X-21.0131 Y69.6799 
G01 X-21.1868 Y69.6524 
G00 Z3.0000 
G00 X-21.1868 Y49.3324 
G01 Z-0.0800 F254.00 
G01 X-23.2932 Y49.3324 F300.00 
G01 X-23.4669 Y49.3599 
G01 X-23.6342 Y49.4143 
G01 X-23.7909 Y49.4941 
G01 X-23.9333 Y49.5975 
G01 X-24.0577 Y49.7219 
G01 X-24.1611 Y49.8643 
G01 X-24.2409 Y50.0210 
G01 X-24.2953 Y50.1883 
G01 X-24.3228 Y50.3620 
G01 X-24.3228 Y50.5380 
G01 X-24.2953 Y50.7117 
G01 X-24.2409 Y50.8790 
G01 X-24.1611 Y51.0357 
G01 X-24.0577 Y51.1781 
G01 X-23.9333 Y51.3025 
G01 X-23.7909 Y51.4059 
G01 X-23.6342 Y51.4857 
G01 X-23.4669 Y51.5401 
G01 X-23.2932 Y51.5676 
G01 X-21.1868 Y51.5676 
G01 X-21.0131 Y51.5401 
G01 X-20.8458 Y51.4857 
G01 X-20.6891 Y51.4059 
G01 X-20.5467 Y51.3025 
G01 X-20.4223 Y51.1781 
G01 X-20.3189 Y51.0357 
G01 X-20.2391 Y50.8790 
G01 X-20.1847 Y50.7117 
G01 X-20.1572 Y50.5380 
G01 X-20.1572 Y50.3620 
G01 X-20.1847 Y50.1883 
G01 X-20.2391 Y50.0210 
G01 X-20.3189 Y49.8643 
G01 X-20.4223 Y49.7219 
G01 X-20.5467 Y49.5975 
G01 X-20.6891 Y49.4941 
G01 X-20.8458 Y49.4143 
G01 X-21.0131 Y49.3599 
G01 X-21.1868 Y49.3324 
G00 Z3.0000 
G00 X-21.1868 Y51.8724 
G01 Z-0.0800 F254.00 
G01 X-23.2932 Y51.8724 F300.00 
G01 X-23.4669 Y51.8999 
G01 X-23.6342 Y51.9543 
G01 X-23.7909 Y52.0341 
G01 X-23.9333 Y52.1375 
G01 X-24.0577 Y52.2619 
G01 X-24.1611 Y52.4043 
G01 X-24.2409 Y52.5610 
G01 X-24.2953 Y52.7283 
G01 X-24.3228 Y52.9020 
G01 X-24.3228 Y53.0780 
G01 X-24.2953 Y53.2517 
G01 X-24.2409 Y53.4190 
G01 X-24.1611 Y53.5757 
G01 X-24.0577 Y53.7181 
G01 X-23.9333 Y53.8425 
G01 X-23.7909 Y53.9459 
G01 X-23.6342 Y54.0257 
G01 X-23.4669 Y54.0801 
G01 X-23.2932 Y54.1076 
G01 X-21.1868 Y54.1076 
G01 X-21.0131 Y54.0801 
G01 X-20.8458 Y54.0257 
G01 X-20.6891 Y53.9459 
G01 X-20.5467 Y53.8425 
G01 X-20.4223 Y53.7181 
G01 X-20.3189 Y53.5757 
G01 X-20.2391 Y53.4190 
G01 X-20.1847 Y53.2517 
G01 X-20.1572 Y53.0780 
G01 X-20.1572 Y52.9020 
G01 X-20.1847 Y52.7283 
G01 X-20.2391 Y52.5610 
G01 X-20.3189 Y52.4043 
G01 X-20.4223 Y52.2619 
G01 X-20.5467 Y52.1375 
G01 X-20.6891 Y52.0341 
G01 X-20.8458 Y51.9543 
G01 X-21.0131 Y51.8999 
G01 X-21.1868 Y51.8724 
G00 Z3.0000 
G00 X-21.1868 Y46.7924 
G01 Z-0.0800 F254.00 
G01 X-23.2932 Y46.7924 F300.00 
G01 X-23.4669 Y46.8199 
G01 X-23.6342 Y46.8743 
G01 X-23.7909 Y46.9541 
G01 X-23.9333 Y47.0575 
G01 X-24.0577 Y47.1819 
G01 X-24.1611 Y47.3242 
G01 X-24.2409 Y47.4810 
G01 X-24.2953 Y47.6483 
G01 X-24.3228 Y47.8220 
G01 X-24.3228 Y47.9980 
G01 X-24.2953 Y48.1717 
G01 X-24.2409 Y48.3390 
G01 X-24.1611 Y48.4957 
G01 X-24.0577 Y48.6381 
G01 X-23.9333 Y48.7625 
G01 X-23.7909 Y48.8659 
G01 X-23.6342 Y48.9457 
G01 X-23.4669 Y49.0001 
G01 X-23.2932 Y49.0276 
G01 X-21.1868 Y49.0276 
G01 X-21.0131 Y49.0001 
G01 X-20.8458 Y48.9457 
G01 X-20.6891 Y48.8659 
G01 X-20.5467 Y48.7625 
G01 X-20.4223 Y48.6381 
G01 X-20.3189 Y48.4957 
G01 X-20.2391 Y48.3390 
G01 X-20.1847 Y48.1717 
G01 X-20.1572 Y47.9980 
G01 X-20.1572 Y47.8220 
G01 X-20.1847 Y47.6483 
G01 X-20.2391 Y47.4810 
G01 X-20.3189 Y47.3242 
G01 X-20.4223 Y47.1819 
G01 X-20.5467 Y47.0575 
G01 X-20.6891 Y46.9541 
G01 X-20.8458 Y46.8743 
G01 X-21.0131 Y46.8199 
G01 X-21.1868 Y46.7924 
G00 Z3.0000 
G00 X-21.1868 Y44.2524 
G01 Z-0.0800 F254.00 
G01 X-23.2932 Y44.2524 F300.00 
G01 X-23.4669 Y44.2799 
G01 X-23.6342 Y44.3343 
G01 X-23.7909 Y44.4141 
G01 X-23.9333 Y44.5175 
G01 X-24.0577 Y44.6419 
G01 X-24.1611 Y44.7843 
G01 X-24.2409 Y44.9410 
G01 X-24.2953 Y45.1083 
G01 X-24.3228 Y45.2820 
G01 X-24.3228 Y45.4580 
G01 X-24.2953 Y45.6317 
G01 X-24.2409 Y45.7990 
G01 X-24.1611 Y45.9557 
G01 X-24.0577 Y46.0981 
G01 X-23.9333 Y46.2225 
G01 X-23.7909 Y46.3259 
G01 X-23.6342 Y46.4057 
G01 X-23.4669 Y46.4601 
G01 X-23.2932 Y46.4876 
G01 X-21.1868 Y46.4876 
G01 X-21.0131 Y46.4601 
G01 X-20.8458 Y46.4057 
G01 X-20.6891 Y46.3259 
G01 X-20.5467 Y46.2225 
G01 X-20.4223 Y46.0981 
G01 X-20.3189 Y45.9557 
G01 X-20.2391 Y45.7990 
G01 X-20.1847 Y45.6317 
G01 X-20.1572 Y45.4580 
G01 X-20.1572 Y45.2820 
G01 X-20.1847 Y45.1083 
G01 X-20.2391 Y44.9410 
G01 X-20.3189 Y44.7843 
G01 X-20.4223 Y44.6419 
G01 X-20.5467 Y44.5175 
G01 X-20.6891 Y44.4141 
G01 X-20.8458 Y44.3343 
G01 X-21.0131 Y44.2799 
G01 X-21.1868 Y44.2524 
G00 Z3.0000 
G00 X-21.1868 Y41.7124 
G01 Z-0.0800 F254.00 
G01 X-23.2932 Y41.7124 F300.00 
G01 X-23.4669 Y41.7399 
G01 X-23.6342 Y41.7943 
G01 X-23.7909 Y41.8741 
G01 X-23.9333 Y41.9775 
G01 X-24.0577 Y42.1019 
G01 X-24.1611 Y42.2443 
G01 X-24.2409 Y42.4010 
G01 X-24.2953 Y42.5683 
G01 X-24.3228 Y42.7420 
G01 X-24.3228 Y42.9180 
G01 X-24.2953 Y43.0917 
G01 X-24.2409 Y43.2590 
G01 X-24.1611 Y43.4157 
G01 X-24.0577 Y43.5581 
G01 X-23.9333 Y43.6825 
G01 X-23.7909 Y43.7859 
G01 X-23.6342 Y43.8657 
G01 X-23.4669 Y43.9201 
G01 X-23.2932 Y43.9476 
G01 X-21.1868 Y43.9476 
G01 X-21.0131 Y43.9201 
G01 X-20.8458 Y43.8657 
G01 X-20.6891 Y43.7859 
G01 X-20.5467 Y43.6825 
G01 X-20.4223 Y43.5581 
G01 X-20.3189 Y43.4157 
G01 X-20.2391 Y43.2590 
G01 X-20.1847 Y43.0917 
G01 X-20.1572 Y42.9180 
G01 X-20.1572 Y42.7420 
G01 X-20.1847 Y42.5683 
G01 X-20.2391 Y42.4010 
G01 X-20.3189 Y42.2443 
G01 X-20.4223 Y42.1019 
G01 X-20.5467 Y41.9775 
G01 X-20.6891 Y41.8741 
G01 X-20.8458 Y41.7943 
G01 X-21.0131 Y41.7399 
G01 X-21.1868 Y41.7124 
G00 Z3.0000 
G00 X-21.1868 Y39.1724 
G01 Z-0.0800 F254.00 
G01 X-23.2932 Y39.1724 F300.00 
G01 X-23.4669 Y39.1999 
G01 X-23.6342 Y39.2543 
G01 X-23.7909 Y39.3341 
G01 X-23.9333 Y39.4375 
G01 X-24.0577 Y39.5619 
G01 X-24.1611 Y39.7043 
G01 X-24.2409 Y39.8610 
G01 X-24.2953 Y40.0283 
G01 X-24.3228 Y40.2020 
G01 X-24.3228 Y40.3780 
G01 X-24.2953 Y40.5517 
G01 X-24.2409 Y40.7190 
G01 X-24.1611 Y40.8757 
G01 X-24.0577 Y41.0181 
G01 X-23.9333 Y41.1425 
G01 X-23.7909 Y41.2459 
G01 X-23.6342 Y41.3257 
G01 X-23.4669 Y41.3801 
G01 X-23.2932 Y41.4076 
G01 X-21.1868 Y41.4076 
G01 X-21.0131 Y41.3801 
G01 X-20.8458 Y41.3257 
G01 X-20.6891 Y41.2459 
G01 X-20.5467 Y41.1425 
G01 X-20.4223 Y41.0181 
G01 X-20.3189 Y40.8757 
G01 X-20.2391 Y40.7190 
G01 X-20.1847 Y40.5517 
G01 X-20.1572 Y40.3780 
G01 X-20.1572 Y40.2020 
G01 X-20.1847 Y40.0283 
G01 X-20.2391 Y39.8610 
G01 X-20.3189 Y39.7043 
G01 X-20.4223 Y39.5619 
G01 X-20.5467 Y39.4375 
G01 X-20.6891 Y39.3341 
G01 X-20.8458 Y39.2543 
G01 X-21.0131 Y39.1999 
G01 X-21.1868 Y39.1724 
G00 Z3.0000 
G00 X-9.7776 Y54.5868 
G01 Z-0.0800 F254.00 
G01 X-9.7776 Y56.6932 F300.00 
G01 X-9.7501 Y56.8669 
G01 X-9.6957 Y57.0342 
G01 X-9.6159 Y57.1909 
G01 X-9.5125 Y57.3333 
G01 X-9.3881 Y57.4577 
G01 X-9.2457 Y57.5611 
G01 X-9.0890 Y57.6409 
G01 X-8.9217 Y57.6953 
G01 X-8.7480 Y57.7228 
G01 X-8.5720 Y57.7228 
G01 X-8.3983 Y57.6953 
G01 X-8.2310 Y57.6409 
G01 X-8.0743 Y57.5611 
G01 X-7.9319 Y57.4577 
G01 X-7.8075 Y57.3333 
G01 X-7.7041 Y57.1909 
G01 X-7.6243 Y57.0342 
G01 X-7.5699 Y56.8669 
G01 X-7.5424 Y56.6932 
G01 X-7.5424 Y54.5868 
G01 X-7.5699 Y54.4131 
G01 X-7.6243 Y54.2458 
G01 X-7.7041 Y54.0891 
G01 X-7.8075 Y53.9467 
G01 X-7.9319 Y53.8223 
G01 X-8.0743 Y53.7189 
G01 X-8.2310 Y53.6391 
G01 X-8.3983 Y53.5847 
G01 X-8.5720 Y53.5572 
G01 X-8.7480 Y53.5572 
G01 X-8.9217 Y53.5847 
G01 X-9.0890 Y53.6391 
G01 X-9.2457 Y53.7189 
G01 X-9.3881 Y53.8223 
G01 X-9.5125 Y53.9467 
G01 X-9.6159 Y54.0891 
G01 X-9.6957 Y54.2458 
G01 X-9.7501 Y54.4131 
G01 X-9.7776 Y54.5868 
G00 Z3.0000 
G00 X-17.3976 Y54.5868 
G01 Z-0.0800 F254.00 
G01 X-17.3976 Y56.6932 F300.00 
G01 X-17.3701 Y56.8669 
G01 X-17.3157 Y57.0342 
G01 X-17.2359 Y57.1909 
G01 X-17.1325 Y57.3333 
G01 X-17.0081 Y57.4577 
G01 X-16.8657 Y57.5611 
G01 X-16.7090 Y57.6409 
G01 X-16.5417 Y57.6953 
G01 X-16.3680 Y57.7228 
G01 X-16.1920 Y57.7228 
G01 X-16.0183 Y57.6953 
G01 X-15.8510 Y57.6409 
G01 X-15.6943 Y57.5611 
G01 X-15.5519 Y57.4577 
G01 X-15.4275 Y57.3333 
G01 X-15.3241 Y57.1909 
G01 X-15.2443 Y57.0342 
G01 X-15.1899 Y56.8669 
G01 X-15.1624 Y56.6932 
G01 X-15.1624 Y54.5868 
G01 X-15.1899 Y54.4131 
G01 X-15.2443 Y54.2458 
G01 X-15.3241 Y54.0891 
G01 X-15.4275 Y53.9467 
G01 X-15.4896 Y53.8847 
G01 X-13.8843 Y52.2794 
G01 X-4.9732 Y52.2794 
G01 X-4.9022 Y52.2604 
G01 X-4.8384 Y52.2236 
G01 X-3.1469 Y50.5321 
G01 X-2.9885 Y50.6128 
G01 X-2.8136 Y50.6696 
G01 X-2.6320 Y50.6984 
G01 X-2.4480 Y50.6984 
G01 X-2.2664 Y50.6696 
G01 X-2.0915 Y50.6128 
G01 X-1.9276 Y50.5293 
G01 X-1.7788 Y50.4212 
G01 X-1.6488 Y50.2912 
G01 X-1.5407 Y50.1424 
G01 X-1.4572 Y49.9785 
G01 X-1.4004 Y49.8036 
G01 X-1.3716 Y49.6220 
G01 X-1.3716 Y49.4380 
G01 X-1.4004 Y49.2564 
G01 X-1.4572 Y49.0815 
G01 X-1.5407 Y48.9176 
G01 X-1.6488 Y48.7688 
G01 X-1.7788 Y48.6388 
G01 X-1.9276 Y48.5307 
G01 X-2.0915 Y48.4472 
G01 X-2.2664 Y48.3904 
G01 X-2.4480 Y48.3616 
G01 X-2.6320 Y48.3616 
G01 X-2.8136 Y48.3904 
G01 X-2.9885 Y48.4472 
G01 X-3.1524 Y48.5307 
G01 X-3.3012 Y48.6388 
G01 X-3.4312 Y48.7688 
G01 X-3.5393 Y48.9176 
G01 X-3.6228 Y49.0815 
G01 X-3.6796 Y49.2564 
G01 X-3.7084 Y49.4380 
G01 X-3.7084 Y49.6220 
G01 X-3.6796 Y49.8036 
G01 X-3.6228 Y49.9785 
G01 X-3.5421 Y50.1369 
G01 X-5.1257 Y51.7206 
G01 X-14.0368 Y51.7206 
G01 X-14.1078 Y51.7396 
G01 X-14.1716 Y51.7764 
G01 X-14.2236 Y51.8284 
G01 X-15.9893 Y53.5941 
G01 X-16.0183 Y53.5847 
G01 X-16.1920 Y53.5572 
G01 X-16.3680 Y53.5572 
G01 X-16.5417 Y53.5847 
G01 X-16.7090 Y53.6391 
G01 X-16.8657 Y53.7189 
G01 X-17.0081 Y53.8223 
G01 X-17.1325 Y53.9467 
G01 X-17.2359 Y54.0891 
G01 X-17.3157 Y54.2458 
G01 X-17.3701 Y54.4131 
G01 X-17.3976 Y54.5868 
G00 Z3.0000 
G00 X-25.8324 Y31.0332 
G01 Z-0.0800 F254.00 
G01 X-25.8324 Y28.9268 F300.00 
G01 X-25.8599 Y28.7531 
G01 X-25.9143 Y28.5858 
G01 X-25.9941 Y28.4291 
G01 X-26.0975 Y28.2867 
G01 X-26.2219 Y28.1623 
G01 X-26.3643 Y28.0589 
G01 X-26.5210 Y27.9791 
G01 X-26.6883 Y27.9247 
G01 X-26.8620 Y27.8972 
G01 X-27.0380 Y27.8972 
G01 X-27.2117 Y27.9247 
G01 X-27.3790 Y27.9791 
G01 X-27.5357 Y28.0589 
G01 X-27.6781 Y28.1623 
G01 X-27.8025 Y28.2867 
G01 X-27.9059 Y28.4291 
G01 X-27.9857 Y28.5858 
G01 X-28.0401 Y28.7531 
G01 X-28.0676 Y28.9268 
G01 X-28.0676 Y31.0332 
G01 X-28.0401 Y31.2069 
G01 X-27.9857 Y31.3742 
G01 X-27.9059 Y31.5309 
G01 X-27.8025 Y31.6733 
G01 X-27.6781 Y31.7977 
G01 X-27.5357 Y31.9011 
G01 X-27.3790 Y31.9809 
G01 X-27.2794 Y32.0133 
G01 X-27.2794 Y35.8843 
G01 X-34.2236 Y42.8284 
G01 X-34.2604 Y42.8922 
G01 X-34.2794 Y42.9632 
G01 X-34.2794 Y70.8843 
G01 X-37.1157 Y73.7206 
G01 X-44.8843 Y73.7206 
G01 X-46.7206 Y71.8843 
G01 X-46.7206 Y62.9632 
G01 X-46.7396 Y62.8922 
G01 X-46.7764 Y62.8284 
G01 X-46.8284 Y62.7764 
G01 X-48.8684 Y60.7364 
G01 X-48.9322 Y60.6996 
G01 X-49.0032 Y60.6806 
G01 X-49.6623 Y60.6806 
G01 X-49.7172 Y60.5115 
G01 X-49.8007 Y60.3476 
G01 X-49.9088 Y60.1988 
G01 X-50.0388 Y60.0688 
G01 X-50.1876 Y59.9607 
G01 X-50.3515 Y59.8772 
G01 X-50.5264 Y59.8204 
G01 X-50.7080 Y59.7916 
G01 X-50.8920 Y59.7916 
G01 X-51.0736 Y59.8204 
G01 X-51.2485 Y59.8772 
G01 X-51.4124 Y59.9607 
G01 X-51.5612 Y60.0688 
G01 X-51.6912 Y60.1988 
G01 X-51.7993 Y60.3476 
G01 X-51.8828 Y60.5115 
G01 X-51.9396 Y60.6864 
G01 X-51.9684 Y60.8680 
G01 X-51.9684 Y61.0520 
G01 X-51.9396 Y61.2336 
G01 X-51.8828 Y61.4085 
G01 X-51.7993 Y61.5724 
G01 X-51.6912 Y61.7212 
G01 X-51.5612 Y61.8512 
G01 X-51.4124 Y61.9593 
G01 X-51.2485 Y62.0428 
G01 X-51.0736 Y62.0996 
G01 X-50.8920 Y62.1284 
G01 X-50.7080 Y62.1284 
G01 X-50.5264 Y62.0996 
G01 X-50.3515 Y62.0428 
G01 X-50.1876 Y61.9593 
G01 X-50.0388 Y61.8512 
G01 X-49.9088 Y61.7212 
G01 X-49.8007 Y61.5724 
G01 X-49.7172 Y61.4085 
G01 X-49.6623 Y61.2394 
G01 X-49.1557 Y61.2394 
G01 X-47.2794 Y63.1157 
G01 X-47.2794 Y72.0368 
G01 X-47.2604 Y72.1078 
G01 X-47.2236 Y72.1716 
G01 X-45.2236 Y74.1716 
G01 X-45.1716 Y74.2236 
G01 X-45.1078 Y74.2604 
G01 X-45.0368 Y74.2794 
G01 X-36.9632 Y74.2794 
G01 X-36.8922 Y74.2604 
G01 X-36.8284 Y74.2236 
G01 X-33.8284 Y71.2236 
G01 X-33.7764 Y71.1716 
G01 X-33.7396 Y71.1078 
G01 X-33.7206 Y71.0368 
G01 X-33.7206 Y43.1157 
G01 X-26.8284 Y36.2236 
G01 X-26.7764 Y36.1716 
G01 X-26.7396 Y36.1078 
G01 X-26.7206 Y36.0368 
G01 X-26.7206 Y32.0404 
G01 X-26.6883 Y32.0353 
G01 X-26.5210 Y31.9809 
G01 X-26.3643 Y31.9011 
G01 X-26.2219 Y31.7977 
G01 X-26.0975 Y31.6733 
G01 X-25.9941 Y31.5309 
G01 X-25.9143 Y31.3742 
G01 X-25.8599 Y31.2069 
G01 X-25.8324 Y31.0332 
G00 Z3.0000 
G00 X-14.4576 Y28.5868 
G01 Z-0.0800 F254.00 
G01 X-14.4576 Y30.6932 F300.00 
G01 X-14.4301 Y30.8669 
G01 X-14.3757 Y31.0342 
G01 X-14.2959 Y31.1909 
G01 X-14.1925 Y31.3333 
G01 X-14.0681 Y31.4577 
G01 X-13.9257 Y31.5611 
G01 X-13.7690 Y31.6409 
G01 X-13.6017 Y31.6953 
G01 X-13.4280 Y31.7228 
G01 X-13.2794 Y31.7228 
G01 X-13.2794 Y36.9505 
G01 X-13.4290 Y36.9991 
G01 X-13.5857 Y37.0789 
G01 X-13.7281 Y37.1823 
G01 X-13.8525 Y37.3067 
G01 X-13.9559 Y37.4490 
G01 X-14.0357 Y37.6058 
G01 X-14.0901 Y37.7731 
G01 X-14.1176 Y37.9468 
G01 X-14.1176 Y40.0532 
G01 X-14.0901 Y40.2269 
G01 X-14.0357 Y40.3942 
G01 X-13.9559 Y40.5509 
G01 X-13.8525 Y40.6933 
G01 X-13.7281 Y40.8177 
G01 X-13.5857 Y40.9211 
G01 X-13.4290 Y41.0009 
G01 X-13.4041 Y41.0090 
G01 X-18.2236 Y45.8284 
G01 X-18.2604 Y45.8922 
G01 X-18.2794 Y45.9632 
G01 X-18.2794 Y57.0368 
G01 X-18.2604 Y57.1078 
G01 X-18.2236 Y57.1716 
G01 X-18.1716 Y57.2236 
G01 X-16.1716 Y59.2236 
G01 X-16.1078 Y59.2604 
G01 X-16.0368 Y59.2794 
G01 X-12.9632 Y59.2794 
G01 X-12.8922 Y59.2604 
G01 X-12.8284 Y59.2236 
G01 X-12.7764 Y59.1716 
G01 X-11.3222 Y57.7174 
G01 X-11.2880 Y57.7228 
G01 X-11.1120 Y57.7228 
G01 X-10.9383 Y57.6953 
G01 X-10.7710 Y57.6409 
G01 X-10.6143 Y57.5611 
G01 X-10.4719 Y57.4577 
G01 X-10.3475 Y57.3333 
G01 X-10.2441 Y57.1909 
G01 X-10.1643 Y57.0342 
G01 X-10.1099 Y56.8669 
G01 X-10.0824 Y56.6932 
G01 X-10.0824 Y54.5868 
G01 X-10.1099 Y54.4131 
G01 X-10.1643 Y54.2458 
G01 X-10.2441 Y54.0891 
G01 X-10.3475 Y53.9467 
G01 X-10.4719 Y53.8223 
G01 X-10.6143 Y53.7189 
G01 X-10.7710 Y53.6391 
G01 X-10.9383 Y53.5847 
G01 X-11.1120 Y53.5572 
G01 X-11.2880 Y53.5572 
G01 X-11.4617 Y53.5847 
G01 X-11.6290 Y53.6391 
G01 X-11.7857 Y53.7189 
G01 X-11.9281 Y53.8223 
G01 X-12.0525 Y53.9467 
G01 X-12.1559 Y54.0891 
G01 X-12.2357 Y54.2458 
G01 X-12.2901 Y54.4131 
G01 X-12.3176 Y54.5868 
G01 X-12.3176 Y56.6932 
G01 X-12.2901 Y56.8669 
G01 X-12.2357 Y57.0342 
G01 X-12.1559 Y57.1909 
G01 X-12.0525 Y57.3333 
G01 X-11.9281 Y57.4577 
G01 X-11.8845 Y57.4893 
G01 X-13.1157 Y58.7206 
G01 X-15.8843 Y58.7206 
G01 X-17.7206 Y56.8843 
G01 X-17.7206 Y46.1157 
G01 X-12.8284 Y41.2236 
G01 X-12.7764 Y41.1716 
G01 X-12.7396 Y41.1078 
G01 X-12.7243 Y41.0507 
G01 X-12.5710 Y41.0009 
G01 X-12.4143 Y40.9211 
G01 X-12.2719 Y40.8177 
G01 X-12.1475 Y40.6933 
G01 X-12.0441 Y40.5509 
G01 X-11.9643 Y40.3942 
G01 X-11.9099 Y40.2269 
G01 X-11.8824 Y40.0532 
G01 X-11.8824 Y37.9468 
G01 X-11.9099 Y37.7731 
G01 X-11.9643 Y37.6058 
G01 X-12.0441 Y37.4490 
G01 X-12.1475 Y37.3067 
G01 X-12.2719 Y37.1823 
G01 X-12.4143 Y37.0789 
G01 X-12.5710 Y36.9991 
G01 X-12.7206 Y36.9505 
G01 X-12.7206 Y31.5366 
G01 X-12.6119 Y31.4577 
G01 X-12.4875 Y31.3333 
G01 X-12.3841 Y31.1909 
G01 X-12.3043 Y31.0342 
G01 X-12.2499 Y30.8669 
G01 X-12.2224 Y30.6932 
G01 X-12.2224 Y28.5868 
G01 X-12.2499 Y28.4131 
G01 X-12.3043 Y28.2458 
G01 X-12.3841 Y28.0891 
G01 X-12.4875 Y27.9467 
G01 X-12.6119 Y27.8223 
G01 X-12.7543 Y27.7189 
G01 X-12.9110 Y27.6391 
G01 X-12.9922 Y27.6127 
G01 X-13.8284 Y26.7764 
G01 X-13.8922 Y26.7396 
G01 X-13.9632 Y26.7206 
G01 X-28.0368 Y26.7206 
G01 X-28.1078 Y26.7396 
G01 X-28.1716 Y26.7764 
G01 X-28.2236 Y26.8284 
G01 X-29.3073 Y27.9122 
G01 X-29.4020 Y27.8972 
G01 X-29.5780 Y27.8972 
G01 X-29.7206 Y27.9198 
G01 X-29.7206 Y27.5991 
G01 X-29.6872 Y27.5852 
G01 X-29.5790 Y27.5130 
G01 X-29.4870 Y27.4210 
G01 X-29.4148 Y27.3128 
G01 X-29.3650 Y27.1926 
G01 X-29.3396 Y27.0650 
G01 X-29.3396 Y26.9350 
G01 X-29.3650 Y26.8074 
G01 X-29.4148 Y26.6872 
G01 X-29.4870 Y26.5790 
G01 X-29.5790 Y26.4870 
G01 X-29.6872 Y26.4148 
G01 X-29.8074 Y26.3650 
G01 X-29.9350 Y26.3396 
G01 X-30.0650 Y26.3396 
G01 X-30.1926 Y26.3650 
G01 X-30.3128 Y26.4148 
G01 X-30.4210 Y26.4870 
G01 X-30.5130 Y26.5790 
G01 X-30.5852 Y26.6872 
G01 X-30.6350 Y26.8074 
G01 X-30.6604 Y26.9350 
G01 X-30.6604 Y27.0650 
G01 X-30.6350 Y27.1926 
G01 X-30.5852 Y27.3128 
G01 X-30.5130 Y27.4210 
G01 X-30.4210 Y27.5130 
G01 X-30.3128 Y27.5852 
G01 X-30.2794 Y27.5991 
G01 X-30.2794 Y28.2237 
G01 X-30.3425 Y28.2867 
G01 X-30.4459 Y28.4291 
G01 X-30.5257 Y28.5858 
G01 X-30.5801 Y28.7531 
G01 X-30.6076 Y28.9268 
G01 X-30.6076 Y31.0332 
G01 X-30.5801 Y31.2069 
G01 X-30.5257 Y31.3742 
G01 X-30.4459 Y31.5309 
G01 X-30.3425 Y31.6733 
G01 X-30.2181 Y31.7977 
G01 X-30.0757 Y31.9011 
G01 X-29.9190 Y31.9809 
G01 X-29.7517 Y32.0353 
G01 X-29.5780 Y32.0628 
G01 X-29.4020 Y32.0628 
G01 X-29.2283 Y32.0353 
G01 X-29.0610 Y31.9809 
G01 X-28.9043 Y31.9011 
G01 X-28.7619 Y31.7977 
G01 X-28.6375 Y31.6733 
G01 X-28.5341 Y31.5309 
G01 X-28.4543 Y31.3742 
G01 X-28.3999 Y31.2069 
G01 X-28.3724 Y31.0332 
G01 X-28.3724 Y28.9268 
G01 X-28.3999 Y28.7531 
G01 X-28.4543 Y28.5858 
G01 X-28.5341 Y28.4291 
G01 X-28.6375 Y28.2867 
G01 X-28.7619 Y28.1623 
G01 X-28.7650 Y28.1601 
G01 X-27.8843 Y27.2794 
G01 X-14.1157 Y27.2794 
G01 X-13.7592 Y27.6359 
G01 X-13.7690 Y27.6391 
G01 X-13.9257 Y27.7189 
G01 X-14.0681 Y27.8223 
G01 X-14.1925 Y27.9467 
G01 X-14.2959 Y28.0891 
G01 X-14.3757 Y28.2458 
G01 X-14.4301 Y28.4131 
G01 X-14.4576 Y28.5868 
G00 Z3.0000 
G00 X-16.9976 Y28.5868 
G01 Z-0.0800 F254.00 
G01 X-16.9976 Y30.6932 F300.00 
G01 X-16.9701 Y30.8669 
G01 X-16.9157 Y31.0342 
G01 X-16.8359 Y31.1909 
G01 X-16.7325 Y31.3333 
G01 X-16.6081 Y31.4577 
G01 X-16.4657 Y31.5611 
G01 X-16.3090 Y31.6409 
G01 X-16.1417 Y31.6953 
G01 X-15.9680 Y31.7228 
G01 X-15.7920 Y31.7228 
G01 X-15.6183 Y31.6953 
G01 X-15.4510 Y31.6409 
G01 X-15.2942 Y31.5611 
G01 X-15.1519 Y31.4577 
G01 X-15.0275 Y31.3333 
G01 X-14.9241 Y31.1909 
G01 X-14.8443 Y31.0342 
G01 X-14.7899 Y30.8669 
G01 X-14.7624 Y30.6932 
G01 X-14.7624 Y28.5868 
G01 X-14.7899 Y28.4131 
G01 X-14.8443 Y28.2458 
G01 X-14.9241 Y28.0891 
G01 X-15.0275 Y27.9467 
G01 X-15.1519 Y27.8223 
G01 X-15.2942 Y27.7189 
G01 X-15.4510 Y27.6391 
G01 X-15.6183 Y27.5847 
G01 X-15.7920 Y27.5572 
G01 X-15.9680 Y27.5572 
G01 X-16.1417 Y27.5847 
G01 X-16.3090 Y27.6391 
G01 X-16.4657 Y27.7189 
G01 X-16.6081 Y27.8223 
G01 X-16.7325 Y27.9467 
G01 X-16.8359 Y28.0891 
G01 X-16.9157 Y28.2458 
G01 X-16.9701 Y28.4131 
G01 X-16.9976 Y28.5868 
G00 Z3.0000 
G00 X-43.0224 Y31.0332 
G01 Z-0.0800 F254.00 
G01 X-43.0224 Y28.9268 F300.00 
G01 X-43.0499 Y28.7531 
G01 X-43.1043 Y28.5858 
G01 X-43.1841 Y28.4291 
G01 X-43.2875 Y28.2867 
G01 X-43.4119 Y28.1623 
G01 X-43.5543 Y28.0589 
G01 X-43.7110 Y27.9791 
G01 X-43.8783 Y27.9247 
G01 X-44.0520 Y27.8972 
G01 X-44.2280 Y27.8972 
G01 X-44.4017 Y27.9247 
G01 X-44.5690 Y27.9791 
G01 X-44.7257 Y28.0589 
G01 X-44.8681 Y28.1623 
G01 X-44.9925 Y28.2867 
G01 X-45.0959 Y28.4291 
G01 X-45.1757 Y28.5858 
G01 X-45.2301 Y28.7531 
G01 X-45.2576 Y28.9268 
G01 X-45.2576 Y31.0332 
G01 X-45.2301 Y31.2069 
G01 X-45.1757 Y31.3742 
G01 X-45.0959 Y31.5309 
G01 X-44.9925 Y31.6733 
G01 X-44.8681 Y31.7977 
G01 X-44.7257 Y31.9011 
G01 X-44.5690 Y31.9809 
G01 X-44.4194 Y32.0295 
G01 X-44.4194 Y32.0571 
G01 X-46.2183 Y34.8231 
G01 X-46.2236 Y34.8284 
G01 X-46.2383 Y34.8539 
G01 X-46.2543 Y34.8785 
G01 X-46.2566 Y34.8856 
G01 X-46.2604 Y34.8922 
G01 X-46.2680 Y34.9205 
G01 X-46.2771 Y34.9485 
G01 X-46.2775 Y34.9560 
G01 X-46.2794 Y34.9632 
G01 X-46.2794 Y34.9926 
G01 X-46.2810 Y35.0219 
G01 X-46.2794 Y35.0293 
G01 X-46.2794 Y50.8843 
G01 X-48.1157 Y52.7206 
G01 X-49.8058 Y52.7206 
G01 X-49.9088 Y52.5788 
G01 X-50.0388 Y52.4488 
G01 X-50.1876 Y52.3407 
G01 X-50.3515 Y52.2572 
G01 X-50.5264 Y52.2004 
G01 X-50.7080 Y52.1716 
G01 X-50.8920 Y52.1716 
G01 X-51.0736 Y52.2004 
G01 X-51.2485 Y52.2572 
G01 X-51.4124 Y52.3407 
G01 X-51.5612 Y52.4488 
G01 X-51.6912 Y52.5788 
G01 X-51.7993 Y52.7276 
G01 X-51.8828 Y52.8915 
G01 X-51.9396 Y53.0664 
G01 X-51.9684 Y53.2480 
G01 X-51.9684 Y53.4320 
G01 X-51.9396 Y53.6136 
G01 X-51.8828 Y53.7885 
G01 X-51.7993 Y53.9524 
G01 X-51.6912 Y54.1012 
G01 X-51.5612 Y54.2312 
G01 X-51.4124 Y54.3393 
G01 X-51.2485 Y54.4228 
G01 X-51.0736 Y54.4796 
G01 X-50.8920 Y54.5084 
G01 X-50.7080 Y54.5084 
G01 X-50.5264 Y54.4796 
G01 X-50.3515 Y54.4228 
G01 X-50.1876 Y54.3393 
G01 X-50.0388 Y54.2312 
G01 X-49.9088 Y54.1012 
G01 X-49.8007 Y53.9524 
G01 X-49.7172 Y53.7885 
G01 X-49.6604 Y53.6136 
G01 X-49.6316 Y53.4320 
G01 X-49.6316 Y53.2794 
G01 X-47.9632 Y53.2794 
G01 X-47.8922 Y53.2604 
G01 X-47.8284 Y53.2236 
G01 X-47.7764 Y53.1716 
G01 X-45.7764 Y51.1716 
G01 X-45.7396 Y51.1078 
G01 X-45.7206 Y51.0368 
G01 X-45.7206 Y35.0829 
G01 X-43.9217 Y32.3169 
G01 X-43.9164 Y32.3116 
G01 X-43.9017 Y32.2861 
G01 X-43.8857 Y32.2615 
G01 X-43.8834 Y32.2543 
G01 X-43.8796 Y32.2478 
G01 X-43.8720 Y32.2195 
G01 X-43.8629 Y32.1915 
G01 X-43.8625 Y32.1840 
G01 X-43.8606 Y32.1768 
G01 X-43.8606 Y32.1474 
G01 X-43.8590 Y32.1181 
G01 X-43.8606 Y32.1107 
G01 X-43.8606 Y32.0295 
G01 X-43.7110 Y31.9809 
G01 X-43.5543 Y31.9011 
G01 X-43.4119 Y31.7977 
G01 X-43.2875 Y31.6733 
G01 X-43.1841 Y31.5309 
G01 X-43.1043 Y31.3742 
G01 X-43.0499 Y31.2069 
G01 X-43.0224 Y31.0332 
G00 Z3.0000 
G00 X-42.6357 Y28.5858 
G01 Z-0.0800 F254.00 
G01 X-42.6901 Y28.7531 F300.00 
G01 X-42.7176 Y28.9268 
G01 X-42.7176 Y31.0332 
G01 X-42.6901 Y31.2069 
G01 X-42.6357 Y31.3742 
G01 X-42.6012 Y31.4419 
G01 X-42.6084 Y31.4389 
G01 X-42.6387 Y31.4254 
G01 X-42.6424 Y31.4248 
G01 X-42.6459 Y31.4234 
G01 X-42.6786 Y31.4191 
G01 X-42.7114 Y31.4139 
G01 X-42.7151 Y31.4143 
G01 X-42.7188 Y31.4138 
G01 X-42.7516 Y31.4181 
G01 X-42.7846 Y31.4216 
G01 X-42.7880 Y31.4229 
G01 X-42.7917 Y31.4234 
G01 X-42.8223 Y31.4361 
G01 X-42.8533 Y31.4479 
G01 X-42.8563 Y31.4501 
G01 X-42.8597 Y31.4516 
G01 X-42.8860 Y31.4717 
G01 X-42.9128 Y31.4912 
G01 X-42.9151 Y31.4941 
G01 X-42.9181 Y31.4963 
G01 X-42.9382 Y31.5226 
G01 X-42.9591 Y31.5484 
G01 X-42.9606 Y31.5518 
G01 X-42.9628 Y31.5547 
G01 X-42.9755 Y31.5852 
G01 X-42.9890 Y31.6156 
G01 X-42.9896 Y31.6192 
G01 X-43.0203 Y31.6934 
G01 X-43.3918 Y32.0649 
G01 X-43.5086 Y32.1133 
G01 X-43.5363 Y32.1231 
G01 X-43.5425 Y32.1273 
G01 X-43.5494 Y32.1302 
G01 X-43.5727 Y32.1481 
G01 X-43.5969 Y32.1647 
G01 X-43.6018 Y32.1704 
G01 X-43.6078 Y32.1750 
G01 X-43.6257 Y32.1983 
G01 X-43.6447 Y32.2206 
G01 X-43.6480 Y32.2274 
G01 X-43.6526 Y32.2333 
G01 X-43.6638 Y32.2605 
G01 X-43.6765 Y32.2870 
G01 X-43.6778 Y32.2944 
G01 X-43.6807 Y32.3013 
G01 X-43.6836 Y32.3235 
G01 X-43.6912 Y32.3350 
G01 X-43.7069 Y32.3556 
G01 X-43.7112 Y32.3658 
G01 X-43.7172 Y32.3750 
G01 X-43.7252 Y32.3996 
G01 X-43.7309 Y32.4134 
G01 X-43.7371 Y32.4196 
G01 X-43.7589 Y32.4392 
G01 X-43.7630 Y32.4455 
G01 X-43.7683 Y32.4508 
G01 X-43.7830 Y32.4763 
G01 X-45.4563 Y35.0491 
G01 X-45.4616 Y35.0544 
G01 X-45.4762 Y35.0799 
G01 X-45.4923 Y35.1045 
G01 X-45.4946 Y35.1116 
G01 X-45.4984 Y35.1181 
G01 X-45.5060 Y35.1465 
G01 X-45.5151 Y35.1744 
G01 X-45.5155 Y35.1820 
G01 X-45.5174 Y35.1892 
G01 X-45.5174 Y35.2186 
G01 X-45.5190 Y35.2479 
G01 X-45.5174 Y35.2553 
G01 X-45.5174 Y51.0960 
G01 X-45.5909 Y51.2734 
G01 X-47.5776 Y53.2601 
G01 X-47.7266 Y53.4091 
G01 X-47.9040 Y53.4826 
G01 X-49.1695 Y53.4826 
G01 X-49.1878 Y53.4802 
G01 X-49.2061 Y53.4826 
G01 X-49.2246 Y53.4826 
G01 X-49.2424 Y53.4874 
G01 X-49.2607 Y53.4898 
G01 X-49.2778 Y53.4969 
G01 X-49.2956 Y53.5016 
G01 X-49.3116 Y53.5109 
G01 X-49.3287 Y53.5179 
G01 X-49.3433 Y53.5292 
G01 X-49.3593 Y53.5384 
G01 X-49.3724 Y53.5515 
G01 X-49.3870 Y53.5627 
G01 X-49.3983 Y53.5774 
G01 X-49.4113 Y53.5904 
G01 X-49.4206 Y53.6064 
G01 X-49.4318 Y53.6211 
G01 X-49.4389 Y53.6382 
G01 X-49.4481 Y53.6542 
G01 X-49.4529 Y53.6720 
G01 X-49.6372 Y54.1170 
G01 X-50.0230 Y54.5028 
G01 X-50.5272 Y54.7116 
G01 X-51.0728 Y54.7116 
G01 X-51.5770 Y54.5028 
G01 X-51.8284 Y54.2513 
G01 X-51.8922 Y54.2145 
G01 X-51.9632 Y54.1955 
G01 X-52.0368 Y54.1955 
G01 X-52.1078 Y54.2145 
G01 X-52.1716 Y54.2513 
G01 X-52.2236 Y54.3033 
G01 X-52.2604 Y54.3670 
G01 X-52.2794 Y54.4381 
G01 X-52.2794 Y57.3219 
G01 X-52.2604 Y57.3930 
G01 X-52.2236 Y57.4567 
G01 X-52.1716 Y57.5087 
G01 X-52.1078 Y57.5455 
G01 X-52.0368 Y57.5645 
G01 X-51.9632 Y57.5645 
G01 X-51.8922 Y57.5455 
G01 X-51.8284 Y57.5087 
G01 X-51.7764 Y57.4567 
G01 X-51.5770 Y57.2572 
G01 X-51.0728 Y57.0484 
G01 X-50.5272 Y57.0484 
G01 X-50.0230 Y57.2572 
G01 X-49.6372 Y57.6430 
G01 X-49.5937 Y57.7480 
G01 X-49.5890 Y57.7658 
G01 X-49.5797 Y57.7818 
G01 X-49.5727 Y57.7989 
G01 X-49.5614 Y57.8136 
G01 X-49.5522 Y57.8296 
G01 X-49.5391 Y57.8426 
G01 X-49.5279 Y57.8573 
G01 X-49.5132 Y57.8685 
G01 X-49.5002 Y57.8816 
G01 X-49.4842 Y57.8908 
G01 X-49.4695 Y57.9021 
G01 X-49.4524 Y57.9091 
G01 X-49.4364 Y57.9184 
G01 X-49.4186 Y57.9231 
G01 X-49.4015 Y57.9302 
G01 X-49.3832 Y57.9326 
G01 X-49.3654 Y57.9374 
G01 X-49.3469 Y57.9374 
G01 X-49.3286 Y57.9398 
G01 X-49.3103 Y57.9374 
G01 X-48.4840 Y57.9374 
G01 X-48.3066 Y58.0109 
G01 X-44.7399 Y61.5776 
G01 X-44.5909 Y61.7266 
G01 X-44.5174 Y61.9040 
G01 X-44.5174 Y70.7212 
G01 X-44.4984 Y70.7922 
G01 X-44.4616 Y70.8559 
G01 X-44.4096 Y70.9079 
G01 X-42.8559 Y72.4616 
G01 X-42.7922 Y72.4984 
G01 X-42.7212 Y72.5174 
G01 X-42.1810 Y72.5174 
G01 X-42.1626 Y72.5198 
G01 X-42.1443 Y72.5174 
G01 X-42.1259 Y72.5174 
G01 X-42.1080 Y72.5126 
G01 X-42.0897 Y72.5102 
G01 X-42.0726 Y72.5031 
G01 X-42.0548 Y72.4984 
G01 X-42.0388 Y72.4891 
G01 X-42.0217 Y72.4821 
G01 X-42.0071 Y72.4708 
G01 X-41.9911 Y72.4616 
G01 X-41.9780 Y72.4485 
G01 X-41.9634 Y72.4373 
G01 X-41.9521 Y72.4226 
G01 X-41.9391 Y72.4096 
G01 X-41.9298 Y72.3936 
G01 X-41.9186 Y72.3789 
G01 X-41.9115 Y72.3618 
G01 X-41.9023 Y72.3458 
G01 X-41.8975 Y72.3280 
G01 X-41.8904 Y72.3109 
G01 X-41.8880 Y72.2926 
G01 X-41.8832 Y72.2748 
G01 X-41.8832 Y72.2563 
G01 X-41.8808 Y72.2380 
G01 X-41.8832 Y72.2197 
G01 X-41.8832 Y72.2012 
G01 X-41.8880 Y72.1834 
G01 X-41.8904 Y72.1651 
G01 X-41.8975 Y72.1480 
G01 X-41.9023 Y72.1302 
G01 X-41.9115 Y72.1142 
G01 X-41.9186 Y72.0971 
G01 X-41.9298 Y72.0824 
G01 X-41.9391 Y72.0664 
G01 X-41.9521 Y72.0534 
G01 X-41.9634 Y72.0387 
G01 X-41.9780 Y72.0275 
G01 X-41.9911 Y72.0144 
G01 X-42.0071 Y72.0052 
G01 X-42.0217 Y71.9939 
G01 X-42.0388 Y71.9869 
G01 X-42.0548 Y71.9776 
G01 X-42.0726 Y71.9729 
G01 X-42.2734 Y71.8897 
G01 X-42.6449 Y71.5182 
G01 X-42.8460 Y71.0327 
G01 X-42.8460 Y70.5073 
G01 X-42.6449 Y70.0218 
G01 X-42.2946 Y69.6716 
G01 X-42.2579 Y69.6078 
G01 X-42.2388 Y69.5368 
G01 X-42.2388 Y69.4632 
G01 X-42.2579 Y69.3922 
G01 X-42.2710 Y69.3693 
G01 X-42.2946 Y69.3284 
G01 X-42.3467 Y69.2764 
G01 X-42.6449 Y68.9782 
G01 X-42.8460 Y68.4927 
G01 X-42.8460 Y67.9673 
G01 X-42.6449 Y67.4818 
G01 X-42.3459 Y67.1828 
G01 X-42.2946 Y67.1316 
G01 X-42.2716 Y67.0917 
G01 X-42.2579 Y67.0678 
G01 X-42.2388 Y66.9968 
G01 X-42.2388 Y66.9232 
G01 X-42.2579 Y66.8522 
G01 X-42.2946 Y66.7884 
G01 X-42.3467 Y66.7364 
G01 X-42.6449 Y66.4382 
G01 X-42.8460 Y65.9527 
G01 X-42.8460 Y65.4273 
G01 X-42.6449 Y64.9418 
G01 X-42.3459 Y64.6428 
G01 X-42.2946 Y64.5915 
G01 X-42.2716 Y64.5517 
G01 X-42.2579 Y64.5278 
G01 X-42.2388 Y64.4568 
G01 X-42.2388 Y64.3832 
G01 X-42.2579 Y64.3122 
G01 X-42.2946 Y64.2484 
G01 X-42.3467 Y64.1964 
G01 X-42.6449 Y63.8982 
G01 X-42.8460 Y63.4127 
G01 X-42.8460 Y62.8873 
G01 X-42.6449 Y62.4018 
G01 X-42.3459 Y62.1028 
G01 X-42.2946 Y62.0516 
G01 X-42.2716 Y62.0117 
G01 X-42.2579 Y61.9878 
G01 X-42.2388 Y61.9168 
G01 X-42.2388 Y61.8432 
G01 X-42.2579 Y61.7722 
G01 X-42.2946 Y61.7084 
G01 X-42.3467 Y61.6564 
G01 X-42.6449 Y61.3582 
G01 X-42.8460 Y60.8727 
G01 X-42.8460 Y60.3473 
G01 X-42.6449 Y59.8618 
G01 X-42.3459 Y59.5628 
G01 X-42.2946 Y59.5115 
G01 X-42.2716 Y59.4717 
G01 X-42.2579 Y59.4478 
G01 X-42.2388 Y59.3768 
G01 X-42.2388 Y59.3032 
G01 X-42.2579 Y59.2322 
G01 X-42.2946 Y59.1684 
G01 X-42.3467 Y59.1164 
G01 X-42.6449 Y58.8182 
G01 X-42.8460 Y58.3327 
G01 X-42.8460 Y57.8073 
G01 X-42.6449 Y57.3218 
G01 X-42.3459 Y57.0228 
G01 X-42.2946 Y56.9716 
G01 X-42.2716 Y56.9317 
G01 X-42.2579 Y56.9078 
G01 X-42.2388 Y56.8368 
G01 X-42.2388 Y56.7632 
G01 X-42.2579 Y56.6922 
G01 X-42.2946 Y56.6284 
G01 X-42.3467 Y56.5764 
G01 X-42.6449 Y56.2782 
G01 X-42.8460 Y55.7927 
G01 X-42.8460 Y55.2673 
G01 X-42.6449 Y54.7818 
G01 X-42.3459 Y54.4828 
G01 X-42.2946 Y54.4316 
G01 X-42.2716 Y54.3917 
G01 X-42.2579 Y54.3678 
G01 X-42.2388 Y54.2968 
G01 X-42.2388 Y54.2232 
G01 X-42.2579 Y54.1522 
G01 X-42.2946 Y54.0884 
G01 X-42.3467 Y54.0364 
G01 X-42.6449 Y53.7382 
G01 X-42.8460 Y53.2527 
G01 X-42.8460 Y52.7273 
G01 X-42.6449 Y52.2418 
G01 X-42.2946 Y51.8916 
G01 X-42.2579 Y51.8278 
G01 X-42.2388 Y51.7568 
G01 X-42.2388 Y51.6832 
G01 X-42.2579 Y51.6122 
G01 X-42.2710 Y51.5894 
G01 X-42.2946 Y51.5484 
G01 X-42.3467 Y51.4964 
G01 X-42.6449 Y51.1982 
G01 X-42.8460 Y50.7127 
G01 X-42.8460 Y50.1873 
G01 X-42.6449 Y49.7018 
G01 X-42.3459 Y49.4028 
G01 X-42.2946 Y49.3516 
G01 X-42.2716 Y49.3117 
G01 X-42.2579 Y49.2878 
G01 X-42.2388 Y49.2168 
G01 X-42.2388 Y49.1432 
G01 X-42.2579 Y49.0722 
G01 X-42.2946 Y49.0084 
G01 X-42.3467 Y48.9564 
G01 X-42.6449 Y48.6582 
G01 X-42.8460 Y48.1727 
G01 X-42.8460 Y47.6473 
G01 X-42.6449 Y47.1618 
G01 X-42.3459 Y46.8628 
G01 X-42.2946 Y46.8116 
G01 X-42.2716 Y46.7717 
G01 X-42.2579 Y46.7478 
G01 X-42.2388 Y46.6768 
G01 X-42.2388 Y46.6032 
G01 X-42.2579 Y46.5322 
G01 X-42.2946 Y46.4684 
G01 X-42.3467 Y46.4164 
G01 X-42.6449 Y46.1182 
G01 X-42.8460 Y45.6327 
G01 X-42.8460 Y45.1073 
G01 X-42.6449 Y44.6218 
G01 X-42.3459 Y44.3228 
G01 X-42.2946 Y44.2716 
G01 X-42.2716 Y44.2317 
G01 X-42.2579 Y44.2078 
G01 X-42.2388 Y44.1368 
G01 X-42.2388 Y44.0632 
G01 X-42.2579 Y43.9922 
G01 X-42.2946 Y43.9284 
G01 X-42.3467 Y43.8764 
G01 X-42.6449 Y43.5782 
G01 X-42.8460 Y43.0927 
G01 X-42.8460 Y42.5673 
G01 X-42.6449 Y42.0818 
G01 X-42.3459 Y41.7828 
G01 X-42.2946 Y41.7315 
G01 X-42.2716 Y41.6917 
G01 X-42.2579 Y41.6678 
G01 X-42.2388 Y41.5968 
G01 X-42.2388 Y41.5232 
G01 X-42.2579 Y41.4522 
G01 X-42.2946 Y41.3884 
G01 X-42.3467 Y41.3364 
G01 X-42.6578 Y41.0253 
G01 X-42.6715 Y41.0110 
G01 X-42.6825 Y40.9966 
G01 X-42.6974 Y40.9851 
G01 X-44.4091 Y39.2734 
G01 X-44.4826 Y39.0960 
G01 X-44.4826 Y35.9040 
G01 X-44.4091 Y35.7266 
G01 X-44.2081 Y35.5256 
G01 X-42.2734 Y33.5909 
G01 X-42.0960 Y33.5174 
G01 X-37.2788 Y33.5174 
G01 X-37.2078 Y33.4984 
G01 X-37.1441 Y33.4616 
G01 X-37.0921 Y33.4096 
G01 X-35.5384 Y31.8559 
G01 X-35.5016 Y31.7922 
G01 X-35.4826 Y31.7212 
G01 X-35.4826 Y27.1883 
G01 X-35.4809 Y27.1599 
G01 X-35.4826 Y27.1516 
G01 X-35.4826 Y27.1431 
G01 X-35.4900 Y27.1157 
G01 X-35.4956 Y27.0878 
G01 X-35.4994 Y27.0802 
G01 X-35.5016 Y27.0720 
G01 X-35.5158 Y27.0474 
G01 X-36.0894 Y25.9004 
G01 X-36.0916 Y25.8922 
G01 X-36.1058 Y25.8676 
G01 X-36.1185 Y25.8421 
G01 X-36.1241 Y25.8358 
G01 X-36.1284 Y25.8284 
G01 X-36.1484 Y25.8084 
G01 X-36.1673 Y25.7871 
G01 X-36.1744 Y25.7824 
G01 X-36.1804 Y25.7764 
G01 X-36.2050 Y25.7622 
G01 X-36.2287 Y25.7466 
G01 X-36.2367 Y25.7439 
G01 X-36.2441 Y25.7396 
G01 X-36.2715 Y25.7323 
G01 X-36.2985 Y25.7233 
G01 X-36.3070 Y25.7228 
G01 X-36.3152 Y25.7206 
G01 X-36.3436 Y25.7206 
G01 X-36.3719 Y25.7189 
G01 X-36.3802 Y25.7206 
G01 X-38.9592 Y25.7206 
G01 X-39.0302 Y25.7396 
G01 X-39.0939 Y25.7764 
G01 X-39.1459 Y25.8284 
G01 X-39.1823 Y25.8913 
G01 X-39.2018 Y25.9632 
G01 X-39.2018 Y26.0368 
G01 X-39.1827 Y26.1078 
G01 X-39.1459 Y26.1716 
G01 X-39.0939 Y26.2236 
G01 X-38.2369 Y27.0806 
G01 X-38.1732 Y27.1174 
G01 X-38.1702 Y27.1182 
G01 X-38.1022 Y27.1364 
G01 X-37.8282 Y27.1364 
G01 X-37.5108 Y27.2679 
G01 X-37.2679 Y27.5108 
G01 X-37.1364 Y27.8282 
G01 X-37.1364 Y28.1718 
G01 X-37.2679 Y28.4892 
G01 X-37.5108 Y28.7321 
G01 X-37.8282 Y28.8636 
G01 X-38.1718 Y28.8636 
G01 X-38.4892 Y28.7321 
G01 X-38.7321 Y28.4892 
G01 X-38.8636 Y28.1718 
G01 X-38.8636 Y27.8978 
G01 X-38.8826 Y27.8268 
G01 X-38.9194 Y27.7631 
G01 X-38.9714 Y27.7111 
G01 X-40.1441 Y26.5384 
G01 X-40.2078 Y26.5016 
G01 X-40.2788 Y26.4826 
G01 X-45.7212 Y26.4826 
G01 X-45.7922 Y26.5016 
G01 X-45.8559 Y26.5384 
G01 X-45.9079 Y26.5904 
G01 X-47.4616 Y28.1441 
G01 X-47.4984 Y28.2078 
G01 X-47.5174 Y28.2788 
G01 X-47.5174 Y44.0960 
G01 X-47.5909 Y44.2734 
G01 X-47.7919 Y44.4744 
G01 X-49.4596 Y46.1421 
G01 X-49.4743 Y46.1534 
G01 X-49.4856 Y46.1681 
G01 X-49.4986 Y46.1811 
G01 X-49.5078 Y46.1971 
G01 X-49.5191 Y46.2118 
G01 X-49.5262 Y46.2288 
G01 X-49.5354 Y46.2448 
G01 X-49.5402 Y46.2627 
G01 X-49.6372 Y46.4969 
G01 X-49.9587 Y46.8184 
G01 X-49.9955 Y46.8822 
G01 X-50.0145 Y46.9532 
G01 X-50.0145 Y47.0268 
G01 X-49.9955 Y47.0978 
G01 X-49.9823 Y47.1206 
G01 X-49.9587 Y47.1616 
G01 X-49.9067 Y47.2136 
G01 X-49.6372 Y47.4830 
G01 X-49.4284 Y47.9872 
G01 X-49.4284 Y48.5328 
G01 X-49.6372 Y49.0369 
G01 X-49.9587 Y49.3584 
G01 X-49.9955 Y49.4222 
G01 X-50.0145 Y49.4932 
G01 X-50.0145 Y49.5668 
G01 X-49.9955 Y49.6378 
G01 X-49.9823 Y49.6606 
G01 X-49.9587 Y49.7016 
G01 X-49.9067 Y49.7536 
G01 X-49.6372 Y50.0230 
G01 X-49.4284 Y50.5272 
G01 X-49.4284 Y51.0728 
G01 X-49.6372 Y51.5769 
G01 X-49.9067 Y51.8464 
G01 X-49.9527 Y51.8924 
G01 X-49.9587 Y51.8984 
G01 X-49.9955 Y51.9621 
G01 X-50.0137 Y52.0302 
G01 X-50.0145 Y52.0332 
G01 X-50.0145 Y52.1068 
G01 X-49.9955 Y52.1778 
G01 X-49.9587 Y52.2416 
G01 X-49.9553 Y52.2450 
G01 X-49.7387 Y52.4616 
G01 X-49.6750 Y52.4984 
G01 X-49.6039 Y52.5174 
G01 X-48.2788 Y52.5174 
G01 X-48.2078 Y52.4984 
G01 X-48.1441 Y52.4616 
G01 X-48.0921 Y52.4096 
G01 X-46.5384 Y50.8559 
G01 X-46.5016 Y50.7922 
G01 X-46.4826 Y50.7212 
G01 X-46.4826 Y35.0872 
G01 X-46.4810 Y35.0579 
G01 X-46.4826 Y35.0506 
G01 X-46.4826 Y35.0430 
G01 X-46.4902 Y35.0147 
G01 X-46.4920 Y35.0061 
G01 X-46.4893 Y34.9915 
G01 X-46.4826 Y34.9665 
G01 X-46.4826 Y34.9555 
G01 X-46.4806 Y34.9447 
G01 X-46.4826 Y34.9188 
G01 X-46.4826 Y34.9040 
G01 X-46.4792 Y34.8959 
G01 X-46.4666 Y34.8694 
G01 X-46.4652 Y34.8620 
G01 X-46.4623 Y34.8551 
G01 X-46.4585 Y34.8259 
G01 X-46.4569 Y34.8174 
G01 X-46.4488 Y34.8050 
G01 X-46.4331 Y34.7844 
G01 X-46.4288 Y34.7742 
G01 X-46.4228 Y34.7650 
G01 X-46.4148 Y34.7404 
G01 X-46.4091 Y34.7266 
G01 X-46.4029 Y34.7204 
G01 X-46.3811 Y34.7008 
G01 X-46.3770 Y34.6945 
G01 X-46.3717 Y34.6892 
G01 X-46.3570 Y34.6637 
G01 X-44.8935 Y32.4134 
G01 X-44.8881 Y32.4080 
G01 X-44.8735 Y32.3826 
G01 X-44.8574 Y32.3580 
G01 X-44.8551 Y32.3508 
G01 X-44.8514 Y32.3443 
G01 X-44.8438 Y32.3160 
G01 X-44.8347 Y32.2880 
G01 X-44.8343 Y32.2805 
G01 X-44.8323 Y32.2733 
G01 X-44.8323 Y32.2439 
G01 X-44.8308 Y32.2146 
G01 X-44.8323 Y32.2072 
G01 X-44.8323 Y32.1997 
G01 X-44.8399 Y32.1713 
G01 X-44.8460 Y32.1426 
G01 X-44.8494 Y32.1359 
G01 X-44.8514 Y32.1286 
G01 X-44.8661 Y32.1032 
G01 X-44.8794 Y32.0770 
G01 X-44.8844 Y32.0714 
G01 X-44.8881 Y32.0649 
G01 X-44.9089 Y32.0442 
G01 X-44.9286 Y32.0223 
G01 X-44.9349 Y32.0182 
G01 X-45.2597 Y31.6934 
G01 X-45.4608 Y31.2079 
G01 X-45.4608 Y28.7521 
G01 X-45.2597 Y28.2666 
G01 X-44.8882 Y27.8951 
G01 X-44.4027 Y27.6940 
G01 X-43.8773 Y27.6940 
G01 X-43.3918 Y27.8951 
G01 X-43.0203 Y28.2666 
G01 X-42.9896 Y28.3408 
G01 X-42.9890 Y28.3444 
G01 X-42.9755 Y28.3747 
G01 X-42.9628 Y28.4053 
G01 X-42.9606 Y28.4082 
G01 X-42.9591 Y28.4116 
G01 X-42.9382 Y28.4374 
G01 X-42.9181 Y28.4637 
G01 X-42.9151 Y28.4659 
G01 X-42.9128 Y28.4688 
G01 X-42.8860 Y28.4882 
G01 X-42.8597 Y28.5084 
G01 X-42.8563 Y28.5099 
G01 X-42.8533 Y28.5120 
G01 X-42.8224 Y28.5239 
G01 X-42.7917 Y28.5366 
G01 X-42.7880 Y28.5371 
G01 X-42.7846 Y28.5384 
G01 X-42.7516 Y28.5419 
G01 X-42.7188 Y28.5462 
G01 X-42.7151 Y28.5457 
G01 X-42.7114 Y28.5461 
G01 X-42.6787 Y28.5409 
G01 X-42.6458 Y28.5366 
G01 X-42.6424 Y28.5352 
G01 X-42.6387 Y28.5346 
G01 X-42.6085 Y28.5211 
G01 X-42.6012 Y28.5181 
G01 X-42.6357 Y28.5858 
G00 Z3.0000 
G00 X-51.9684 Y35.4680 
G01 Z-0.0800 F254.00 
G01 X-51.9684 Y35.6520 F300.00 
G01 X-51.9396 Y35.8336 
G01 X-51.8828 Y36.0085 
G01 X-51.7993 Y36.1724 
G01 X-51.6912 Y36.3212 
G01 X-51.5612 Y36.4512 
G01 X-51.4124 Y36.5593 
G01 X-51.2485 Y36.6428 
G01 X-51.0736 Y36.6996 
G01 X-50.8920 Y36.7284 
G01 X-50.7080 Y36.7284 
G01 X-50.5264 Y36.6996 
G01 X-50.3515 Y36.6428 
G01 X-50.1876 Y36.5593 
G01 X-50.0388 Y36.4512 
G01 X-49.9088 Y36.3212 
G01 X-49.8007 Y36.1724 
G01 X-49.7172 Y36.0085 
G01 X-49.6604 Y35.8336 
G01 X-49.6316 Y35.6520 
G01 X-49.6316 Y35.4680 
G01 X-49.6604 Y35.2864 
G01 X-49.7172 Y35.1115 
G01 X-49.8007 Y34.9476 
G01 X-49.9088 Y34.7988 
G01 X-50.0388 Y34.6688 
G01 X-50.1876 Y34.5607 
G01 X-50.3515 Y34.4772 
G01 X-50.5264 Y34.4204 
G01 X-50.7080 Y34.3916 
G01 X-50.8920 Y34.3916 
G01 X-51.0736 Y34.4204 
G01 X-51.2485 Y34.4772 
G01 X-51.4124 Y34.5607 
G01 X-51.5612 Y34.6688 
G01 X-51.6912 Y34.7988 
G01 X-51.7993 Y34.9476 
G01 X-51.8828 Y35.1115 
G01 X-51.9396 Y35.2864 
G01 X-51.9684 Y35.4680 
G00 Z3.0000 
G00 X-51.9684 Y38.0080 
G01 Z-0.0800 F254.00 
G01 X-51.9684 Y38.1920 F300.00 
G01 X-51.9396 Y38.3736 
G01 X-51.8828 Y38.5485 
G01 X-51.7993 Y38.7124 
G01 X-51.6912 Y38.8612 
G01 X-51.5612 Y38.9912 
G01 X-51.4124 Y39.0993 
G01 X-51.2485 Y39.1828 
G01 X-51.0736 Y39.2396 
G01 X-50.8920 Y39.2684 
G01 X-50.7080 Y39.2684 
G01 X-50.5264 Y39.2396 
G01 X-50.3515 Y39.1828 
G01 X-50.1876 Y39.0993 
G01 X-50.0388 Y38.9912 
G01 X-49.9088 Y38.8612 
G01 X-49.8007 Y38.7124 
G01 X-49.7172 Y38.5485 
G01 X-49.6604 Y38.3736 
G01 X-49.6316 Y38.1920 
G01 X-49.6316 Y38.0080 
G01 X-49.6604 Y37.8264 
G01 X-49.7172 Y37.6515 
G01 X-49.8007 Y37.4876 
G01 X-49.9088 Y37.3388 
G01 X-50.0388 Y37.2088 
G01 X-50.1876 Y37.1007 
G01 X-50.3515 Y37.0172 
G01 X-50.5264 Y36.9604 
G01 X-50.7080 Y36.9316 
G01 X-50.8920 Y36.9316 
G01 X-51.0736 Y36.9604 
G01 X-51.2485 Y37.0172 
G01 X-51.4124 Y37.1007 
G01 X-51.5612 Y37.2088 
G01 X-51.6912 Y37.3388 
G01 X-51.7993 Y37.4876 
G01 X-51.8828 Y37.6515 
G01 X-51.9396 Y37.8264 
G01 X-51.9684 Y38.0080 
G00 Z3.0000 
G00 X-3.7084 Y26.5780 
G01 Z-0.0800 F254.00 
G01 X-3.7084 Y26.7620 F300.00 
G01 X-3.6796 Y26.9436 
G01 X-3.6228 Y27.1185 
G01 X-3.5393 Y27.2824 
G01 X-3.4312 Y27.4312 
G01 X-3.3012 Y27.5612 
G01 X-3.1524 Y27.6693 
G01 X-2.9885 Y27.7528 
G01 X-2.8136 Y27.8096 
G01 X-2.6320 Y27.8384 
G01 X-2.4480 Y27.8384 
G01 X-2.2664 Y27.8096 
G01 X-2.0915 Y27.7528 
G01 X-1.9276 Y27.6693 
G01 X-1.7788 Y27.5612 
G01 X-1.6488 Y27.4312 
