(.../Program Files (x86)/EAGLE-6.4.0/ulp/pcb-gcode.ulp)
(Copyright 2005 - 2012 by John Johnson)
(See readme.txt for licensing terms.)
(This file generated from the board:)
(.../ICRI/git/Breazy/Hardware/Treo2.brd)
(Current profile is .../EAGLE-6.4.0/ulp/profiles/generic.pp  )
(This file generated 11/3/2014 10:35:21 AM)
(Settings from pcb-machine.h)
(  Tool Size)
(0.2540 )
(Z Axis Settings)
(  High     Up        Down     Drill)
(12.0000 	3.0000 	-0.0800 	-0.1350 )
(spindle on time = 3.0000)
(milling depth = -0.2540)
(text depth = -0.1270)
(tool change at 12.7000 15.2400 25.4000 )
(feed rate xy = F300.00 )
(feed rate z  = F254.00 )
(Settings from pcb-defaults.h)
(isolate min = 0.0254)
(isolate max = 0.5080)
(isolate step = 0.1270)
(Generated top outlines, top drill, bottom outlines, bottom drill, )
(Unit of measure: mm)
(Metric Mode)
G21
(Absolute Coordinates)
G90
G00 X0.0000 Y0.0000 
M03
G04 P3.000000
G00 Z3.0000 
G00 X7.6604 Y38.9350 
G01 Z-0.0800 F254.00 
G01 X7.6604 Y39.0650 F300.00 
G01 X7.6350 Y39.1926 
G01 X7.5852 Y39.3128 
G01 X7.5130 Y39.4210 
G01 X7.4210 Y39.5130 
G01 X7.3128 Y39.5852 
G01 X7.2794 Y39.5991 
G01 X7.2794 Y57.0368 
G01 X7.2604 Y57.1078 
G01 X7.2236 Y57.1716 
G01 X6.6212 Y57.7739 
G01 X6.6350 Y57.8074 
G01 X6.6604 Y57.9350 
G01 X6.6604 Y58.0650 
G01 X6.6350 Y58.1926 
G01 X6.5852 Y58.3128 
G01 X6.5130 Y58.4210 
G01 X6.4210 Y58.5130 
G01 X6.3128 Y58.5852 
G01 X6.1926 Y58.6350 
G01 X6.0650 Y58.6604 
G01 X5.9350 Y58.6604 
G01 X5.8074 Y58.6350 
G01 X5.6872 Y58.5852 
G01 X5.5790 Y58.5130 
G01 X5.4870 Y58.4210 
G01 X5.4148 Y58.3128 
G01 X5.3650 Y58.1926 
G01 X5.3396 Y58.0650 
G01 X5.3396 Y57.9350 
G01 X5.3650 Y57.8074 
G01 X5.4148 Y57.6872 
G01 X5.4870 Y57.5790 
G01 X5.5790 Y57.4870 
G01 X5.6872 Y57.4148 
G01 X5.8074 Y57.3650 
G01 X5.9350 Y57.3396 
G01 X6.0650 Y57.3396 
G01 X6.1926 Y57.3650 
G01 X6.2260 Y57.3788 
G01 X6.7206 Y56.8843 
G01 X6.7206 Y39.5991 
G01 X6.6872 Y39.5852 
G01 X6.5790 Y39.5130 
G01 X6.4870 Y39.4210 
G01 X6.4148 Y39.3128 
G01 X6.3650 Y39.1926 
G01 X6.3396 Y39.0650 
G01 X6.3396 Y38.9350 
G01 X6.3650 Y38.8074 
G01 X6.4148 Y38.6872 
G01 X6.4870 Y38.5790 
G01 X6.5790 Y38.4870 
G01 X6.6872 Y38.4148 
G01 X6.8074 Y38.3650 
G01 X6.9350 Y38.3396 
G01 X7.0650 Y38.3396 
G01 X7.1926 Y38.3650 
G01 X7.3128 Y38.4148 
G01 X7.4210 Y38.4870 
G01 X7.5130 Y38.5790 
G01 X7.5852 Y38.6872 
G01 X7.6350 Y38.8074 
G01 X7.6604 Y38.9350 
G00 Z3.0000 
G00 X51.8922 Y40.5540 
G01 Z-0.0800 F254.00 
G01 X51.8922 Y40.7260 F300.00 
G01 X51.8653 Y40.8958 
G01 X51.8122 Y41.0593 
G01 X51.7341 Y41.2124 
G01 X51.6331 Y41.3515 
G01 X51.5115 Y41.4731 
G01 X51.3724 Y41.5741 
G01 X51.2193 Y41.6522 
G01 X51.0558 Y41.7053 
G01 X50.8860 Y41.7322 
G01 X50.7140 Y41.7322 
G01 X50.5442 Y41.7053 
G01 X50.3807 Y41.6522 
G01 X50.2276 Y41.5741 
G01 X50.0885 Y41.4731 
G01 X49.9669 Y41.3515 
G01 X49.8659 Y41.2124 
G01 X49.7878 Y41.0593 
G01 X49.7347 Y40.8958 
G01 X49.7078 Y40.7260 
G01 X49.7078 Y40.5540 
G01 X49.7347 Y40.3842 
G01 X49.7878 Y40.2207 
G01 X49.8659 Y40.0676 
G01 X49.9669 Y39.9285 
G01 X50.0885 Y39.8069 
G01 X50.2276 Y39.7059 
G01 X50.3807 Y39.6278 
G01 X50.5442 Y39.5747 
G01 X50.7140 Y39.5478 
G01 X50.8860 Y39.5478 
G01 X51.0558 Y39.5747 
G01 X51.2193 Y39.6278 
G01 X51.3724 Y39.7059 
G01 X51.5115 Y39.8069 
G01 X51.6331 Y39.9285 
G01 X51.7341 Y40.0676 
G01 X51.8122 Y40.2207 
G01 X51.8653 Y40.3842 
G01 X51.8922 Y40.5540 
G00 Z3.0000 
G00 X51.8922 Y43.0940 
G01 Z-0.0800 F254.00 
G01 X51.8922 Y43.2660 F300.00 
G01 X51.8653 Y43.4358 
G01 X51.8122 Y43.5993 
G01 X51.7341 Y43.7524 
G01 X51.6331 Y43.8915 
G01 X51.5115 Y44.0131 
G01 X51.3724 Y44.1141 
G01 X51.2193 Y44.1922 
G01 X51.0558 Y44.2453 
G01 X50.8860 Y44.2722 
G01 X50.7140 Y44.2722 
G01 X50.5442 Y44.2453 
G01 X50.3807 Y44.1922 
G01 X50.2276 Y44.1141 
G01 X50.0885 Y44.0131 
G01 X49.9669 Y43.8915 
G01 X49.8659 Y43.7524 
G01 X49.7878 Y43.5993 
G01 X49.7347 Y43.4358 
G01 X49.7078 Y43.2660 
G01 X49.7078 Y43.0940 
G01 X49.7347 Y42.9242 
G01 X49.7878 Y42.7607 
G01 X49.8659 Y42.6076 
G01 X49.9669 Y42.4685 
G01 X50.0885 Y42.3469 
G01 X50.2276 Y42.2459 
G01 X50.3807 Y42.1678 
G01 X50.5442 Y42.1147 
G01 X50.7140 Y42.0878 
G01 X50.8860 Y42.0878 
G01 X51.0558 Y42.1147 
G01 X51.2193 Y42.1678 
G01 X51.3724 Y42.2459 
G01 X51.5115 Y42.3469 
G01 X51.6331 Y42.4685 
G01 X51.7341 Y42.6076 
G01 X51.8122 Y42.7607 
G01 X51.8653 Y42.9242 
G01 X51.8922 Y43.0940 
G00 Z3.0000 
G00 X51.8922 Y45.6340 
G01 Z-0.0800 F254.00 
G01 X51.8922 Y45.8060 F300.00 
G01 X51.8653 Y45.9758 
G01 X51.8122 Y46.1393 
G01 X51.7341 Y46.2924 
G01 X51.6331 Y46.4315 
G01 X51.5115 Y46.5531 
G01 X51.3724 Y46.6541 
G01 X51.2193 Y46.7322 
G01 X51.0558 Y46.7853 
G01 X50.8860 Y46.8122 
G01 X50.7140 Y46.8122 
G01 X50.5442 Y46.7853 
G01 X50.3807 Y46.7322 
G01 X50.2276 Y46.6541 
G01 X50.0885 Y46.5531 
G01 X49.9669 Y46.4315 
G01 X49.8659 Y46.2924 
G01 X49.7878 Y46.1393 
G01 X49.7347 Y45.9758 
G01 X49.7078 Y45.8060 
G01 X49.7078 Y45.6340 
G01 X49.7347 Y45.4642 
G01 X49.7878 Y45.3007 
G01 X49.8659 Y45.1476 
G01 X49.9669 Y45.0085 
G01 X50.0885 Y44.8869 
G01 X50.2276 Y44.7859 
G01 X50.3807 Y44.7078 
G01 X50.5442 Y44.6547 
G01 X50.7140 Y44.6278 
G01 X50.8860 Y44.6278 
G01 X51.0558 Y44.6547 
G01 X51.2193 Y44.7078 
G01 X51.3724 Y44.7859 
G01 X51.5115 Y44.8869 
G01 X51.6331 Y45.0085 
G01 X51.7341 Y45.1476 
G01 X51.8122 Y45.3007 
G01 X51.8653 Y45.4642 
G01 X51.8922 Y45.6340 
G00 Z3.0000 
G00 X51.8922 Y48.1740 
G01 Z-0.0800 F254.00 
G01 X51.8922 Y48.3460 F300.00 
G01 X51.8653 Y48.5158 
G01 X51.8122 Y48.6793 
G01 X51.7341 Y48.8324 
G01 X51.6331 Y48.9715 
G01 X51.5115 Y49.0931 
G01 X51.3724 Y49.1941 
G01 X51.2193 Y49.2722 
G01 X51.0558 Y49.3253 
G01 X50.8860 Y49.3522 
G01 X50.7140 Y49.3522 
G01 X50.5442 Y49.3253 
G01 X50.3807 Y49.2722 
G01 X50.2276 Y49.1941 
G01 X50.0885 Y49.0931 
G01 X49.9669 Y48.9715 
G01 X49.8659 Y48.8324 
G01 X49.7878 Y48.6793 
G01 X49.7347 Y48.5158 
G01 X49.7078 Y48.3460 
G01 X49.7078 Y48.1740 
G01 X49.7347 Y48.0042 
G01 X49.7878 Y47.8407 
G01 X49.8659 Y47.6876 
G01 X49.9669 Y47.5485 
G01 X50.0885 Y47.4269 
G01 X50.2276 Y47.3259 
G01 X50.3807 Y47.2478 
G01 X50.5442 Y47.1947 
G01 X50.7140 Y47.1678 
G01 X50.8860 Y47.1678 
G01 X51.0558 Y47.1947 
G01 X51.2193 Y47.2478 
G01 X51.3724 Y47.3259 
G01 X51.5115 Y47.4269 
G01 X51.6331 Y47.5485 
G01 X51.7341 Y47.6876 
G01 X51.8122 Y47.8407 
G01 X51.8653 Y48.0042 
G01 X51.8922 Y48.1740 
G00 Z3.0000 
G00 X51.8922 Y50.7140 
G01 Z-0.0800 F254.00 
G01 X51.8922 Y50.8860 F300.00 
G01 X51.8653 Y51.0558 
G01 X51.8122 Y51.2193 
G01 X51.7341 Y51.3724 
G01 X51.6331 Y51.5115 
G01 X51.5115 Y51.6331 
G01 X51.3724 Y51.7341 
G01 X51.2193 Y51.8122 
G01 X51.0558 Y51.8653 
G01 X50.8860 Y51.8922 
G01 X50.7140 Y51.8922 
G01 X50.5442 Y51.8653 
G01 X50.3807 Y51.8122 
G01 X50.2276 Y51.7341 
G01 X50.0885 Y51.6331 
G01 X49.9669 Y51.5115 
G01 X49.8659 Y51.3724 
G01 X49.7878 Y51.2193 
G01 X49.7347 Y51.0558 
G01 X49.7078 Y50.8860 
G01 X49.7078 Y50.7140 
G01 X49.7347 Y50.5442 
G01 X49.7878 Y50.3807 
G01 X49.8659 Y50.2276 
G01 X49.9669 Y50.0885 
G01 X50.0885 Y49.9669 
G01 X50.2276 Y49.8659 
G01 X50.3807 Y49.7878 
G01 X50.5442 Y49.7347 
G01 X50.7140 Y49.7078 
G01 X50.8860 Y49.7078 
G01 X51.0558 Y49.7347 
G01 X51.2193 Y49.7878 
G01 X51.3724 Y49.8659 
G01 X51.5115 Y49.9669 
G01 X51.6331 Y50.0885 
G01 X51.7341 Y50.2276 
G01 X51.8122 Y50.3807 
G01 X51.8653 Y50.5442 
G01 X51.8922 Y50.7140 
G00 Z3.0000 
G00 X51.8922 Y53.2540 
G01 Z-0.0800 F254.00 
G01 X51.8922 Y53.4260 F300.00 
G01 X51.8653 Y53.5958 
G01 X51.8122 Y53.7593 
G01 X51.7341 Y53.9124 
G01 X51.6331 Y54.0515 
G01 X51.5115 Y54.1731 
G01 X51.3724 Y54.2741 
G01 X51.2193 Y54.3522 
G01 X51.0558 Y54.4053 
G01 X50.8860 Y54.4322 
G01 X50.7140 Y54.4322 
G01 X50.5442 Y54.4053 
G01 X50.3807 Y54.3522 
G01 X50.2276 Y54.2741 
G01 X50.0885 Y54.1731 
G01 X49.9669 Y54.0515 
G01 X49.8659 Y53.9124 
G01 X49.7878 Y53.7593 
G01 X49.7347 Y53.5958 
G01 X49.7078 Y53.4260 
G01 X49.7078 Y53.2540 
G01 X49.7347 Y53.0842 
G01 X49.7878 Y52.9207 
G01 X49.8659 Y52.7676 
G01 X49.9669 Y52.6285 
G01 X50.0885 Y52.5069 
G01 X50.2276 Y52.4059 
G01 X50.3807 Y52.3278 
G01 X50.5442 Y52.2747 
G01 X50.7140 Y52.2478 
G01 X50.8860 Y52.2478 
G01 X51.0558 Y52.2747 
G01 X51.2193 Y52.3278 
G01 X51.3724 Y52.4059 
G01 X51.5115 Y52.5069 
G01 X51.6331 Y52.6285 
G01 X51.7341 Y52.7676 
G01 X51.8122 Y52.9207 
G01 X51.8653 Y53.0842 
G01 X51.8922 Y53.2540 
G00 Z3.0000 
G00 X51.8922 Y58.3340 
G01 Z-0.0800 F254.00 
G01 X51.8922 Y58.5060 F300.00 
G01 X51.8653 Y58.6758 
G01 X51.8122 Y58.8393 
G01 X51.7341 Y58.9924 
G01 X51.6331 Y59.1315 
G01 X51.5115 Y59.2531 
G01 X51.3724 Y59.3541 
G01 X51.2193 Y59.4322 
G01 X51.0558 Y59.4853 
G01 X50.8860 Y59.5122 
G01 X50.7140 Y59.5122 
G01 X50.5442 Y59.4853 
G01 X50.3807 Y59.4322 
G01 X50.2276 Y59.3541 
G01 X50.0885 Y59.2531 
G01 X49.9669 Y59.1315 
G01 X49.8659 Y58.9924 
G01 X49.7878 Y58.8393 
G01 X49.7347 Y58.6758 
G01 X49.7078 Y58.5060 
G01 X49.7078 Y58.3340 
G01 X49.7347 Y58.1642 
G01 X49.7878 Y58.0007 
G01 X49.8659 Y57.8476 
G01 X49.9669 Y57.7085 
G01 X50.0885 Y57.5869 
G01 X50.2276 Y57.4859 
G01 X50.3807 Y57.4078 
G01 X50.5442 Y57.3547 
G01 X50.7140 Y57.3278 
G01 X50.8860 Y57.3278 
G01 X51.0558 Y57.3547 
G01 X51.2193 Y57.4078 
G01 X51.3724 Y57.4859 
G01 X51.5115 Y57.5869 
G01 X51.6331 Y57.7085 
G01 X51.7341 Y57.8476 
G01 X51.8122 Y58.0007 
G01 X51.8653 Y58.1642 
G01 X51.8922 Y58.3340 
G00 Z3.0000 
G00 X51.8922 Y60.8740 
G01 Z-0.0800 F254.00 
G01 X51.8922 Y61.0460 F300.00 
G01 X51.8653 Y61.2158 
G01 X51.8122 Y61.3793 
G01 X51.7341 Y61.5324 
G01 X51.6331 Y61.6715 
G01 X51.5115 Y61.7931 
G01 X51.3724 Y61.8941 
G01 X51.2193 Y61.9722 
G01 X51.0558 Y62.0253 
G01 X50.8860 Y62.0522 
G01 X50.7140 Y62.0522 
G01 X50.5442 Y62.0253 
G01 X50.3807 Y61.9722 
G01 X50.2276 Y61.8941 
G01 X50.0885 Y61.7931 
G01 X49.9669 Y61.6715 
G01 X49.8659 Y61.5324 
G01 X49.7878 Y61.3793 
G01 X49.7347 Y61.2158 
G01 X49.7078 Y61.0460 
G01 X49.7078 Y60.8740 
G01 X49.7347 Y60.7042 
G01 X49.7878 Y60.5407 
G01 X49.8659 Y60.3876 
G01 X49.9669 Y60.2485 
G01 X50.0885 Y60.1269 
G01 X50.2276 Y60.0259 
G01 X50.3807 Y59.9478 
G01 X50.5442 Y59.8947 
G01 X50.7140 Y59.8678 
G01 X50.8860 Y59.8678 
G01 X51.0558 Y59.8947 
G01 X51.2193 Y59.9478 
G01 X51.3724 Y60.0259 
G01 X51.5115 Y60.1269 
G01 X51.6331 Y60.2485 
G01 X51.7341 Y60.3876 
G01 X51.8122 Y60.5407 
G01 X51.8653 Y60.7042 
G01 X51.8922 Y60.8740 
G00 Z3.0000 
G00 X51.8922 Y63.4140 
G01 Z-0.0800 F254.00 
G01 X51.8922 Y63.5860 F300.00 
G01 X51.8653 Y63.7558 
G01 X51.8122 Y63.9193 
G01 X51.7341 Y64.0724 
G01 X51.6331 Y64.2115 
G01 X51.5115 Y64.3331 
G01 X51.3724 Y64.4341 
G01 X51.2193 Y64.5122 
G01 X51.0558 Y64.5653 
G01 X50.8860 Y64.5922 
G01 X50.7140 Y64.5922 
G01 X50.5442 Y64.5653 
G01 X50.3807 Y64.5122 
G01 X50.2276 Y64.4341 
G01 X50.0885 Y64.3331 
G01 X49.9669 Y64.2115 
G01 X49.8659 Y64.0724 
G01 X49.7878 Y63.9193 
G01 X49.7347 Y63.7558 
G01 X49.7078 Y63.5860 
G01 X49.7078 Y63.4140 
G01 X49.7347 Y63.2442 
G01 X49.7878 Y63.0807 
G01 X49.8659 Y62.9276 
G01 X49.9669 Y62.7885 
G01 X50.0885 Y62.6669 
G01 X50.2276 Y62.5659 
G01 X50.3807 Y62.4878 
G01 X50.5442 Y62.4347 
G01 X50.7140 Y62.4078 
G01 X50.8860 Y62.4078 
G01 X51.0558 Y62.4347 
G01 X51.2193 Y62.4878 
G01 X51.3724 Y62.5659 
G01 X51.5115 Y62.6669 
G01 X51.6331 Y62.7885 
G01 X51.7341 Y62.9276 
G01 X51.8122 Y63.0807 
G01 X51.8653 Y63.2442 
G01 X51.8922 Y63.4140 
G00 Z3.0000 
G00 X51.8922 Y65.9540 
G01 Z-0.0800 F254.00 
G01 X51.8922 Y66.1260 F300.00 
G01 X51.8653 Y66.2958 
G01 X51.8122 Y66.4593 
G01 X51.7341 Y66.6124 
G01 X51.6331 Y66.7515 
G01 X51.5115 Y66.8731 
G01 X51.3724 Y66.9741 
G01 X51.2193 Y67.0522 
G01 X51.0558 Y67.1053 
G01 X50.8860 Y67.1322 
G01 X50.7140 Y67.1322 
G01 X50.5442 Y67.1053 
G01 X50.3807 Y67.0522 
G01 X50.2276 Y66.9741 
G01 X50.0885 Y66.8731 
G01 X49.9669 Y66.7515 
G01 X49.8659 Y66.6124 
G01 X49.7878 Y66.4593 
G01 X49.7347 Y66.2958 
G01 X49.7078 Y66.1260 
G01 X49.7078 Y65.9540 
G01 X49.7347 Y65.7842 
G01 X49.7878 Y65.6207 
G01 X49.8659 Y65.4676 
G01 X49.9669 Y65.3285 
G01 X50.0885 Y65.2069 
G01 X50.2276 Y65.1059 
G01 X50.3807 Y65.0278 
G01 X50.5442 Y64.9747 
G01 X50.7140 Y64.9478 
G01 X50.8860 Y64.9478 
G01 X51.0558 Y64.9747 
G01 X51.2193 Y65.0278 
G01 X51.3724 Y65.1059 
G01 X51.5115 Y65.2069 
G01 X51.6331 Y65.3285 
G01 X51.7341 Y65.4676 
G01 X51.8122 Y65.6207 
G01 X51.8653 Y65.7842 
G01 X51.8922 Y65.9540 
G00 Z3.0000 
G00 X51.8922 Y68.4940 
G01 Z-0.0800 F254.00 
G01 X51.8922 Y68.6660 F300.00 
G01 X51.8653 Y68.8358 
G01 X51.8122 Y68.9993 
G01 X51.7341 Y69.1524 
G01 X51.6331 Y69.2915 
G01 X51.5115 Y69.4131 
G01 X51.3724 Y69.5141 
G01 X51.2193 Y69.5922 
G01 X51.0558 Y69.6453 
G01 X50.8860 Y69.6722 
G01 X50.7140 Y69.6722 
G01 X50.5442 Y69.6453 
G01 X50.3807 Y69.5922 
G01 X50.2276 Y69.5141 
G01 X50.0885 Y69.4131 
G01 X49.9669 Y69.2915 
G01 X49.8659 Y69.1524 
G01 X49.7878 Y68.9993 
G01 X49.7347 Y68.8358 
G01 X49.7078 Y68.6660 
G01 X49.7078 Y68.4940 
G01 X49.7347 Y68.3242 
G01 X49.7878 Y68.1607 
G01 X49.8659 Y68.0076 
G01 X49.9669 Y67.8685 
G01 X50.0885 Y67.7469 
G01 X50.2276 Y67.6459 
G01 X50.3807 Y67.5678 
G01 X50.5442 Y67.5147 
G01 X50.7140 Y67.4878 
G01 X50.8860 Y67.4878 
G01 X51.0558 Y67.5147 
G01 X51.2193 Y67.5678 
G01 X51.3724 Y67.6459 
G01 X51.5115 Y67.7469 
G01 X51.6331 Y67.8685 
G01 X51.7341 Y68.0076 
G01 X51.8122 Y68.1607 
G01 X51.8653 Y68.3242 
G01 X51.8922 Y68.4940 
G00 Z3.0000 
G00 X51.8922 Y71.0340 
G01 Z-0.0800 F254.00 
G01 X51.8922 Y71.2060 F300.00 
G01 X51.8653 Y71.3758 
G01 X51.8122 Y71.5393 
G01 X51.7341 Y71.6924 
G01 X51.6331 Y71.8315 
G01 X51.5115 Y71.9531 
G01 X51.3724 Y72.0541 
G01 X51.2193 Y72.1322 
G01 X51.0558 Y72.1853 
G01 X50.8860 Y72.2122 
G01 X50.7140 Y72.2122 
G01 X50.5442 Y72.1853 
G01 X50.3807 Y72.1322 
G01 X50.2276 Y72.0541 
G01 X50.0885 Y71.9531 
G01 X49.9669 Y71.8315 
G01 X49.8659 Y71.6924 
G01 X49.7878 Y71.5393 
G01 X49.7347 Y71.3758 
G01 X49.7078 Y71.2060 
G01 X49.7078 Y71.0340 
G01 X49.7347 Y70.8642 
G01 X49.7878 Y70.7007 
G01 X49.8659 Y70.5476 
G01 X49.9669 Y70.4085 
G01 X50.0885 Y70.2869 
G01 X50.2276 Y70.1859 
G01 X50.3807 Y70.1078 
G01 X50.5442 Y70.0547 
G01 X50.7140 Y70.0278 
G01 X50.8860 Y70.0278 
G01 X51.0558 Y70.0547 
G01 X51.2193 Y70.1078 
G01 X51.3724 Y70.1859 
G01 X51.5115 Y70.2869 
G01 X51.6331 Y70.4085 
G01 X51.7341 Y70.5476 
G01 X51.8122 Y70.7007 
G01 X51.8653 Y70.8642 
G01 X51.8922 Y71.0340 
G00 Z3.0000 
G00 X3.6322 Y71.0340 
G01 Z-0.0800 F254.00 
G01 X3.6322 Y71.2060 F300.00 
G01 X3.6053 Y71.3758 
G01 X3.5522 Y71.5393 
G01 X3.4741 Y71.6924 
G01 X3.3731 Y71.8315 
G01 X3.2515 Y71.9531 
G01 X3.1124 Y72.0541 
G01 X2.9593 Y72.1322 
G01 X2.7958 Y72.1853 
G01 X2.6260 Y72.2122 
G01 X2.4540 Y72.2122 
G01 X2.2842 Y72.1853 
G01 X2.1207 Y72.1322 
G01 X1.9676 Y72.0541 
G01 X1.8285 Y71.9531 
G01 X1.7069 Y71.8315 
G01 X1.6059 Y71.6924 
G01 X1.5278 Y71.5393 
G01 X1.4747 Y71.3758 
G01 X1.4478 Y71.2060 
G01 X1.4478 Y71.0340 
G01 X1.4747 Y70.8642 
G01 X1.5278 Y70.7007 
G01 X1.6059 Y70.5476 
G01 X1.7069 Y70.4085 
G01 X1.8285 Y70.2869 
G01 X1.9676 Y70.1859 
G01 X2.1207 Y70.1078 
G01 X2.2842 Y70.0547 
G01 X2.4540 Y70.0278 
G01 X2.6260 Y70.0278 
G01 X2.7958 Y70.0547 
G01 X2.9593 Y70.1078 
G01 X3.1124 Y70.1859 
G01 X3.2515 Y70.2869 
G01 X3.3731 Y70.4085 
G01 X3.4741 Y70.5476 
G01 X3.5522 Y70.7007 
G01 X3.6053 Y70.8642 
G01 X3.6322 Y71.0340 
G00 Z3.0000 
G00 X3.6322 Y68.4940 
G01 Z-0.0800 F254.00 
G01 X3.6322 Y68.6660 F300.00 
G01 X3.6053 Y68.8358 
G01 X3.5522 Y68.9993 
G01 X3.4741 Y69.1524 
G01 X3.3731 Y69.2915 
G01 X3.2515 Y69.4131 
G01 X3.1124 Y69.5141 
G01 X2.9593 Y69.5922 
G01 X2.7958 Y69.6453 
G01 X2.6260 Y69.6722 
G01 X2.4540 Y69.6722 
G01 X2.2842 Y69.6453 
G01 X2.1207 Y69.5922 
G01 X1.9676 Y69.5141 
G01 X1.8285 Y69.4131 
G01 X1.7069 Y69.2915 
G01 X1.6059 Y69.1524 
G01 X1.5278 Y68.9993 
G01 X1.4747 Y68.8358 
G01 X1.4478 Y68.6660 
G01 X1.4478 Y68.4940 
G01 X1.4747 Y68.3242 
G01 X1.5278 Y68.1607 
G01 X1.6059 Y68.0076 
G01 X1.7069 Y67.8685 
G01 X1.8285 Y67.7469 
G01 X1.9676 Y67.6459 
G01 X2.1207 Y67.5678 
G01 X2.2842 Y67.5147 
G01 X2.4540 Y67.4878 
G01 X2.6260 Y67.4878 
G01 X2.7958 Y67.5147 
G01 X2.9593 Y67.5678 
G01 X3.1124 Y67.6459 
G01 X3.2515 Y67.7469 
G01 X3.3731 Y67.8685 
G01 X3.4741 Y68.0076 
G01 X3.5522 Y68.1607 
G01 X3.6053 Y68.3242 
G01 X3.6322 Y68.4940 
G00 Z3.0000 
G00 X3.6322 Y65.9540 
G01 Z-0.0800 F254.00 
G01 X3.6322 Y66.1260 F300.00 
G01 X3.6053 Y66.2958 
G01 X3.5522 Y66.4593 
G01 X3.4741 Y66.6124 
G01 X3.3731 Y66.7515 
G01 X3.2515 Y66.8731 
G01 X3.1124 Y66.9741 
G01 X2.9593 Y67.0522 
G01 X2.7958 Y67.1053 
G01 X2.6260 Y67.1322 
G01 X2.4540 Y67.1322 
G01 X2.2842 Y67.1053 
G01 X2.1207 Y67.0522 
G01 X1.9676 Y66.9741 
G01 X1.8285 Y66.8731 
G01 X1.7069 Y66.7515 
G01 X1.6059 Y66.6124 
G01 X1.5278 Y66.4593 
G01 X1.4747 Y66.2958 
G01 X1.4478 Y66.1260 
G01 X1.4478 Y65.9540 
G01 X1.4747 Y65.7842 
G01 X1.5278 Y65.6207 
G01 X1.6059 Y65.4676 
G01 X1.7069 Y65.3285 
G01 X1.8285 Y65.2069 
G01 X1.9676 Y65.1059 
G01 X2.1207 Y65.0278 
G01 X2.2842 Y64.9747 
G01 X2.4540 Y64.9478 
G01 X2.6260 Y64.9478 
G01 X2.7958 Y64.9747 
G01 X2.9593 Y65.0278 
G01 X3.1124 Y65.1059 
G01 X3.2515 Y65.2069 
G01 X3.3731 Y65.3285 
G01 X3.4741 Y65.4676 
G01 X3.5522 Y65.6207 
G01 X3.6053 Y65.7842 
G01 X3.6322 Y65.9540 
G00 Z3.0000 
G00 X3.6322 Y63.4140 
G01 Z-0.0800 F254.00 
G01 X3.6322 Y63.5860 F300.00 
G01 X3.6053 Y63.7558 
G01 X3.5522 Y63.9193 
G01 X3.4741 Y64.0724 
G01 X3.3731 Y64.2115 
G01 X3.2515 Y64.3331 
G01 X3.1124 Y64.4341 
G01 X2.9593 Y64.5122 
G01 X2.7958 Y64.5653 
G01 X2.6260 Y64.5922 
G01 X2.4540 Y64.5922 
G01 X2.2842 Y64.5653 
G01 X2.1207 Y64.5122 
G01 X1.9676 Y64.4341 
G01 X1.8285 Y64.3331 
G01 X1.7069 Y64.2115 
G01 X1.6059 Y64.0724 
G01 X1.5278 Y63.9193 
G01 X1.4747 Y63.7558 
G01 X1.4478 Y63.5860 
G01 X1.4478 Y63.4140 
G01 X1.4747 Y63.2442 
G01 X1.5278 Y63.0807 
G01 X1.6059 Y62.9276 
G01 X1.7069 Y62.7885 
G01 X1.8285 Y62.6669 
G01 X1.9676 Y62.5659 
G01 X2.1207 Y62.4878 
G01 X2.2842 Y62.4347 
G01 X2.4540 Y62.4078 
G01 X2.6260 Y62.4078 
G01 X2.7958 Y62.4347 
G01 X2.9593 Y62.4878 
G01 X3.1124 Y62.5659 
G01 X3.2515 Y62.6669 
G01 X3.3731 Y62.7885 
G01 X3.4741 Y62.9276 
G01 X3.5522 Y63.0807 
G01 X3.6053 Y63.2442 
G01 X3.6322 Y63.4140 
G00 Z3.0000 
G00 X3.6322 Y60.8740 
G01 Z-0.0800 F254.00 
G01 X3.6322 Y61.0460 F300.00 
G01 X3.6053 Y61.2158 
G01 X3.5522 Y61.3793 
G01 X3.4741 Y61.5324 
G01 X3.3731 Y61.6715 
G01 X3.2515 Y61.7931 
G01 X3.1124 Y61.8941 
G01 X2.9593 Y61.9722 
G01 X2.7958 Y62.0253 
G01 X2.6260 Y62.0522 
G01 X2.4540 Y62.0522 
G01 X2.2842 Y62.0253 
G01 X2.1207 Y61.9722 
G01 X1.9676 Y61.8941 
G01 X1.8285 Y61.7931 
G01 X1.7069 Y61.6715 
G01 X1.6059 Y61.5324 
G01 X1.5278 Y61.3793 
G01 X1.4747 Y61.2158 
G01 X1.4478 Y61.0460 
G01 X1.4478 Y60.8740 
G01 X1.4747 Y60.7042 
G01 X1.5278 Y60.5407 
G01 X1.6059 Y60.3876 
G01 X1.7069 Y60.2485 
G01 X1.8285 Y60.1269 
G01 X1.9676 Y60.0259 
G01 X2.1207 Y59.9478 
G01 X2.2842 Y59.8947 
G01 X2.4540 Y59.8678 
G01 X2.6260 Y59.8678 
G01 X2.7958 Y59.8947 
G01 X2.9593 Y59.9478 
G01 X3.1124 Y60.0259 
G01 X3.2515 Y60.1269 
G01 X3.3731 Y60.2485 
G01 X3.4741 Y60.3876 
G01 X3.5522 Y60.5407 
G01 X3.6053 Y60.7042 
G01 X3.6322 Y60.8740 
G00 Z3.0000 
G00 X3.6322 Y58.3340 
G01 Z-0.0800 F254.00 
G01 X3.6322 Y58.5060 F300.00 
G01 X3.6053 Y58.6758 
G01 X3.5522 Y58.8393 
G01 X3.4741 Y58.9924 
G01 X3.3731 Y59.1315 
G01 X3.2515 Y59.2531 
G01 X3.1124 Y59.3541 
G01 X2.9593 Y59.4322 
G01 X2.7958 Y59.4853 
G01 X2.6260 Y59.5122 
G01 X2.4540 Y59.5122 
G01 X2.2842 Y59.4853 
G01 X2.1207 Y59.4322 
G01 X1.9676 Y59.3541 
G01 X1.8285 Y59.2531 
G01 X1.7069 Y59.1315 
G01 X1.6059 Y58.9924 
G01 X1.5278 Y58.8393 
G01 X1.4747 Y58.6758 
G01 X1.4478 Y58.5060 
G01 X1.4478 Y58.3340 
G01 X1.4747 Y58.1642 
G01 X1.5278 Y58.0007 
G01 X1.6059 Y57.8476 
G01 X1.7069 Y57.7085 
G01 X1.8285 Y57.5869 
G01 X1.9676 Y57.4859 
G01 X2.1207 Y57.4078 
G01 X2.2842 Y57.3547 
G01 X2.4540 Y57.3278 
G01 X2.6260 Y57.3278 
G01 X2.7958 Y57.3547 
G01 X2.9593 Y57.4078 
G01 X3.1124 Y57.4859 
G01 X3.2515 Y57.5869 
G01 X3.3731 Y57.7085 
G01 X3.4741 Y57.8476 
G01 X3.5522 Y58.0007 
G01 X3.6053 Y58.1642 
G01 X3.6322 Y58.3340 
G00 Z3.0000 
G00 X3.6322 Y55.7940 
G01 Z-0.0800 F254.00 
G01 X3.6322 Y55.9660 F300.00 
G01 X3.6053 Y56.1358 
G01 X3.5522 Y56.2993 
G01 X3.4741 Y56.4524 
G01 X3.3731 Y56.5915 
G01 X3.2515 Y56.7131 
G01 X3.1124 Y56.8141 
G01 X2.9593 Y56.8922 
G01 X2.7958 Y56.9453 
G01 X2.6260 Y56.9722 
G01 X2.4540 Y56.9722 
G01 X2.2842 Y56.9453 
G01 X2.1207 Y56.8922 
G01 X1.9676 Y56.8141 
G01 X1.8285 Y56.7131 
G01 X1.7069 Y56.5915 
G01 X1.6059 Y56.4524 
G01 X1.5278 Y56.2993 
G01 X1.4747 Y56.1358 
G01 X1.4478 Y55.9660 
G01 X1.4478 Y55.7940 
G01 X1.4747 Y55.6242 
G01 X1.5278 Y55.4607 
G01 X1.6059 Y55.3076 
G01 X1.7069 Y55.1685 
G01 X1.8285 Y55.0469 
G01 X1.9676 Y54.9459 
G01 X2.1207 Y54.8678 
G01 X2.2842 Y54.8147 
G01 X2.4540 Y54.7878 
G01 X2.6260 Y54.7878 
G01 X2.7958 Y54.8147 
G01 X2.9593 Y54.8678 
G01 X3.1124 Y54.9459 
G01 X3.2515 Y55.0469 
G01 X3.3731 Y55.1685 
G01 X3.4741 Y55.3076 
G01 X3.5522 Y55.4607 
G01 X3.6053 Y55.6242 
G01 X3.6322 Y55.7940 
G00 Z3.0000 
G00 X3.6322 Y53.2540 
G01 Z-0.0800 F254.00 
G01 X3.6322 Y53.4260 F300.00 
G01 X3.6053 Y53.5958 
G01 X3.5522 Y53.7593 
G01 X3.4741 Y53.9124 
G01 X3.3731 Y54.0515 
G01 X3.2515 Y54.1731 
G01 X3.1124 Y54.2741 
G01 X2.9593 Y54.3522 
G01 X2.7958 Y54.4053 
G01 X2.6260 Y54.4322 
G01 X2.4540 Y54.4322 
G01 X2.2842 Y54.4053 
G01 X2.1207 Y54.3522 
G01 X1.9676 Y54.2741 
G01 X1.8285 Y54.1731 
G01 X1.7069 Y54.0515 
G01 X1.6059 Y53.9124 
G01 X1.5278 Y53.7593 
G01 X1.4747 Y53.5958 
G01 X1.4478 Y53.4260 
G01 X1.4478 Y53.2540 
G01 X1.4747 Y53.0842 
G01 X1.5278 Y52.9207 
G01 X1.6059 Y52.7676 
G01 X1.7069 Y52.6285 
G01 X1.8285 Y52.5069 
G01 X1.9676 Y52.4059 
G01 X2.1207 Y52.3278 
G01 X2.2842 Y52.2747 
G01 X2.4540 Y52.2478 
G01 X2.6260 Y52.2478 
G01 X2.7958 Y52.2747 
G01 X2.9593 Y52.3278 
G01 X3.1124 Y52.4059 
G01 X3.2515 Y52.5069 
G01 X3.3731 Y52.6285 
G01 X3.4741 Y52.7676 
G01 X3.5522 Y52.9207 
G01 X3.6053 Y53.0842 
G01 X3.6322 Y53.2540 
G00 Z3.0000 
G00 X3.6322 Y49.4440 
G01 Z-0.0800 F254.00 
G01 X3.6322 Y49.6160 F300.00 
G01 X3.6053 Y49.7858 
G01 X3.5522 Y49.9493 
G01 X3.4741 Y50.1024 
G01 X3.3731 Y50.2415 
G01 X3.2515 Y50.3631 
G01 X3.1124 Y50.4641 
G01 X2.9593 Y50.5422 
G01 X2.7958 Y50.5953 
G01 X2.6260 Y50.6222 
G01 X2.4540 Y50.6222 
G01 X2.2842 Y50.5953 
G01 X2.1207 Y50.5422 
G01 X1.9676 Y50.4641 
G01 X1.8285 Y50.3631 
G01 X1.7069 Y50.2415 
G01 X1.6059 Y50.1024 
G01 X1.5278 Y49.9493 
G01 X1.4747 Y49.7858 
G01 X1.4478 Y49.6160 
G01 X1.4478 Y49.4440 
G01 X1.4747 Y49.2742 
G01 X1.5278 Y49.1107 
G01 X1.6059 Y48.9576 
G01 X1.7069 Y48.8185 
G01 X1.8285 Y48.6969 
G01 X1.9676 Y48.5959 
G01 X2.1207 Y48.5178 
G01 X2.2842 Y48.4647 
G01 X2.4540 Y48.4378 
G01 X2.6260 Y48.4378 
G01 X2.7958 Y48.4647 
G01 X2.9593 Y48.5178 
G01 X3.1124 Y48.5959 
G01 X3.2515 Y48.6969 
G01 X3.3731 Y48.8185 
G01 X3.4741 Y48.9576 
G01 X3.5522 Y49.1107 
G01 X3.6053 Y49.2742 
G01 X3.6322 Y49.4440 
G00 Z3.0000 
G00 X3.6322 Y46.9040 
G01 Z-0.0800 F254.00 
G01 X3.6322 Y47.0760 F300.00 
G01 X3.6053 Y47.2458 
G01 X3.5522 Y47.4093 
G01 X3.4741 Y47.5624 
G01 X3.3731 Y47.7015 
G01 X3.2515 Y47.8231 
G01 X3.1124 Y47.9241 
G01 X2.9593 Y48.0022 
G01 X2.7958 Y48.0553 
G01 X2.6260 Y48.0822 
G01 X2.4540 Y48.0822 
G01 X2.2842 Y48.0553 
G01 X2.1207 Y48.0022 
G01 X1.9676 Y47.9241 
G01 X1.8285 Y47.8231 
G01 X1.7069 Y47.7015 
G01 X1.6059 Y47.5624 
G01 X1.5278 Y47.4093 
G01 X1.4747 Y47.2458 
G01 X1.4478 Y47.0760 
G01 X1.4478 Y46.9040 
G01 X1.4747 Y46.7342 
G01 X1.5278 Y46.5707 
G01 X1.6059 Y46.4176 
G01 X1.7069 Y46.2785 
G01 X1.8285 Y46.1569 
G01 X1.9676 Y46.0559 
G01 X2.1207 Y45.9778 
G01 X2.2842 Y45.9247 
G01 X2.4540 Y45.8978 
G01 X2.6260 Y45.8978 
G01 X2.7958 Y45.9247 
G01 X2.9593 Y45.9778 
G01 X3.1124 Y46.0559 
G01 X3.2515 Y46.1569 
G01 X3.3731 Y46.2785 
G01 X3.4741 Y46.4176 
G01 X3.5522 Y46.5707 
G01 X3.6053 Y46.7342 
G01 X3.6322 Y46.9040 
G00 Z3.0000 
G00 X3.6322 Y44.3640 
G01 Z-0.0800 F254.00 
G01 X3.6322 Y44.5360 F300.00 
G01 X3.6053 Y44.7058 
G01 X3.5522 Y44.8693 
G01 X3.4741 Y45.0224 
G01 X3.3731 Y45.1615 
G01 X3.2515 Y45.2831 
G01 X3.1124 Y45.3841 
G01 X2.9593 Y45.4622 
G01 X2.7958 Y45.5153 
G01 X2.6260 Y45.5422 
G01 X2.4540 Y45.5422 
G01 X2.2842 Y45.5153 
G01 X2.1207 Y45.4622 
G01 X1.9676 Y45.3841 
G01 X1.8285 Y45.2831 
G01 X1.7069 Y45.1615 
G01 X1.6059 Y45.0224 
G01 X1.5278 Y44.8693 
G01 X1.4747 Y44.7058 
G01 X1.4478 Y44.5360 
G01 X1.4478 Y44.3640 
G01 X1.4747 Y44.1942 
G01 X1.5278 Y44.0307 
G01 X1.6059 Y43.8776 
G01 X1.7069 Y43.7385 
G01 X1.8285 Y43.6169 
G01 X1.9676 Y43.5159 
G01 X2.1207 Y43.4378 
G01 X2.2842 Y43.3847 
G01 X2.4540 Y43.3578 
G01 X2.6260 Y43.3578 
G01 X2.7958 Y43.3847 
G01 X2.9593 Y43.4378 
G01 X3.1124 Y43.5159 
G01 X3.2515 Y43.6169 
G01 X3.3731 Y43.7385 
G01 X3.4741 Y43.8776 
G01 X3.5522 Y44.0307 
G01 X3.6053 Y44.1942 
G01 X3.6322 Y44.3640 
G00 Z3.0000 
G00 X3.6322 Y41.8240 
G01 Z-0.0800 F254.00 
G01 X3.6322 Y41.9960 F300.00 
G01 X3.6053 Y42.1658 
G01 X3.5522 Y42.3293 
G01 X3.4741 Y42.4824 
G01 X3.3731 Y42.6215 
G01 X3.2515 Y42.7431 
G01 X3.1124 Y42.8441 
G01 X2.9593 Y42.9222 
G01 X2.7958 Y42.9753 
G01 X2.6260 Y43.0022 
G01 X2.4540 Y43.0022 
G01 X2.2842 Y42.9753 
G01 X2.1207 Y42.9222 
G01 X1.9676 Y42.8441 
G01 X1.8285 Y42.7431 
G01 X1.7069 Y42.6215 
G01 X1.6059 Y42.4824 
G01 X1.5278 Y42.3293 
G01 X1.4747 Y42.1658 
G01 X1.4478 Y41.9960 
G01 X1.4478 Y41.8240 
G01 X1.4747 Y41.6542 
G01 X1.5278 Y41.4907 
G01 X1.6059 Y41.3376 
G01 X1.7069 Y41.1985 
G01 X1.8285 Y41.0769 
G01 X1.9676 Y40.9759 
G01 X2.1207 Y40.8978 
G01 X2.2842 Y40.8447 
G01 X2.4540 Y40.8178 
G01 X2.6260 Y40.8178 
G01 X2.7958 Y40.8447 
G01 X2.9593 Y40.8978 
G01 X3.1124 Y40.9759 
G01 X3.2515 Y41.0769 
G01 X3.3731 Y41.1985 
G01 X3.4741 Y41.3376 
G01 X3.5522 Y41.4907 
G01 X3.6053 Y41.6542 
G01 X3.6322 Y41.8240 
G00 Z3.0000 
G00 X3.6322 Y39.2840 
G01 Z-0.0800 F254.00 
G01 X3.6322 Y39.4560 F300.00 
G01 X3.6053 Y39.6258 
G01 X3.5522 Y39.7893 
G01 X3.4741 Y39.9424 
G01 X3.3731 Y40.0815 
G01 X3.2515 Y40.2031 
G01 X3.1124 Y40.3041 
G01 X2.9593 Y40.3822 
G01 X2.7958 Y40.4353 
G01 X2.6260 Y40.4622 
G01 X2.4540 Y40.4622 
G01 X2.2842 Y40.4353 
G01 X2.1207 Y40.3822 
G01 X1.9676 Y40.3041 
G01 X1.8285 Y40.2031 
G01 X1.7069 Y40.0815 
G01 X1.6059 Y39.9424 
G01 X1.5278 Y39.7893 
G01 X1.4747 Y39.6258 
G01 X1.4478 Y39.4560 
G01 X1.4478 Y39.2840 
G01 X1.4747 Y39.1142 
G01 X1.5278 Y38.9507 
G01 X1.6059 Y38.7976 
G01 X1.7069 Y38.6585 
G01 X1.8285 Y38.5369 
G01 X1.9676 Y38.4359 
G01 X2.1207 Y38.3578 
G01 X2.2842 Y38.3047 
G01 X2.4540 Y38.2778 
G01 X2.6260 Y38.2778 
G01 X2.7958 Y38.3047 
G01 X2.9593 Y38.3578 
G01 X3.1124 Y38.4359 
G01 X3.2515 Y38.5369 
G01 X3.3731 Y38.6585 
G01 X3.4741 Y38.7976 
G01 X3.5522 Y38.9507 
G01 X3.6053 Y39.1142 
G01 X3.6322 Y39.2840 
G00 Z3.0000 
G00 X3.6322 Y36.7440 
G01 Z-0.0800 F254.00 
G01 X3.6322 Y36.9160 F300.00 
G01 X3.6053 Y37.0858 
G01 X3.5522 Y37.2493 
G01 X3.4741 Y37.4024 
G01 X3.3731 Y37.5415 
G01 X3.2515 Y37.6631 
G01 X3.1124 Y37.7641 
G01 X2.9593 Y37.8422 
G01 X2.7958 Y37.8953 
G01 X2.6260 Y37.9222 
G01 X2.4540 Y37.9222 
G01 X2.2842 Y37.8953 
G01 X2.1207 Y37.8422 
G01 X1.9676 Y37.7641 
G01 X1.8285 Y37.6631 
G01 X1.7069 Y37.5415 
G01 X1.6059 Y37.4024 
G01 X1.5278 Y37.2493 
G01 X1.4747 Y37.0858 
G01 X1.4478 Y36.9160 
G01 X1.4478 Y36.7440 
G01 X1.4747 Y36.5742 
G01 X1.5278 Y36.4107 
G01 X1.6059 Y36.2576 
G01 X1.7069 Y36.1185 
G01 X1.8285 Y35.9969 
G01 X1.9676 Y35.8959 
G01 X2.1207 Y35.8178 
G01 X2.2842 Y35.7647 
G01 X2.4540 Y35.7378 
G01 X2.6260 Y35.7378 
G01 X2.7958 Y35.7647 
G01 X2.9593 Y35.8178 
G01 X3.1124 Y35.8959 
G01 X3.2515 Y35.9969 
G01 X3.3731 Y36.1185 
G01 X3.4741 Y36.2576 
G01 X3.5522 Y36.4107 
G01 X3.6053 Y36.5742 
G01 X3.6322 Y36.7440 
G00 Z3.0000 
G00 X3.6322 Y34.2040 
G01 Z-0.0800 F254.00 
G01 X3.6322 Y34.3760 F300.00 
G01 X3.6053 Y34.5458 
G01 X3.5522 Y34.7093 
G01 X3.4741 Y34.8624 
G01 X3.3731 Y35.0015 
G01 X3.2515 Y35.1231 
G01 X3.1124 Y35.2241 
G01 X2.9593 Y35.3022 
G01 X2.7958 Y35.3553 
G01 X2.6260 Y35.3822 
G01 X2.4540 Y35.3822 
G01 X2.2842 Y35.3553 
G01 X2.1207 Y35.3022 
G01 X1.9676 Y35.2241 
G01 X1.8285 Y35.1231 
G01 X1.7069 Y35.0015 
G01 X1.6059 Y34.8624 
G01 X1.5278 Y34.7093 
G01 X1.4747 Y34.5458 
G01 X1.4478 Y34.3760 
G01 X1.4478 Y34.2040 
G01 X1.4747 Y34.0342 
G01 X1.5278 Y33.8707 
G01 X1.6059 Y33.7176 
G01 X1.7069 Y33.5785 
G01 X1.8285 Y33.4569 
G01 X1.9676 Y33.3559 
G01 X2.1207 Y33.2778 
G01 X2.2842 Y33.2247 
G01 X2.4540 Y33.1978 
G01 X2.6260 Y33.1978 
G01 X2.7958 Y33.2247 
G01 X2.9593 Y33.2778 
G01 X3.1124 Y33.3559 
G01 X3.2515 Y33.4569 
G01 X3.3731 Y33.5785 
G01 X3.4741 Y33.7176 
G01 X3.5522 Y33.8707 
G01 X3.6053 Y34.0342 
G01 X3.6322 Y34.2040 
G00 Z3.0000 
G00 X3.6322 Y31.6640 
G01 Z-0.0800 F254.00 
G01 X3.6322 Y31.8360 F300.00 
G01 X3.6053 Y32.0058 
G01 X3.5522 Y32.1693 
G01 X3.4741 Y32.3224 
G01 X3.3731 Y32.4615 
G01 X3.2515 Y32.5831 
G01 X3.1124 Y32.6841 
G01 X2.9593 Y32.7622 
G01 X2.7958 Y32.8153 
G01 X2.6260 Y32.8422 
G01 X2.4540 Y32.8422 
G01 X2.2842 Y32.8153 
G01 X2.1207 Y32.7622 
G01 X1.9676 Y32.6841 
G01 X1.8285 Y32.5831 
G01 X1.7069 Y32.4615 
G01 X1.6059 Y32.3224 
G01 X1.5278 Y32.1693 
G01 X1.4747 Y32.0058 
G01 X1.4478 Y31.8360 
G01 X1.4478 Y31.6640 
G01 X1.4747 Y31.4942 
G01 X1.5278 Y31.3307 
G01 X1.6059 Y31.1776 
G01 X1.7069 Y31.0385 
G01 X1.8285 Y30.9169 
G01 X1.9676 Y30.8159 
G01 X2.1207 Y30.7378 
G01 X2.2842 Y30.6847 
G01 X2.4540 Y30.6578 
G01 X2.6260 Y30.6578 
G01 X2.7958 Y30.6847 
G01 X2.9593 Y30.7378 
G01 X3.1124 Y30.8159 
G01 X3.2515 Y30.9169 
G01 X3.3731 Y31.0385 
G01 X3.4741 Y31.1776 
G01 X3.5522 Y31.3307 
G01 X3.6053 Y31.4942 
G01 X3.6322 Y31.6640 
G00 Z3.0000 
G00 X3.6322 Y29.1240 
G01 Z-0.0800 F254.00 
G01 X3.6322 Y29.2960 F300.00 
G01 X3.6053 Y29.4658 
G01 X3.5522 Y29.6293 
G01 X3.4741 Y29.7824 
G01 X3.3731 Y29.9215 
G01 X3.2515 Y30.0431 
G01 X3.1124 Y30.1441 
G01 X2.9593 Y30.2222 
G01 X2.7958 Y30.2753 
G01 X2.6260 Y30.3022 
G01 X2.4540 Y30.3022 
G01 X2.2842 Y30.2753 
G01 X2.1207 Y30.2222 
G01 X1.9676 Y30.1441 
G01 X1.8285 Y30.0431 
G01 X1.7069 Y29.9215 
G01 X1.6059 Y29.7824 
G01 X1.5278 Y29.6293 
G01 X1.4747 Y29.4658 
G01 X1.4478 Y29.2960 
G01 X1.4478 Y29.1240 
G01 X1.4747 Y28.9542 
G01 X1.5278 Y28.7907 
G01 X1.6059 Y28.6376 
G01 X1.7069 Y28.4985 
G01 X1.8285 Y28.3769 
G01 X1.9676 Y28.2759 
G01 X2.1207 Y28.1978 
G01 X2.2842 Y28.1447 
G01 X2.4540 Y28.1178 
G01 X2.6260 Y28.1178 
G01 X2.7958 Y28.1447 
G01 X2.9593 Y28.1978 
G01 X3.1124 Y28.2759 
G01 X3.2515 Y28.3769 
G01 X3.3731 Y28.4985 
G01 X3.4741 Y28.6376 
G01 X3.5522 Y28.7907 
G01 X3.6053 Y28.9542 
G01 X3.6322 Y29.1240 
G00 Z3.0000 
G00 X3.6322 Y26.5840 
G01 Z-0.0800 F254.00 
G01 X3.6322 Y26.7560 F300.00 
G01 X3.6053 Y26.9258 
G01 X3.5522 Y27.0893 
G01 X3.4741 Y27.2424 
G01 X3.3731 Y27.3815 
G01 X3.2515 Y27.5031 
G01 X3.1124 Y27.6041 
G01 X2.9593 Y27.6822 
G01 X2.7958 Y27.7353 
G01 X2.6260 Y27.7622 
G01 X2.4540 Y27.7622 
G01 X2.2842 Y27.7353 
G01 X2.1207 Y27.6822 
G01 X1.9676 Y27.6041 
G01 X1.8285 Y27.5031 
G01 X1.7069 Y27.3815 
G01 X1.6059 Y27.2424 
G01 X1.5278 Y27.0893 
G01 X1.4747 Y26.9258 
G01 X1.4478 Y26.7560 
G01 X1.4478 Y26.5840 
G01 X1.4747 Y26.4142 
G01 X1.5278 Y26.2507 
G01 X1.6059 Y26.0976 
G01 X1.7069 Y25.9585 
G01 X1.8285 Y25.8369 
G01 X1.9676 Y25.7359 
G01 X2.1207 Y25.6578 
G01 X2.2842 Y25.6047 
G01 X2.4540 Y25.5778 
G01 X2.6260 Y25.5778 
G01 X2.7958 Y25.6047 
G01 X2.9593 Y25.6578 
G01 X3.1124 Y25.7359 
G01 X3.2515 Y25.8369 
G01 X3.3731 Y25.9585 
G01 X3.4741 Y26.0976 
G01 X3.5522 Y26.2507 
G01 X3.6053 Y26.4142 
G01 X3.6322 Y26.5840 
G00 Z3.0000 
G00 X51.8922 Y38.0140 
G01 Z-0.0800 F254.00 
G01 X51.8922 Y38.1860 F300.00 
G01 X51.8653 Y38.3558 
G01 X51.8122 Y38.5193 
G01 X51.7341 Y38.6724 
G01 X51.6331 Y38.8115 
G01 X51.5115 Y38.9331 
G01 X51.3724 Y39.0341 
G01 X51.2193 Y39.1122 
G01 X51.0558 Y39.1653 
G01 X50.8860 Y39.1922 
G01 X50.7140 Y39.1922 
G01 X50.5442 Y39.1653 
G01 X50.3807 Y39.1122 
G01 X50.2276 Y39.0341 
G01 X50.0885 Y38.9331 
G01 X49.9669 Y38.8115 
G01 X49.8659 Y38.6724 
G01 X49.7878 Y38.5193 
G01 X49.7347 Y38.3558 
G01 X49.7078 Y38.1860 
G01 X49.7078 Y38.0140 
G01 X49.7347 Y37.8442 
G01 X49.7878 Y37.6807 
G01 X49.8659 Y37.5276 
G01 X49.9669 Y37.3885 
G01 X50.0885 Y37.2669 
G01 X50.2276 Y37.1659 
G01 X50.3807 Y37.0878 
G01 X50.5442 Y37.0347 
G01 X50.7140 Y37.0078 
G01 X50.8860 Y37.0078 
G01 X51.0558 Y37.0347 
G01 X51.2193 Y37.0878 
G01 X51.3724 Y37.1659 
G01 X51.5115 Y37.2669 
G01 X51.6331 Y37.3885 
G01 X51.7341 Y37.5276 
G01 X51.8122 Y37.6807 
G01 X51.8653 Y37.8442 
G01 X51.8922 Y38.0140 
G00 Z3.0000 
G00 X51.8922 Y35.4740 
G01 Z-0.0800 F254.00 
G01 X51.8922 Y35.6460 F300.00 
G01 X51.8653 Y35.8158 
G01 X51.8122 Y35.9793 
G01 X51.7341 Y36.1324 
G01 X51.6331 Y36.2715 
G01 X51.5115 Y36.3931 
G01 X51.3724 Y36.4941 
G01 X51.2193 Y36.5722 
G01 X51.0558 Y36.6253 
G01 X50.8860 Y36.6522 
G01 X50.7140 Y36.6522 
G01 X50.5442 Y36.6253 
G01 X50.3807 Y36.5722 
G01 X50.2276 Y36.4941 
G01 X50.0885 Y36.3931 
G01 X49.9669 Y36.2715 
G01 X49.8659 Y36.1324 
G01 X49.7878 Y35.9793 
G01 X49.7347 Y35.8158 
G01 X49.7078 Y35.6460 
G01 X49.7078 Y35.4740 
G01 X49.7347 Y35.3042 
G01 X49.7878 Y35.1407 
G01 X49.8659 Y34.9876 
G01 X49.9669 Y34.8485 
G01 X50.0885 Y34.7269 
G01 X50.2276 Y34.6259 
G01 X50.3807 Y34.5478 
G01 X50.5442 Y34.4947 
G01 X50.7140 Y34.4678 
G01 X50.8860 Y34.4678 
G01 X51.0558 Y34.4947 
G01 X51.2193 Y34.5478 
G01 X51.3724 Y34.6259 
G01 X51.5115 Y34.7269 
G01 X51.6331 Y34.8485 
G01 X51.7341 Y34.9876 
G01 X51.8122 Y35.1407 
G01 X51.8653 Y35.3042 
G01 X51.8922 Y35.4740 
G00 Z3.0000 
G00 X40.6856 Y30.8321 
G01 Z-0.0800 F254.00 
G01 X40.6856 Y29.1279 F300.00 
G01 X40.7207 Y28.9513 
G01 X40.7897 Y28.7849 
G01 X40.8897 Y28.6351 
G01 X41.0171 Y28.5077 
G01 X41.1669 Y28.4077 
G01 X41.3333 Y28.3387 
G01 X41.5099 Y28.3036 
G01 X41.6901 Y28.3036 
G01 X41.8667 Y28.3387 
G01 X42.0331 Y28.4077 
G01 X42.1829 Y28.5077 
G01 X42.3103 Y28.6351 
G01 X42.4103 Y28.7849 
G01 X42.4793 Y28.9513 
G01 X42.5144 Y29.1279 
G01 X42.5144 Y30.8321 
G01 X42.4793 Y31.0087 
G01 X42.4103 Y31.1751 
G01 X42.3103 Y31.3249 
G01 X42.1829 Y31.4523 
G01 X42.0331 Y31.5523 
G01 X41.8667 Y31.6213 
G01 X41.6901 Y31.6564 
G01 X41.5099 Y31.6564 
G01 X41.3333 Y31.6213 
G01 X41.1669 Y31.5523 
G01 X41.0171 Y31.4523 
G01 X40.8897 Y31.3249 
G01 X40.7897 Y31.1751 
G01 X40.7207 Y31.0087 
G01 X40.6856 Y30.8321 
G00 Z3.0000 
G00 X43.2256 Y30.8321 
G01 Z-0.0800 F254.00 
G01 X43.2256 Y29.1279 F300.00 
G01 X43.2607 Y28.9513 
G01 X43.3297 Y28.7849 
G01 X43.4297 Y28.6351 
G01 X43.5571 Y28.5077 
G01 X43.7069 Y28.4077 
G01 X43.8733 Y28.3387 
G01 X44.0499 Y28.3036 
G01 X44.2301 Y28.3036 
G01 X44.4067 Y28.3387 
G01 X44.5731 Y28.4077 
G01 X44.7229 Y28.5077 
G01 X44.8503 Y28.6351 
G01 X44.9503 Y28.7849 
G01 X45.0193 Y28.9513 
G01 X45.0544 Y29.1279 
G01 X45.0544 Y30.8321 
G01 X45.0193 Y31.0087 
G01 X44.9503 Y31.1751 
G01 X44.8503 Y31.3249 
G01 X44.7229 Y31.4523 
G01 X44.5731 Y31.5523 
G01 X44.4067 Y31.6213 
G01 X44.2301 Y31.6564 
G01 X44.0499 Y31.6564 
G01 X43.8733 Y31.6213 
G01 X43.7069 Y31.5523 
G01 X43.5571 Y31.4523 
G01 X43.4297 Y31.3249 
G01 X43.3297 Y31.1751 
G01 X43.2607 Y31.0087 
G01 X43.2256 Y30.8321 
G00 Z3.0000 
G00 X19.3344 Y28.7879 
G01 Z-0.0800 F254.00 
G01 X19.3344 Y30.4921 F300.00 
G01 X19.2993 Y30.6687 
G01 X19.2303 Y30.8351 
G01 X19.1303 Y30.9849 
G01 X19.0029 Y31.1123 
G01 X18.8531 Y31.2123 
G01 X18.6867 Y31.2813 
G01 X18.5101 Y31.3164 
G01 X18.3299 Y31.3164 
G01 X18.1533 Y31.2813 
G01 X17.9869 Y31.2123 
G01 X17.8371 Y31.1123 
G01 X17.7097 Y30.9849 
G01 X17.6097 Y30.8351 
G01 X17.5407 Y30.6687 
G01 X17.5056 Y30.4921 
G01 X17.5056 Y28.7879 
G01 X17.5407 Y28.6113 
G01 X17.6097 Y28.4449 
G01 X17.7097 Y28.2951 
G01 X17.8371 Y28.1677 
G01 X17.9869 Y28.0677 
G01 X18.1533 Y27.9987 
G01 X18.3299 Y27.9636 
G01 X18.5101 Y27.9636 
G01 X18.6867 Y27.9987 
G01 X18.8531 Y28.0677 
G01 X19.0029 Y28.1677 
G01 X19.1303 Y28.2951 
G01 X19.2303 Y28.4449 
G01 X19.2993 Y28.6113 
G01 X19.3344 Y28.7879 
G00 Z3.0000 
G00 X16.7944 Y28.7879 
G01 Z-0.0800 F254.00 
G01 X16.7944 Y30.4921 F300.00 
G01 X16.7593 Y30.6687 
G01 X16.6903 Y30.8351 
G01 X16.5903 Y30.9849 
G01 X16.4629 Y31.1123 
G01 X16.3131 Y31.2123 
G01 X16.1467 Y31.2813 
G01 X15.9701 Y31.3164 
G01 X15.7899 Y31.3164 
G01 X15.6133 Y31.2813 
G01 X15.4469 Y31.2123 
G01 X15.2971 Y31.1123 
G01 X15.1697 Y30.9849 
G01 X15.0697 Y30.8351 
G01 X15.0007 Y30.6687 
G01 X14.9656 Y30.4921 
G01 X14.9656 Y28.7879 
G01 X15.0007 Y28.6113 
G01 X15.0697 Y28.4449 
G01 X15.1697 Y28.2951 
G01 X15.2971 Y28.1677 
G01 X15.4469 Y28.0677 
G01 X15.6133 Y27.9987 
G01 X15.7899 Y27.9636 
G01 X15.9701 Y27.9636 
G01 X16.1467 Y27.9987 
G01 X16.3131 Y28.0677 
G01 X16.4629 Y28.1677 
G01 X16.5903 Y28.2951 
G01 X16.6903 Y28.4449 
G01 X16.7593 Y28.6113 
G01 X16.7944 Y28.7879 
G00 Z3.0000 
G00 X14.2544 Y28.7879 
G01 Z-0.0800 F254.00 
G01 X14.2544 Y30.4921 F300.00 
G01 X14.2193 Y30.6687 
G01 X14.1503 Y30.8351 
G01 X14.0503 Y30.9849 
G01 X13.9229 Y31.1123 
G01 X13.7731 Y31.2123 
G01 X13.6067 Y31.2813 
G01 X13.4301 Y31.3164 
G01 X13.2499 Y31.3164 
G01 X13.0733 Y31.2813 
G01 X12.9069 Y31.2123 
G01 X12.7571 Y31.1123 
G01 X12.6297 Y30.9849 
G01 X12.5297 Y30.8351 
G01 X12.4607 Y30.6687 
G01 X12.4256 Y30.4921 
G01 X12.4256 Y28.7879 
G01 X12.4607 Y28.6113 
G01 X12.5297 Y28.4449 
G01 X12.6297 Y28.2951 
G01 X12.7571 Y28.1677 
G01 X12.9069 Y28.0677 
G01 X13.0733 Y27.9987 
G01 X13.2499 Y27.9636 
G01 X13.4301 Y27.9636 
G01 X13.6067 Y27.9987 
G01 X13.7731 Y28.0677 
G01 X13.9229 Y28.1677 
G01 X14.0503 Y28.2951 
G01 X14.1503 Y28.4449 
G01 X14.2193 Y28.6113 
G01 X14.2544 Y28.7879 
G00 Z3.0000 
G00 X11.7144 Y28.7879 
G01 Z-0.0800 F254.00 
G01 X11.7144 Y30.4921 F300.00 
G01 X11.6793 Y30.6687 
G01 X11.6103 Y30.8351 
G01 X11.5103 Y30.9849 
G01 X11.3829 Y31.1123 
G01 X11.2331 Y31.2123 
G01 X11.0667 Y31.2813 
G01 X10.8901 Y31.3164 
G01 X10.7099 Y31.3164 
G01 X10.5333 Y31.2813 
G01 X10.3669 Y31.2123 
G01 X10.2171 Y31.1123 
G01 X10.0897 Y30.9849 
G01 X9.9897 Y30.8351 
G01 X9.9207 Y30.6687 
G01 X9.8856 Y30.4921 
G01 X9.8856 Y28.7879 
G01 X9.9207 Y28.6113 
G01 X9.9897 Y28.4449 
G01 X10.0897 Y28.2951 
G01 X10.2171 Y28.1677 
G01 X10.3669 Y28.0677 
G01 X10.5333 Y27.9987 
G01 X10.7099 Y27.9636 
G01 X10.8901 Y27.9636 
G01 X11.0667 Y27.9987 
G01 X11.2331 Y28.0677 
G01 X11.3829 Y28.1677 
G01 X11.5103 Y28.2951 
G01 X11.6103 Y28.4449 
G01 X11.6793 Y28.6113 
G01 X11.7144 Y28.7879 
G00 Z3.0000 
G00 X26.0356 Y30.8321 
G01 Z-0.0800 F254.00 
G01 X26.0356 Y29.1279 F300.00 
G01 X26.0707 Y28.9513 
G01 X26.1397 Y28.7849 
G01 X26.2397 Y28.6351 
G01 X26.3671 Y28.5077 
G01 X26.5169 Y28.4077 
G01 X26.6833 Y28.3387 
G01 X26.8599 Y28.3036 
G01 X27.0401 Y28.3036 
G01 X27.2167 Y28.3387 
G01 X27.3831 Y28.4077 
G01 X27.5329 Y28.5077 
G01 X27.6603 Y28.6351 
G01 X27.7603 Y28.7849 
G01 X27.8293 Y28.9513 
G01 X27.8644 Y29.1279 
G01 X27.8644 Y30.8321 
G01 X27.8293 Y31.0087 
G01 X27.7603 Y31.1751 
G01 X27.6603 Y31.3249 
G01 X27.5329 Y31.4523 
G01 X27.3831 Y31.5523 
G01 X27.2167 Y31.6213 
G01 X27.0401 Y31.6564 
G01 X26.8599 Y31.6564 
G01 X26.6833 Y31.6213 
G01 X26.5169 Y31.5523 
G01 X26.3671 Y31.4523 
G01 X26.2397 Y31.3249 
G01 X26.1397 Y31.1751 
G01 X26.0707 Y31.0087 
G01 X26.0356 Y30.8321 
G00 Z3.0000 
G00 X28.5756 Y30.8321 
G01 Z-0.0800 F254.00 
G01 X28.5756 Y29.1279 F300.00 
G01 X28.6107 Y28.9513 
G01 X28.6797 Y28.7849 
G01 X28.7797 Y28.6351 
G01 X28.9071 Y28.5077 
G01 X29.0569 Y28.4077 
G01 X29.2233 Y28.3387 
G01 X29.3999 Y28.3036 
G01 X29.5801 Y28.3036 
G01 X29.7567 Y28.3387 
G01 X29.9231 Y28.4077 
G01 X30.0729 Y28.5077 
G01 X30.2003 Y28.6351 
G01 X30.3003 Y28.7849 
G01 X30.3693 Y28.9513 
G01 X30.4044 Y29.1279 
G01 X30.4044 Y30.8321 
G01 X30.3693 Y31.0087 
G01 X30.3003 Y31.1751 
G01 X30.2003 Y31.3249 
G01 X30.0729 Y31.4523 
G01 X29.9231 Y31.5523 
G01 X29.7567 Y31.6213 
G01 X29.5801 Y31.6564 
G01 X29.3999 Y31.6564 
G01 X29.2233 Y31.6213 
G01 X29.0569 Y31.5523 
G01 X28.9071 Y31.4523 
G01 X28.7797 Y31.3249 
G01 X28.6797 Y31.1751 
G01 X28.6107 Y31.0087 
G01 X28.5756 Y30.8321 
G00 Z3.0000 
G00 X31.1156 Y30.8321 
G01 Z-0.0800 F254.00 
G01 X31.1156 Y29.1279 F300.00 
G01 X31.1507 Y28.9513 
G01 X31.2197 Y28.7849 
G01 X31.3197 Y28.6351 
G01 X31.4471 Y28.5077 
G01 X31.5969 Y28.4077 
G01 X31.7633 Y28.3387 
G01 X31.9399 Y28.3036 
G01 X32.1201 Y28.3036 
G01 X32.2967 Y28.3387 
G01 X32.4631 Y28.4077 
G01 X32.6129 Y28.5077 
G01 X32.7403 Y28.6351 
G01 X32.8403 Y28.7849 
G01 X32.9093 Y28.9513 
G01 X32.9444 Y29.1279 
G01 X32.9444 Y30.8321 
G01 X32.9093 Y31.0087 
G01 X32.8403 Y31.1751 
G01 X32.7403 Y31.3249 
G01 X32.6129 Y31.4523 
G01 X32.4631 Y31.5523 
G01 X32.2967 Y31.6213 
G01 X32.1201 Y31.6564 
G01 X31.9399 Y31.6564 
G01 X31.7633 Y31.6213 
G01 X31.5969 Y31.5523 
G01 X31.4471 Y31.4523 
G01 X31.3197 Y31.3249 
G01 X31.2197 Y31.1751 
G01 X31.1507 Y31.0087 
G01 X31.1156 Y30.8321 
G00 Z3.0000 
G00 X17.1944 Y54.7879 
G01 Z-0.0800 F254.00 
G01 X17.1944 Y56.4921 F300.00 
G01 X17.1593 Y56.6687 
G01 X17.0903 Y56.8351 
G01 X16.9903 Y56.9849 
G01 X16.8629 Y57.1123 
G01 X16.7131 Y57.2123 
G01 X16.5467 Y57.2813 
G01 X16.3701 Y57.3164 
G01 X16.1899 Y57.3164 
G01 X16.0133 Y57.2813 
G01 X15.8469 Y57.2123 
G01 X15.6971 Y57.1123 
G01 X15.5697 Y56.9849 
G01 X15.4697 Y56.8351 
G01 X15.4007 Y56.6687 
G01 X15.3656 Y56.4921 
G01 X15.3656 Y54.7879 
G01 X15.4007 Y54.6113 
G01 X15.4697 Y54.4449 
G01 X15.5697 Y54.2951 
G01 X15.6971 Y54.1677 
G01 X15.8469 Y54.0677 
G01 X16.0133 Y53.9987 
G01 X16.1899 Y53.9636 
G01 X16.3701 Y53.9636 
G01 X16.5467 Y53.9987 
G01 X16.7131 Y54.0677 
G01 X16.8629 Y54.1677 
G01 X16.9903 Y54.2951 
G01 X17.0903 Y54.4449 
G01 X17.1593 Y54.6113 
G01 X17.1944 Y54.7879 
G00 Z3.0000 
G00 X14.6544 Y54.7879 
G01 Z-0.0800 F254.00 
G01 X14.6544 Y56.4921 F300.00 
G01 X14.6193 Y56.6687 
G01 X14.5503 Y56.8351 
G01 X14.4503 Y56.9849 
G01 X14.3229 Y57.1123 
G01 X14.1731 Y57.2123 
G01 X14.0067 Y57.2813 
G01 X13.8301 Y57.3164 
G01 X13.6499 Y57.3164 
G01 X13.4733 Y57.2813 
G01 X13.3069 Y57.2123 
G01 X13.1571 Y57.1123 
G01 X13.0297 Y56.9849 
G01 X12.9297 Y56.8351 
G01 X12.8607 Y56.6687 
G01 X12.8256 Y56.4921 
G01 X12.8256 Y54.7879 
G01 X12.8607 Y54.6113 
G01 X12.9297 Y54.4449 
G01 X13.0297 Y54.2951 
G01 X13.1571 Y54.1677 
G01 X13.3069 Y54.0677 
G01 X13.4733 Y53.9987 
G01 X13.6499 Y53.9636 
G01 X13.8301 Y53.9636 
G01 X14.0067 Y53.9987 
G01 X14.1731 Y54.0677 
G01 X14.3229 Y54.1677 
G01 X14.4503 Y54.2951 
G01 X14.5503 Y54.4449 
G01 X14.6193 Y54.6113 
G01 X14.6544 Y54.7879 
G00 Z3.0000 
G00 X12.1144 Y54.7879 
G01 Z-0.0800 F254.00 
G01 X12.1144 Y56.4921 F300.00 
G01 X12.0793 Y56.6687 
G01 X12.0103 Y56.8351 
G01 X11.9103 Y56.9849 
G01 X11.7829 Y57.1123 
G01 X11.6331 Y57.2123 
G01 X11.4667 Y57.2813 
G01 X11.2901 Y57.3164 
G01 X11.1099 Y57.3164 
G01 X10.9333 Y57.2813 
G01 X10.7669 Y57.2123 
G01 X10.6171 Y57.1123 
G01 X10.4897 Y56.9849 
G01 X10.3897 Y56.8351 
G01 X10.3207 Y56.6687 
G01 X10.2856 Y56.4921 
G01 X10.2856 Y54.7879 
G01 X10.3207 Y54.6113 
G01 X10.3897 Y54.4449 
G01 X10.4897 Y54.2951 
G01 X10.6171 Y54.1677 
G01 X10.7669 Y54.0677 
G01 X10.9333 Y53.9987 
G01 X11.1099 Y53.9636 
G01 X11.2901 Y53.9636 
G01 X11.4667 Y53.9987 
G01 X11.6331 Y54.0677 
G01 X11.7829 Y54.1677 
G01 X11.9103 Y54.2951 
G01 X12.0103 Y54.4449 
G01 X12.0793 Y54.6113 
G01 X12.1144 Y54.7879 
G00 Z3.0000 
G00 X9.5744 Y54.7879 
G01 Z-0.0800 F254.00 
G01 X9.5744 Y56.4921 F300.00 
G01 X9.5393 Y56.6687 
G01 X9.4703 Y56.8351 
G01 X9.3703 Y56.9849 
G01 X9.2429 Y57.1123 
G01 X9.0931 Y57.2123 
G01 X8.9267 Y57.2813 
G01 X8.7501 Y57.3164 
G01 X8.5699 Y57.3164 
G01 X8.3933 Y57.2813 
G01 X8.2269 Y57.2123 
G01 X8.0771 Y57.1123 
G01 X7.9497 Y56.9849 
G01 X7.8497 Y56.8351 
G01 X7.7807 Y56.6687 
G01 X7.7456 Y56.4921 
G01 X7.7456 Y54.7879 
G01 X7.7807 Y54.6113 
G01 X7.8497 Y54.4449 
G01 X7.9497 Y54.2951 
G01 X8.0771 Y54.1677 
G01 X8.2269 Y54.0677 
G01 X8.3933 Y53.9987 
G01 X8.5699 Y53.9636 
G01 X8.7501 Y53.9636 
G01 X8.9267 Y53.9987 
G01 X9.0931 Y54.0677 
G01 X9.2429 Y54.1677 
G01 X9.3703 Y54.2951 
G01 X9.4703 Y54.4449 
G01 X9.5393 Y54.6113 
G01 X9.5744 Y54.7879 
G00 Z3.0000 
G00 X21.3879 Y36.8356 
G01 Z-0.0800 F254.00 
G01 X23.0921 Y36.8356 F300.00 
G01 X23.2687 Y36.8707 
G01 X23.4351 Y36.9397 
G01 X23.5849 Y37.0397 
G01 X23.7123 Y37.1671 
G01 X23.8123 Y37.3169 
G01 X23.8813 Y37.4833 
G01 X23.9164 Y37.6599 
G01 X23.9164 Y37.8401 
G01 X23.8813 Y38.0167 
G01 X23.8123 Y38.1831 
G01 X23.7123 Y38.3329 
G01 X23.5849 Y38.4603 
G01 X23.4351 Y38.5603 
G01 X23.2687 Y38.6293 
G01 X23.0921 Y38.6644 
G01 X21.3879 Y38.6644 
G01 X21.2113 Y38.6293 
G01 X21.0449 Y38.5603 
G01 X20.8951 Y38.4603 
G01 X20.7677 Y38.3329 
G01 X20.6677 Y38.1831 
G01 X20.5987 Y38.0167 
G01 X20.5636 Y37.8401 
G01 X20.5636 Y37.6599 
G01 X20.5987 Y37.4833 
G01 X20.6677 Y37.3169 
G01 X20.7677 Y37.1671 
G01 X20.8951 Y37.0397 
G01 X21.0449 Y36.9397 
G01 X21.2113 Y36.8707 
G01 X21.3879 Y36.8356 
G00 Z3.0000 
G00 X21.3879 Y39.3756 
G01 Z-0.0800 F254.00 
G01 X23.0921 Y39.3756 F300.00 
G01 X23.2687 Y39.4107 
G01 X23.4351 Y39.4797 
G01 X23.5849 Y39.5797 
G01 X23.7123 Y39.7071 
G01 X23.8123 Y39.8569 
G01 X23.8813 Y40.0233 
G01 X23.9164 Y40.1999 
G01 X23.9164 Y40.3801 
G01 X23.8813 Y40.5567 
G01 X23.8123 Y40.7231 
G01 X23.7123 Y40.8729 
G01 X23.5849 Y41.0003 
G01 X23.4351 Y41.1003 
G01 X23.2687 Y41.1693 
G01 X23.0921 Y41.2044 
G01 X21.3879 Y41.2044 
G01 X21.2113 Y41.1693 
G01 X21.0449 Y41.1003 
G01 X20.8951 Y41.0003 
G01 X20.7677 Y40.8729 
G01 X20.6677 Y40.7231 
G01 X20.5987 Y40.5567 
G01 X20.5636 Y40.3801 
G01 X20.5636 Y40.1999 
G01 X20.5987 Y40.0233 
G01 X20.6677 Y39.8569 
G01 X20.7677 Y39.7071 
G01 X20.8951 Y39.5797 
G01 X21.0449 Y39.4797 
G01 X21.2113 Y39.4107 
G01 X21.3879 Y39.3756 
G00 Z3.0000 
G00 X21.3879 Y41.9156 
G01 Z-0.0800 F254.00 
G01 X23.0921 Y41.9156 F300.00 
G01 X23.2687 Y41.9507 
G01 X23.4351 Y42.0197 
G01 X23.5849 Y42.1197 
G01 X23.7123 Y42.2471 
G01 X23.8123 Y42.3969 
G01 X23.8813 Y42.5633 
G01 X23.9164 Y42.7399 
G01 X23.9164 Y42.9201 
G01 X23.8813 Y43.0967 
G01 X23.8123 Y43.2631 
G01 X23.7123 Y43.4129 
G01 X23.5849 Y43.5403 
G01 X23.4351 Y43.6403 
G01 X23.2687 Y43.7093 
G01 X23.0921 Y43.7444 
G01 X21.3879 Y43.7444 
G01 X21.2113 Y43.7093 
G01 X21.0449 Y43.6403 
G01 X20.8951 Y43.5403 
G01 X20.7677 Y43.4129 
G01 X20.6677 Y43.2631 
G01 X20.5987 Y43.0967 
G01 X20.5636 Y42.9201 
G01 X20.5636 Y42.7399 
G01 X20.5987 Y42.5633 
G01 X20.6677 Y42.3969 
G01 X20.7677 Y42.2471 
G01 X20.8951 Y42.1197 
G01 X21.0449 Y42.0197 
G01 X21.2113 Y41.9507 
G01 X21.3879 Y41.9156 
G00 Z3.0000 
G00 X21.3879 Y44.4556 
G01 Z-0.0800 F254.00 
G01 X23.0921 Y44.4556 F300.00 
G01 X23.2687 Y44.4907 
G01 X23.4351 Y44.5597 
G01 X23.5849 Y44.6597 
G01 X23.7123 Y44.7871 
G01 X23.8123 Y44.9369 
G01 X23.8813 Y45.1033 
G01 X23.9164 Y45.2799 
G01 X23.9164 Y45.4601 
G01 X23.8813 Y45.6367 
G01 X23.8123 Y45.8031 
G01 X23.7123 Y45.9529 
G01 X23.5849 Y46.0803 
G01 X23.4351 Y46.1803 
G01 X23.2687 Y46.2493 
G01 X23.0921 Y46.2844 
G01 X21.3879 Y46.2844 
G01 X21.2113 Y46.2493 
G01 X21.0449 Y46.1803 
G01 X20.8951 Y46.0803 
G01 X20.7677 Y45.9529 
G01 X20.6677 Y45.8031 
G01 X20.5987 Y45.6367 
G01 X20.5636 Y45.4601 
G01 X20.5636 Y45.2799 
G01 X20.5987 Y45.1033 
G01 X20.6677 Y44.9369 
G01 X20.7677 Y44.7871 
G01 X20.8951 Y44.6597 
G01 X21.0449 Y44.5597 
G01 X21.2113 Y44.4907 
G01 X21.3879 Y44.4556 
G00 Z3.0000 
G00 X21.3879 Y46.9956 
G01 Z-0.0800 F254.00 
G01 X23.0921 Y46.9956 F300.00 
G01 X23.2687 Y47.0307 
G01 X23.4351 Y47.0997 
G01 X23.5849 Y47.1997 
G01 X23.7123 Y47.3271 
G01 X23.8123 Y47.4769 
G01 X23.8813 Y47.6433 
G01 X23.9164 Y47.8199 
G01 X23.9164 Y48.0001 
G01 X23.8813 Y48.1767 
G01 X23.8123 Y48.3431 
G01 X23.7123 Y48.4929 
G01 X23.5849 Y48.6203 
G01 X23.4351 Y48.7203 
G01 X23.2687 Y48.7893 
G01 X23.0921 Y48.8244 
G01 X21.3879 Y48.8244 
G01 X21.2113 Y48.7893 
G01 X21.0449 Y48.7203 
G01 X20.8951 Y48.6203 
G01 X20.7677 Y48.4929 
G01 X20.6677 Y48.3431 
G01 X20.5987 Y48.1767 
G01 X20.5636 Y48.0001 
G01 X20.5636 Y47.8199 
G01 X20.5987 Y47.6433 
G01 X20.6677 Y47.4769 
G01 X20.7677 Y47.3271 
G01 X20.8951 Y47.1997 
G01 X21.0449 Y47.0997 
G01 X21.2113 Y47.0307 
G01 X21.3879 Y46.9956 
G00 Z3.0000 
G00 X21.3879 Y52.0756 
G01 Z-0.0800 F254.00 
G01 X23.0921 Y52.0756 F300.00 
G01 X23.2687 Y52.1107 
G01 X23.4351 Y52.1797 
G01 X23.5849 Y52.2797 
G01 X23.7123 Y52.4071 
G01 X23.8123 Y52.5569 
G01 X23.8813 Y52.7233 
G01 X23.9164 Y52.8999 
G01 X23.9164 Y53.0801 
G01 X23.8813 Y53.2567 
G01 X23.8123 Y53.4231 
G01 X23.7123 Y53.5729 
G01 X23.5849 Y53.7003 
G01 X23.4351 Y53.8003 
G01 X23.2687 Y53.8693 
G01 X23.0921 Y53.9044 
G01 X21.3879 Y53.9044 
G01 X21.2113 Y53.8693 
G01 X21.0449 Y53.8003 
G01 X20.8951 Y53.7003 
G01 X20.7677 Y53.5729 
G01 X20.6677 Y53.4231 
G01 X20.5987 Y53.2567 
G01 X20.5636 Y53.0801 
G01 X20.5636 Y52.8999 
G01 X20.5987 Y52.7233 
G01 X20.6677 Y52.5569 
G01 X20.7677 Y52.4071 
G01 X20.8951 Y52.2797 
G01 X21.0449 Y52.1797 
G01 X21.2113 Y52.1107 
G01 X21.3879 Y52.0756 
G00 Z3.0000 
G00 X21.3879 Y49.5356 
G01 Z-0.0800 F254.00 
G01 X23.0921 Y49.5356 F300.00 
G01 X23.2687 Y49.5707 
G01 X23.4351 Y49.6397 
G01 X23.5849 Y49.7397 
G01 X23.7123 Y49.8671 
G01 X23.8123 Y50.0169 
G01 X23.8813 Y50.1833 
G01 X23.9164 Y50.3599 
G01 X23.9164 Y50.5401 
G01 X23.8813 Y50.7167 
G01 X23.8123 Y50.8831 
G01 X23.7123 Y51.0329 
G01 X23.5849 Y51.1603 
G01 X23.4351 Y51.2603 
G01 X23.2687 Y51.3293 
G01 X23.0921 Y51.3644 
G01 X21.3879 Y51.3644 
G01 X21.2113 Y51.3293 
G01 X21.0449 Y51.2603 
G01 X20.8951 Y51.1603 
G01 X20.7677 Y51.0329 
G01 X20.6677 Y50.8831 
G01 X20.5987 Y50.7167 
G01 X20.5636 Y50.5401 
G01 X20.5636 Y50.3599 
G01 X20.5987 Y50.1833 
G01 X20.6677 Y50.0169 
G01 X20.7677 Y49.8671 
G01 X20.8951 Y49.7397 
G01 X21.0449 Y49.6397 
G01 X21.2113 Y49.5707 
G01 X21.3879 Y49.5356 
G00 Z3.0000 
G00 X21.3879 Y69.8556 
G01 Z-0.0800 F254.00 
G01 X23.0921 Y69.8556 F300.00 
G01 X23.2687 Y69.8907 
G01 X23.4351 Y69.9597 
G01 X23.5849 Y70.0597 
G01 X23.7123 Y70.1871 
G01 X23.8123 Y70.3369 
G01 X23.8813 Y70.5033 
G01 X23.9164 Y70.6799 
G01 X23.9164 Y70.8601 
G01 X23.8813 Y71.0367 
G01 X23.8123 Y71.2031 
G01 X23.7123 Y71.3529 
G01 X23.5849 Y71.4803 
G01 X23.4351 Y71.5803 
G01 X23.2687 Y71.6493 
G01 X23.0921 Y71.6844 
G01 X21.3879 Y71.6844 
G01 X21.2113 Y71.6493 
G01 X21.0449 Y71.5803 
G01 X20.8951 Y71.4803 
G01 X20.7677 Y71.3529 
G01 X20.6677 Y71.2031 
G01 X20.5987 Y71.0367 
G01 X20.5636 Y70.8601 
G01 X20.5636 Y70.6799 
G01 X20.5987 Y70.5033 
G01 X20.6677 Y70.3369 
G01 X20.7677 Y70.1871 
G01 X20.8951 Y70.0597 
G01 X21.0449 Y69.9597 
G01 X21.2113 Y69.8907 
G01 X21.3879 Y69.8556 
G00 Z3.0000 
G00 X21.3879 Y54.6156 
G01 Z-0.0800 F254.00 
G01 X23.0921 Y54.6156 F300.00 
G01 X23.2687 Y54.6507 
G01 X23.4351 Y54.7197 
G01 X23.5849 Y54.8197 
G01 X23.7123 Y54.9471 
G01 X23.8123 Y55.0969 
G01 X23.8813 Y55.2633 
G01 X23.9164 Y55.4399 
G01 X23.9164 Y55.6201 
G01 X23.8813 Y55.7967 
G01 X23.8123 Y55.9631 
G01 X23.7123 Y56.1129 
G01 X23.5849 Y56.2403 
G01 X23.4351 Y56.3403 
G01 X23.2687 Y56.4093 
G01 X23.0921 Y56.4444 
G01 X21.3879 Y56.4444 
G01 X21.2113 Y56.4093 
G01 X21.0449 Y56.3403 
G01 X20.8951 Y56.2403 
G01 X20.7677 Y56.1129 
G01 X20.6677 Y55.9631 
G01 X20.5987 Y55.7967 
G01 X20.5636 Y55.6201 
G01 X20.5636 Y55.4399 
G01 X20.5987 Y55.2633 
G01 X20.6677 Y55.0969 
G01 X20.7677 Y54.9471 
G01 X20.8951 Y54.8197 
G01 X21.0449 Y54.7197 
G01 X21.2113 Y54.6507 
G01 X21.3879 Y54.6156 
G00 Z3.0000 
G00 X21.3879 Y57.1556 
G01 Z-0.0800 F254.00 
G01 X23.0921 Y57.1556 F300.00 
G01 X23.2687 Y57.1907 
G01 X23.4351 Y57.2597 
G01 X23.5849 Y57.3597 
G01 X23.7123 Y57.4871 
G01 X23.8123 Y57.6369 
G01 X23.8813 Y57.8033 
G01 X23.9164 Y57.9799 
G01 X23.9164 Y58.1601 
G01 X23.8813 Y58.3367 
G01 X23.8123 Y58.5031 
G01 X23.7123 Y58.6529 
G01 X23.5849 Y58.7803 
G01 X23.4351 Y58.8803 
G01 X23.2687 Y58.9493 
G01 X23.0921 Y58.9844 
G01 X21.3879 Y58.9844 
G01 X21.2113 Y58.9493 
G01 X21.0449 Y58.8803 
G01 X20.8951 Y58.7803 
G01 X20.7677 Y58.6529 
G01 X20.6677 Y58.5031 
G01 X20.5987 Y58.3367 
G01 X20.5636 Y58.1601 
G01 X20.5636 Y57.9799 
G01 X20.5987 Y57.8033 
G01 X20.6677 Y57.6369 
G01 X20.7677 Y57.4871 
G01 X20.8951 Y57.3597 
G01 X21.0449 Y57.2597 
G01 X21.2113 Y57.1907 
G01 X21.3879 Y57.1556 
G00 Z3.0000 
G00 X21.3879 Y59.6956 
G01 Z-0.0800 F254.00 
G01 X23.0921 Y59.6956 F300.00 
G01 X23.2687 Y59.7307 
G01 X23.4351 Y59.7997 
G01 X23.5849 Y59.8997 
G01 X23.7123 Y60.0271 
G01 X23.8123 Y60.1769 
G01 X23.8813 Y60.3433 
G01 X23.9164 Y60.5199 
G01 X23.9164 Y60.7001 
G01 X23.8813 Y60.8767 
G01 X23.8123 Y61.0431 
G01 X23.7123 Y61.1929 
G01 X23.5849 Y61.3203 
G01 X23.4351 Y61.4203 
G01 X23.2687 Y61.4893 
G01 X23.0921 Y61.5244 
G01 X21.3879 Y61.5244 
G01 X21.2113 Y61.4893 
G01 X21.0449 Y61.4203 
G01 X20.8951 Y61.3203 
G01 X20.7677 Y61.1929 
G01 X20.6677 Y61.0431 
G01 X20.5987 Y60.8767 
G01 X20.5636 Y60.7001 
G01 X20.5636 Y60.5199 
G01 X20.5987 Y60.3433 
G01 X20.6677 Y60.1769 
G01 X20.7677 Y60.0271 
G01 X20.8951 Y59.8997 
G01 X21.0449 Y59.7997 
G01 X21.2113 Y59.7307 
G01 X21.3879 Y59.6956 
G00 Z3.0000 
G00 X21.3879 Y62.2356 
G01 Z-0.0800 F254.00 
G01 X23.0921 Y62.2356 F300.00 
G01 X23.2687 Y62.2707 
G01 X23.4351 Y62.3397 
G01 X23.5849 Y62.4397 
G01 X23.7123 Y62.5671 
G01 X23.8123 Y62.7169 
G01 X23.8813 Y62.8833 
G01 X23.9164 Y63.0599 
G01 X23.9164 Y63.2401 
G01 X23.8813 Y63.4167 
G01 X23.8123 Y63.5831 
G01 X23.7123 Y63.7329 
G01 X23.5849 Y63.8603 
G01 X23.4351 Y63.9603 
G01 X23.2687 Y64.0293 
G01 X23.0921 Y64.0644 
G01 X21.3879 Y64.0644 
G01 X21.2113 Y64.0293 
G01 X21.0449 Y63.9603 
G01 X20.8951 Y63.8603 
G01 X20.7677 Y63.7329 
G01 X20.6677 Y63.5831 
G01 X20.5987 Y63.4167 
G01 X20.5636 Y63.2401 
G01 X20.5636 Y63.0599 
G01 X20.5987 Y62.8833 
G01 X20.6677 Y62.7169 
G01 X20.7677 Y62.5671 
G01 X20.8951 Y62.4397 
G01 X21.0449 Y62.3397 
G01 X21.2113 Y62.2707 
G01 X21.3879 Y62.2356 
G00 Z3.0000 
G00 X21.3879 Y64.7756 
G01 Z-0.0800 F254.00 
G01 X23.0921 Y64.7756 F300.00 
G01 X23.2687 Y64.8107 
G01 X23.4351 Y64.8797 
G01 X23.5849 Y64.9797 
G01 X23.7123 Y65.1071 
G01 X23.8123 Y65.2569 
G01 X23.8813 Y65.4233 
G01 X23.9164 Y65.5999 
G01 X23.9164 Y65.7801 
G01 X23.8813 Y65.9567 
G01 X23.8123 Y66.1231 
G01 X23.7123 Y66.2729 
G01 X23.5849 Y66.4003 
G01 X23.4351 Y66.5003 
G01 X23.2687 Y66.5693 
G01 X23.0921 Y66.6044 
G01 X21.3879 Y66.6044 
G01 X21.2113 Y66.5693 
G01 X21.0449 Y66.5003 
G01 X20.8951 Y66.4003 
G01 X20.7677 Y66.2729 
G01 X20.6677 Y66.1231 
G01 X20.5987 Y65.9567 
G01 X20.5636 Y65.7801 
G01 X20.5636 Y65.5999 
G01 X20.5987 Y65.4233 
G01 X20.6677 Y65.2569 
G01 X20.7677 Y65.1071 
G01 X20.8951 Y64.9797 
G01 X21.0449 Y64.8797 
G01 X21.2113 Y64.8107 
G01 X21.3879 Y64.7756 
G00 Z3.0000 
G00 X21.3879 Y67.3156 
G01 Z-0.0800 F254.00 
G01 X23.0921 Y67.3156 F300.00 
G01 X23.2687 Y67.3507 
G01 X23.4351 Y67.4197 
G01 X23.5849 Y67.5197 
G01 X23.7123 Y67.6471 
G01 X23.8123 Y67.7969 
G01 X23.8813 Y67.9633 
G01 X23.9164 Y68.1399 
G01 X23.9164 Y68.3201 
G01 X23.8813 Y68.4967 
G01 X23.8123 Y68.6631 
G01 X23.7123 Y68.8129 
G01 X23.5849 Y68.9403 
G01 X23.4351 Y69.0403 
G01 X23.2687 Y69.1093 
G01 X23.0921 Y69.1444 
G01 X21.3879 Y69.1444 
G01 X21.2113 Y69.1093 
G01 X21.0449 Y69.0403 
G01 X20.8951 Y68.9403 
G01 X20.7677 Y68.8129 
G01 X20.6677 Y68.6631 
G01 X20.5987 Y68.4967 
G01 X20.5636 Y68.3201 
G01 X20.5636 Y68.1399 
G01 X20.5987 Y67.9633 
G01 X20.6677 Y67.7969 
G01 X20.7677 Y67.6471 
G01 X20.8951 Y67.5197 
G01 X21.0449 Y67.4197 
G01 X21.2113 Y67.3507 
G01 X21.3879 Y67.3156 
G00 Z3.0000 
G00 X39.7079 Y36.8356 
G01 Z-0.0800 F254.00 
G01 X41.4121 Y36.8356 F300.00 
G01 X41.5887 Y36.8707 
G01 X41.7551 Y36.9397 
G01 X41.9049 Y37.0397 
G01 X42.0323 Y37.1671 
G01 X42.1323 Y37.3169 
G01 X42.2013 Y37.4833 
G01 X42.2364 Y37.6599 
G01 X42.2364 Y37.8401 
G01 X42.2013 Y38.0167 
G01 X42.1323 Y38.1831 
G01 X42.0323 Y38.3329 
G01 X41.9049 Y38.4603 
G01 X41.7551 Y38.5603 
G01 X41.5887 Y38.6293 
G01 X41.4121 Y38.6644 
G01 X39.7079 Y38.6644 
G01 X39.5313 Y38.6293 
G01 X39.3649 Y38.5603 
G01 X39.2151 Y38.4603 
G01 X39.0877 Y38.3329 
G01 X38.9877 Y38.1831 
G01 X38.9187 Y38.0167 
G01 X38.8836 Y37.8401 
G01 X38.8836 Y37.6599 
G01 X38.9187 Y37.4833 
G01 X38.9877 Y37.3169 
G01 X39.0877 Y37.1671 
G01 X39.2151 Y37.0397 
G01 X39.3649 Y36.9397 
G01 X39.5313 Y36.8707 
G01 X39.7079 Y36.8356 
G00 Z3.0000 
G00 X39.7079 Y39.3756 
G01 Z-0.0800 F254.00 
G01 X41.4121 Y39.3756 F300.00 
G01 X41.5887 Y39.4107 
G01 X41.7551 Y39.4797 
G01 X41.9049 Y39.5797 
G01 X42.0323 Y39.7071 
G01 X42.1323 Y39.8569 
G01 X42.2013 Y40.0233 
G01 X42.2364 Y40.1999 
G01 X42.2364 Y40.3801 
G01 X42.2013 Y40.5567 
G01 X42.1323 Y40.7231 
G01 X42.0323 Y40.8729 
G01 X41.9049 Y41.0003 
G01 X41.7551 Y41.1003 
G01 X41.5887 Y41.1693 
G01 X41.4121 Y41.2044 
G01 X39.7079 Y41.2044 
G01 X39.5313 Y41.1693 
G01 X39.3649 Y41.1003 
G01 X39.2151 Y41.0003 
G01 X39.0877 Y40.8729 
G01 X38.9877 Y40.7231 
G01 X38.9187 Y40.5567 
G01 X38.8836 Y40.3801 
G01 X38.8836 Y40.1999 
G01 X38.9187 Y40.0233 
G01 X38.9877 Y39.8569 
G01 X39.0877 Y39.7071 
G01 X39.2151 Y39.5797 
G01 X39.3649 Y39.4797 
G01 X39.5313 Y39.4107 
G01 X39.7079 Y39.3756 
G00 Z3.0000 
G00 X39.7079 Y41.9156 
G01 Z-0.0800 F254.00 
G01 X41.4121 Y41.9156 F300.00 
G01 X41.5887 Y41.9507 
G01 X41.7551 Y42.0197 
G01 X41.9049 Y42.1197 
G01 X42.0323 Y42.2471 
G01 X42.1323 Y42.3969 
G01 X42.2013 Y42.5633 
G01 X42.2364 Y42.7399 
G01 X42.2364 Y42.9201 
G01 X42.2013 Y43.0967 
G01 X42.1323 Y43.2631 
G01 X42.0323 Y43.4129 
G01 X41.9049 Y43.5403 
G01 X41.7551 Y43.6403 
G01 X41.5887 Y43.7093 
G01 X41.4121 Y43.7444 
G01 X39.7079 Y43.7444 
G01 X39.5313 Y43.7093 
G01 X39.3649 Y43.6403 
G01 X39.2151 Y43.5403 
G01 X39.0877 Y43.4129 
G01 X38.9877 Y43.2631 
G01 X38.9187 Y43.0967 
G01 X38.8836 Y42.9201 
G01 X38.8836 Y42.7399 
G01 X38.9187 Y42.5633 
G01 X38.9877 Y42.3969 
G01 X39.0877 Y42.2471 
G01 X39.2151 Y42.1197 
G01 X39.3649 Y42.0197 
G01 X39.5313 Y41.9507 
G01 X39.7079 Y41.9156 
G00 Z3.0000 
G00 X39.7079 Y44.4556 
G01 Z-0.0800 F254.00 
G01 X41.4121 Y44.4556 F300.00 
G01 X41.5887 Y44.4907 
G01 X41.7551 Y44.5597 
G01 X41.9049 Y44.6597 
G01 X42.0323 Y44.7871 
G01 X42.1323 Y44.9369 
G01 X42.2013 Y45.1033 
G01 X42.2364 Y45.2799 
G01 X42.2364 Y45.4601 
G01 X42.2013 Y45.6367 
G01 X42.1323 Y45.8031 
G01 X42.0323 Y45.9529 
G01 X41.9049 Y46.0803 
G01 X41.7551 Y46.1803 
G01 X41.5887 Y46.2493 
G01 X41.4121 Y46.2844 
G01 X39.7079 Y46.2844 
G01 X39.5313 Y46.2493 
G01 X39.3649 Y46.1803 
G01 X39.2151 Y46.0803 
G01 X39.0877 Y45.9529 
G01 X38.9877 Y45.8031 
G01 X38.9187 Y45.6367 
G01 X38.8836 Y45.4601 
G01 X38.8836 Y45.2799 
G01 X38.9187 Y45.1033 
G01 X38.9877 Y44.9369 
G01 X39.0877 Y44.7871 
G01 X39.2151 Y44.6597 
G01 X39.3649 Y44.5597 
G01 X39.5313 Y44.4907 
G01 X39.7079 Y44.4556 
G00 Z3.0000 
G00 X39.7079 Y46.9956 
G01 Z-0.0800 F254.00 
G01 X41.4121 Y46.9956 F300.00 
G01 X41.5887 Y47.0307 
G01 X41.7551 Y47.0997 
G01 X41.9049 Y47.1997 
G01 X42.0323 Y47.3271 
G01 X42.1323 Y47.4769 
G01 X42.2013 Y47.6433 
G01 X42.2364 Y47.8199 
G01 X42.2364 Y48.0001 
G01 X42.2013 Y48.1767 
G01 X42.1323 Y48.3431 
G01 X42.0323 Y48.4929 
G01 X41.9049 Y48.6203 
G01 X41.7551 Y48.7203 
G01 X41.5887 Y48.7893 
G01 X41.4121 Y48.8244 
G01 X39.7079 Y48.8244 
G01 X39.5313 Y48.7893 
G01 X39.3649 Y48.7203 
G01 X39.2151 Y48.6203 
G01 X39.0877 Y48.4929 
G01 X38.9877 Y48.3431 
G01 X38.9187 Y48.1767 
G01 X38.8836 Y48.0001 
G01 X38.8836 Y47.8199 
G01 X38.9187 Y47.6433 
G01 X38.9877 Y47.4769 
G01 X39.0877 Y47.3271 
G01 X39.2151 Y47.1997 
G01 X39.3649 Y47.0997 
G01 X39.5313 Y47.0307 
G01 X39.7079 Y46.9956 
G00 Z3.0000 
G00 X39.7079 Y52.0756 
G01 Z-0.0800 F254.00 
G01 X41.4121 Y52.0756 F300.00 
G01 X41.5887 Y52.1107 
G01 X41.7551 Y52.1797 
G01 X41.9049 Y52.2797 
G01 X42.0323 Y52.4071 
G01 X42.1323 Y52.5569 
G01 X42.2013 Y52.7233 
G01 X42.2364 Y52.8999 
G01 X42.2364 Y53.0801 
G01 X42.2013 Y53.2567 
G01 X42.1323 Y53.4231 
G01 X42.0323 Y53.5729 
G01 X41.9049 Y53.7003 
G01 X41.7551 Y53.8003 
G01 X41.5887 Y53.8693 
G01 X41.4121 Y53.9044 
G01 X39.7079 Y53.9044 
G01 X39.5313 Y53.8693 
G01 X39.3649 Y53.8003 
G01 X39.2151 Y53.7003 
G01 X39.0877 Y53.5729 
G01 X38.9877 Y53.4231 
G01 X38.9187 Y53.2567 
G01 X38.8836 Y53.0801 
G01 X38.8836 Y52.8999 
G01 X38.9187 Y52.7233 
G01 X38.9877 Y52.5569 
G01 X39.0877 Y52.4071 
G01 X39.2151 Y52.2797 
G01 X39.3649 Y52.1797 
G01 X39.5313 Y52.1107 
G01 X39.7079 Y52.0756 
G00 Z3.0000 
G00 X39.7079 Y49.5356 
G01 Z-0.0800 F254.00 
G01 X41.4121 Y49.5356 F300.00 
G01 X41.5887 Y49.5707 
G01 X41.7551 Y49.6397 
G01 X41.9049 Y49.7397 
G01 X42.0323 Y49.8671 
G01 X42.1323 Y50.0169 
G01 X42.2013 Y50.1833 
G01 X42.2364 Y50.3599 
G01 X42.2364 Y50.5401 
G01 X42.2013 Y50.7167 
G01 X42.1323 Y50.8831 
G01 X42.0323 Y51.0329 
G01 X41.9049 Y51.1603 
G01 X41.7551 Y51.2603 
G01 X41.5887 Y51.3293 
G01 X41.4121 Y51.3644 
G01 X39.7079 Y51.3644 
G01 X39.5313 Y51.3293 
G01 X39.3649 Y51.2603 
G01 X39.2151 Y51.1603 
G01 X39.0877 Y51.0329 
G01 X38.9877 Y50.8831 
G01 X38.9187 Y50.7167 
G01 X38.8836 Y50.5401 
G01 X38.8836 Y50.3599 
G01 X38.9187 Y50.1833 
G01 X38.9877 Y50.0169 
G01 X39.0877 Y49.8671 
G01 X39.2151 Y49.7397 
G01 X39.3649 Y49.6397 
G01 X39.5313 Y49.5707 
G01 X39.7079 Y49.5356 
G00 Z3.0000 
G00 X39.7079 Y69.8556 
G01 Z-0.0800 F254.00 
G01 X41.4121 Y69.8556 F300.00 
G01 X41.5887 Y69.8907 
G01 X41.7551 Y69.9597 
G01 X41.9049 Y70.0597 
G01 X42.0323 Y70.1871 
G01 X42.1323 Y70.3369 
G01 X42.2013 Y70.5033 
G01 X42.2364 Y70.6799 
G01 X42.2364 Y70.8601 
G01 X42.2013 Y71.0367 
G01 X42.1323 Y71.2031 
G01 X42.0323 Y71.3529 
G01 X41.9049 Y71.4803 
G01 X41.7551 Y71.5803 
G01 X41.5887 Y71.6493 
G01 X41.4121 Y71.6844 
G01 X39.7079 Y71.6844 
G01 X39.5313 Y71.6493 
G01 X39.3649 Y71.5803 
G01 X39.2151 Y71.4803 
G01 X39.0877 Y71.3529 
G01 X38.9877 Y71.2031 
G01 X38.9187 Y71.0367 
G01 X38.8836 Y70.8601 
G01 X38.8836 Y70.6799 
G01 X38.9187 Y70.5033 
G01 X38.9877 Y70.3369 
G01 X39.0877 Y70.1871 
G01 X39.2151 Y70.0597 
G01 X39.3649 Y69.9597 
G01 X39.5313 Y69.8907 
G01 X39.7079 Y69.8556 
G00 Z3.0000 
G00 X39.7079 Y54.6156 
G01 Z-0.0800 F254.00 
G01 X41.4121 Y54.6156 F300.00 
G01 X41.5887 Y54.6507 
G01 X41.7551 Y54.7197 
G01 X41.9049 Y54.8197 
G01 X42.0323 Y54.9471 
G01 X42.1323 Y55.0969 
G01 X42.2013 Y55.2633 
G01 X42.2364 Y55.4399 
G01 X42.2364 Y55.6201 
G01 X42.2013 Y55.7967 
G01 X42.1323 Y55.9631 
G01 X42.0323 Y56.1129 
G01 X41.9049 Y56.2403 
G01 X41.7551 Y56.3403 
G01 X41.5887 Y56.4093 
G01 X41.4121 Y56.4444 
G01 X39.7079 Y56.4444 
G01 X39.5313 Y56.4093 
G01 X39.3649 Y56.3403 
G01 X39.2151 Y56.2403 
G01 X39.0877 Y56.1129 
G01 X38.9877 Y55.9631 
G01 X38.9187 Y55.7967 
G01 X38.8836 Y55.6201 
G01 X38.8836 Y55.4399 
G01 X38.9187 Y55.2633 
G01 X38.9877 Y55.0969 
G01 X39.0877 Y54.9471 
G01 X39.2151 Y54.8197 
G01 X39.3649 Y54.7197 
G01 X39.5313 Y54.6507 
G01 X39.7079 Y54.6156 
G00 Z3.0000 
G00 X39.7079 Y57.1556 
G01 Z-0.0800 F254.00 
G01 X41.4121 Y57.1556 F300.00 
G01 X41.5887 Y57.1907 
G01 X41.7551 Y57.2597 
G01 X41.9049 Y57.3597 
G01 X42.0323 Y57.4871 
G01 X42.1323 Y57.6369 
G01 X42.2013 Y57.8033 
G01 X42.2364 Y57.9799 
G01 X42.2364 Y58.1601 
G01 X42.2013 Y58.3367 
G01 X42.1323 Y58.5031 
G01 X42.0323 Y58.6529 
G01 X41.9049 Y58.7803 
G01 X41.7551 Y58.8803 
G01 X41.5887 Y58.9493 
G01 X41.4121 Y58.9844 
G01 X39.7079 Y58.9844 
G01 X39.5313 Y58.9493 
G01 X39.3649 Y58.8803 
G01 X39.2151 Y58.7803 
G01 X39.0877 Y58.6529 
G01 X38.9877 Y58.5031 
G01 X38.9187 Y58.3367 
G01 X38.8836 Y58.1601 
G01 X38.8836 Y57.9799 
G01 X38.9187 Y57.8033 
G01 X38.9877 Y57.6369 
G01 X39.0877 Y57.4871 
G01 X39.2151 Y57.3597 
G01 X39.3649 Y57.2597 
G01 X39.5313 Y57.1907 
G01 X39.7079 Y57.1556 
G00 Z3.0000 
G00 X39.7079 Y59.6956 
G01 Z-0.0800 F254.00 
G01 X41.4121 Y59.6956 F300.00 
G01 X41.5887 Y59.7307 
G01 X41.7551 Y59.7997 
G01 X41.9049 Y59.8997 
G01 X42.0323 Y60.0271 
G01 X42.1323 Y60.1769 
G01 X42.2013 Y60.3433 
G01 X42.2364 Y60.5199 
G01 X42.2364 Y60.7001 
G01 X42.2013 Y60.8767 
G01 X42.1323 Y61.0431 
G01 X42.0323 Y61.1929 
G01 X41.9049 Y61.3203 
G01 X41.7551 Y61.4203 
G01 X41.5887 Y61.4893 
G01 X41.4121 Y61.5244 
G01 X39.7079 Y61.5244 
G01 X39.5313 Y61.4893 
G01 X39.3649 Y61.4203 
G01 X39.2151 Y61.3203 
G01 X39.0877 Y61.1929 
G01 X38.9877 Y61.0431 
G01 X38.9187 Y60.8767 
G01 X38.8836 Y60.7001 
G01 X38.8836 Y60.5199 
G01 X38.9187 Y60.3433 
G01 X38.9877 Y60.1769 
G01 X39.0877 Y60.0271 
G01 X39.2151 Y59.8997 
G01 X39.3649 Y59.7997 
G01 X39.5313 Y59.7307 
G01 X39.7079 Y59.6956 
G00 Z3.0000 
G00 X39.7079 Y62.2356 
G01 Z-0.0800 F254.00 
G01 X41.4121 Y62.2356 F300.00 
G01 X41.5887 Y62.2707 
G01 X41.7551 Y62.3397 
G01 X41.9049 Y62.4397 
G01 X42.0323 Y62.5671 
G01 X42.1323 Y62.7169 
G01 X42.2013 Y62.8833 
G01 X42.2364 Y63.0599 
G01 X42.2364 Y63.2401 
G01 X42.2013 Y63.4167 
G01 X42.1323 Y63.5831 
G01 X42.0323 Y63.7329 
G01 X41.9049 Y63.8603 
G01 X41.7551 Y63.9603 
G01 X41.5887 Y64.0293 
G01 X41.4121 Y64.0644 
G01 X39.7079 Y64.0644 
G01 X39.5313 Y64.0293 
G01 X39.3649 Y63.9603 
G01 X39.2151 Y63.8603 
G01 X39.0877 Y63.7329 
G01 X38.9877 Y63.5831 
G01 X38.9187 Y63.4167 
G01 X38.8836 Y63.2401 
G01 X38.8836 Y63.0599 
G01 X38.9187 Y62.8833 
G01 X38.9877 Y62.7169 
G01 X39.0877 Y62.5671 
G01 X39.2151 Y62.4397 
G01 X39.3649 Y62.3397 
G01 X39.5313 Y62.2707 
G01 X39.7079 Y62.2356 
G00 Z3.0000 
G00 X39.7079 Y64.7756 
G01 Z-0.0800 F254.00 
G01 X41.4121 Y64.7756 F300.00 
G01 X41.5887 Y64.8107 
G01 X41.7551 Y64.8797 
G01 X41.9049 Y64.9797 
G01 X42.0323 Y65.1071 
G01 X42.1323 Y65.2569 
G01 X42.2013 Y65.4233 
G01 X42.2364 Y65.5999 
G01 X42.2364 Y65.7801 
G01 X42.2013 Y65.9567 
G01 X42.1323 Y66.1231 
G01 X42.0323 Y66.2729 
G01 X41.9049 Y66.4003 
G01 X41.7551 Y66.5003 
G01 X41.5887 Y66.5693 
G01 X41.4121 Y66.6044 
G01 X39.7079 Y66.6044 
G01 X39.5313 Y66.5693 
G01 X39.3649 Y66.5003 
G01 X39.2151 Y66.4003 
G01 X39.0877 Y66.2729 
G01 X38.9877 Y66.1231 
G01 X38.9187 Y65.9567 
G01 X38.8836 Y65.7801 
G01 X38.8836 Y65.5999 
G01 X38.9187 Y65.4233 
G01 X38.9877 Y65.2569 
G01 X39.0877 Y65.1071 
G01 X39.2151 Y64.9797 
G01 X39.3649 Y64.8797 
G01 X39.5313 Y64.8107 
G01 X39.7079 Y64.7756 
G00 Z3.0000 
G00 X39.7079 Y67.3156 
G01 Z-0.0800 F254.00 
G01 X41.4121 Y67.3156 F300.00 
G01 X41.5887 Y67.3507 
G01 X41.7551 Y67.4197 
G01 X41.9049 Y67.5197 
G01 X42.0323 Y67.6471 
G01 X42.1323 Y67.7969 
G01 X42.2013 Y67.9633 
G01 X42.2364 Y68.1399 
G01 X42.2364 Y68.3201 
G01 X42.2013 Y68.4967 
G01 X42.1323 Y68.6631 
G01 X42.0323 Y68.8129 
G01 X41.9049 Y68.9403 
G01 X41.7551 Y69.0403 
G01 X41.5887 Y69.1093 
G01 X41.4121 Y69.1444 
G01 X39.7079 Y69.1444 
G01 X39.5313 Y69.1093 
G01 X39.3649 Y69.0403 
G01 X39.2151 Y68.9403 
G01 X39.0877 Y68.8129 
G01 X38.9877 Y68.6631 
G01 X38.9187 Y68.4967 
G01 X38.8836 Y68.3201 
G01 X38.8836 Y68.1399 
G01 X38.9187 Y67.9633 
G01 X38.9877 Y67.7969 
G01 X39.0877 Y67.6471 
G01 X39.2151 Y67.5197 
G01 X39.3649 Y67.4197 
G01 X39.5313 Y67.3507 
G01 X39.7079 Y67.3156 
G00 Z3.0000 
G00 X9.5456 Y39.8521 
G01 Z-0.0800 F254.00 
G01 X9.5456 Y38.1479 F300.00 
G01 X9.5807 Y37.9713 
G01 X9.6497 Y37.8049 
G01 X9.7497 Y37.6551 
G01 X9.8771 Y37.5277 
G01 X10.0269 Y37.4277 
G01 X10.1933 Y37.3587 
G01 X10.3699 Y37.3236 
G01 X10.5501 Y37.3236 
G01 X10.7267 Y37.3587 
G01 X10.8931 Y37.4277 
G01 X11.0429 Y37.5277 
G01 X11.1703 Y37.6551 
G01 X11.2703 Y37.8049 
G01 X11.3393 Y37.9713 
G01 X11.3744 Y38.1479 
G01 X11.3744 Y39.8521 
G01 X11.3393 Y40.0287 
G01 X11.2703 Y40.1951 
G01 X11.1703 Y40.3449 
G01 X11.0429 Y40.4723 
G01 X10.8931 Y40.5723 
G01 X10.7267 Y40.6413 
G01 X10.5501 Y40.6764 
G01 X10.3699 Y40.6764 
G01 X10.1933 Y40.6413 
G01 X10.0269 Y40.5723 
G01 X9.8771 Y40.4723 
G01 X9.7497 Y40.3449 
G01 X9.6497 Y40.1951 
G01 X9.5807 Y40.0287 
G01 X9.5456 Y39.8521 
G00 Z3.0000 
G00 X12.0856 Y39.8521 
G01 Z-0.0800 F254.00 
G01 X12.0856 Y38.1479 F300.00 
G01 X12.1207 Y37.9713 
G01 X12.1897 Y37.8049 
G01 X12.2897 Y37.6551 
G01 X12.4171 Y37.5277 
G01 X12.5669 Y37.4277 
G01 X12.7333 Y37.3587 
G01 X12.9099 Y37.3236 
G01 X13.0901 Y37.3236 
G01 X13.2667 Y37.3587 
G01 X13.4331 Y37.4277 
G01 X13.5829 Y37.5277 
G01 X13.7103 Y37.6551 
G01 X13.8103 Y37.8049 
G01 X13.8793 Y37.9713 
G01 X13.9144 Y38.1479 
G01 X13.9144 Y39.8521 
G01 X13.8793 Y40.0287 
G01 X13.8103 Y40.1951 
G01 X13.7103 Y40.3449 
G01 X13.5829 Y40.4723 
G01 X13.4331 Y40.5723 
G01 X13.2667 Y40.6413 
G01 X13.0901 Y40.6764 
G01 X12.9099 Y40.6764 
G01 X12.7333 Y40.6413 
G01 X12.5669 Y40.5723 
G01 X12.4171 Y40.4723 
G01 X12.2897 Y40.3449 
G01 X12.1897 Y40.1951 
G01 X12.1207 Y40.0287 
G01 X12.0856 Y39.8521 
G00 Z3.0000 
G00 X14.6256 Y39.8521 
G01 Z-0.0800 F254.00 
G01 X14.6256 Y38.1479 F300.00 
G01 X14.6607 Y37.9713 
G01 X14.7297 Y37.8049 
G01 X14.8297 Y37.6551 
G01 X14.9571 Y37.5277 
G01 X15.1069 Y37.4277 
G01 X15.2733 Y37.3587 
G01 X15.4499 Y37.3236 
G01 X15.6301 Y37.3236 
G01 X15.8067 Y37.3587 
G01 X15.9731 Y37.4277 
G01 X16.1229 Y37.5277 
G01 X16.2503 Y37.6551 
G01 X16.3503 Y37.8049 
G01 X16.4193 Y37.9713 
G01 X16.4544 Y38.1479 
G01 X16.4544 Y39.8521 
G01 X16.4193 Y40.0287 
G01 X16.3503 Y40.1951 
G01 X16.2503 Y40.3449 
G01 X16.1229 Y40.4723 
G01 X15.9731 Y40.5723 
G01 X15.8067 Y40.6413 
G01 X15.6301 Y40.6764 
G01 X15.4499 Y40.6764 
G01 X15.2733 Y40.6413 
G01 X15.1069 Y40.5723 
G01 X14.9571 Y40.4723 
G01 X14.8297 Y40.3449 
G01 X14.7297 Y40.1951 
G01 X14.6607 Y40.0287 
G01 X14.6256 Y39.8521 
G00 Z3.0000 
G00 X32.6604 Y37.9350 
G01 Z-0.0800 F254.00 
G01 X32.6604 Y38.0650 F300.00 
G01 X32.6350 Y38.1926 
G01 X32.5852 Y38.3128 
G01 X32.5130 Y38.4210 
G01 X32.4210 Y38.5130 
G01 X32.3128 Y38.5852 
G01 X32.1926 Y38.6350 
G01 X32.0650 Y38.6604 
G01 X31.9350 Y38.6604 
G01 X31.8074 Y38.6350 
G01 X31.6872 Y38.5852 
G01 X31.5790 Y38.5130 
G01 X31.4870 Y38.4210 
G01 X31.4148 Y38.3128 
G01 X31.4009 Y38.2794 
G01 X26.9632 Y38.2794 
G01 X26.8922 Y38.2604 
G01 X26.8284 Y38.2236 
G01 X22.8843 Y34.2794 
G01 X22.5991 Y34.2794 
G01 X22.5852 Y34.3128 
G01 X22.5130 Y34.4210 
G01 X22.4210 Y34.5130 
G01 X22.3128 Y34.5852 
G01 X22.1926 Y34.6350 
G01 X22.0650 Y34.6604 
G01 X21.9350 Y34.6604 
G01 X21.8074 Y34.6350 
G01 X21.6872 Y34.5852 
G01 X21.5790 Y34.5130 
G01 X21.4870 Y34.4210 
G01 X21.4148 Y34.3128 
G01 X21.3650 Y34.1926 
G01 X21.3396 Y34.0650 
G01 X21.3396 Y33.9350 
G01 X21.3650 Y33.8074 
G01 X21.4148 Y33.6872 
G01 X21.4870 Y33.5790 
G01 X21.5790 Y33.4870 
G01 X21.6872 Y33.4148 
G01 X21.8074 Y33.3650 
G01 X21.9350 Y33.3396 
G01 X21.9445 Y33.3396 
G01 X21.8843 Y33.2794 
G01 X18.5991 Y33.2794 
G01 X18.5852 Y33.3128 
G01 X18.5130 Y33.4210 
G01 X18.4210 Y33.5130 
G01 X18.3128 Y33.5852 
G01 X18.1926 Y33.6350 
G01 X18.0650 Y33.6604 
G01 X17.9350 Y33.6604 
G01 X17.8074 Y33.6350 
G01 X17.6872 Y33.5852 
G01 X17.5790 Y33.5130 
G01 X17.4870 Y33.4210 
G01 X17.4148 Y33.3128 
G01 X17.3650 Y33.1926 
G01 X17.3396 Y33.0650 
G01 X17.3396 Y32.9350 
G01 X17.3650 Y32.8074 
G01 X17.4148 Y32.6872 
G01 X17.4870 Y32.5790 
G01 X17.5790 Y32.4870 
G01 X17.6872 Y32.4148 
G01 X17.8074 Y32.3650 
G01 X17.9350 Y32.3396 
G01 X18.0650 Y32.3396 
G01 X18.1926 Y32.3650 
G01 X18.3128 Y32.4148 
G01 X18.4210 Y32.4870 
G01 X18.5130 Y32.5790 
G01 X18.5852 Y32.6872 
G01 X18.5991 Y32.7206 
G01 X22.0368 Y32.7206 
G01 X22.1078 Y32.7396 
G01 X22.1716 Y32.7764 
G01 X22.2236 Y32.8284 
G01 X23.1157 Y33.7206 
G01 X31.4009 Y33.7206 
G01 X31.4148 Y33.6872 
G01 X31.4870 Y33.5790 
G01 X31.5790 Y33.4870 
G01 X31.6872 Y33.4148 
G01 X31.8074 Y33.3650 
G01 X31.9350 Y33.3396 
G01 X32.0650 Y33.3396 
G01 X32.1926 Y33.3650 
G01 X32.3128 Y33.4148 
G01 X32.4210 Y33.4870 
G01 X32.5130 Y33.5790 
G01 X32.5852 Y33.6872 
G01 X32.6350 Y33.8074 
G01 X32.6604 Y33.9350 
G01 X32.6604 Y34.0650 
G01 X32.6350 Y34.1926 
G01 X32.5852 Y34.3128 
G01 X32.5130 Y34.4210 
G01 X32.4210 Y34.5130 
G01 X32.3128 Y34.5852 
G01 X32.1926 Y34.6350 
G01 X32.0650 Y34.6604 
G01 X31.9350 Y34.6604 
G01 X31.8074 Y34.6350 
G01 X31.6872 Y34.5852 
G01 X31.5790 Y34.5130 
G01 X31.4870 Y34.4210 
G01 X31.4148 Y34.3128 
G01 X31.4009 Y34.2794 
G01 X23.6745 Y34.2794 
G01 X27.1157 Y37.7206 
G01 X31.4009 Y37.7206 
G01 X31.4148 Y37.6872 
G01 X31.4870 Y37.5790 
G01 X31.5790 Y37.4870 
G01 X31.6872 Y37.4148 
G01 X31.8074 Y37.3650 
G01 X31.9350 Y37.3396 
G01 X32.0650 Y37.3396 
G01 X32.1926 Y37.3650 
G01 X32.3128 Y37.4148 
G01 X32.4210 Y37.4870 
G01 X32.5130 Y37.5790 
G01 X32.5852 Y37.6872 
G01 X32.6350 Y37.8074 
G01 X32.6604 Y37.9350 
G00 Z3.0000 
G00 X38.6604 Y27.9350 
G01 Z-0.0800 F254.00 
G01 X38.6604 Y28.0650 F300.00 
G01 X38.6350 Y28.1926 
G01 X38.5852 Y28.3128 
G01 X38.5130 Y28.4210 
G01 X38.4210 Y28.5130 
G01 X38.3128 Y28.5852 
G01 X38.1926 Y28.6350 
G01 X38.0650 Y28.6604 
G01 X37.9350 Y28.6604 
G01 X37.8074 Y28.6350 
G01 X37.6872 Y28.5852 
G01 X37.5790 Y28.5130 
G01 X37.4870 Y28.4210 
G01 X37.4148 Y28.3128 
G01 X37.4009 Y28.2794 
G01 X32.9632 Y28.2794 
G01 X32.8922 Y28.2604 
G01 X32.8284 Y28.2236 
G01 X31.0000 Y26.3951 
G01 X30.6212 Y26.7739 
G01 X30.6350 Y26.8074 
G01 X30.6604 Y26.9350 
G01 X30.6604 Y27.0650 
G01 X30.6350 Y27.1926 
G01 X30.5852 Y27.3128 
G01 X30.5130 Y27.4210 
G01 X30.4210 Y27.5130 
G01 X30.3128 Y27.5852 
G01 X30.1926 Y27.6350 
G01 X30.0650 Y27.6604 
G01 X29.9350 Y27.6604 
G01 X29.8074 Y27.6350 
G01 X29.6872 Y27.5852 
G01 X29.5790 Y27.5130 
G01 X29.4870 Y27.4210 
G01 X29.4148 Y27.3128 
G01 X29.3650 Y27.1926 
G01 X29.3396 Y27.0650 
G01 X29.3396 Y26.9350 
G01 X29.3650 Y26.8074 
G01 X29.4148 Y26.6872 
G01 X29.4870 Y26.5790 
G01 X29.5790 Y26.4870 
G01 X29.6872 Y26.4148 
G01 X29.8074 Y26.3650 
G01 X29.9350 Y26.3396 
G01 X30.0650 Y26.3396 
G01 X30.1926 Y26.3650 
G01 X30.2261 Y26.3788 
G01 X30.8284 Y25.7764 
G01 X30.8922 Y25.7396 
G01 X30.9632 Y25.7206 
G01 X31.0368 Y25.7206 
G01 X31.1078 Y25.7396 
G01 X31.1716 Y25.7764 
G01 X31.2236 Y25.8284 
G01 X33.1157 Y27.7206 
G01 X37.4009 Y27.7206 
G01 X37.4148 Y27.6872 
G01 X37.4870 Y27.5790 
G01 X37.5790 Y27.4870 
G01 X37.6872 Y27.4148 
G01 X37.8074 Y27.3650 
G01 X37.9350 Y27.3396 
G01 X38.0650 Y27.3396 
G01 X38.1926 Y27.3650 
G01 X38.3128 Y27.4148 
G01 X38.4210 Y27.4870 
G01 X38.5130 Y27.5790 
G01 X38.5852 Y27.6872 
G01 X38.6350 Y27.8074 
G01 X38.6604 Y27.9350 
G00 Z3.0000 
G00 X15.6604 Y34.9350 
G01 Z-0.0800 F254.00 
G01 X15.6604 Y35.0650 F300.00 
G01 X15.6350 Y35.1926 
G01 X15.5852 Y35.3128 
G01 X15.5130 Y35.4210 
G01 X15.4210 Y35.5130 
G01 X15.3128 Y35.5852 
G01 X15.1926 Y35.6350 
G01 X15.0650 Y35.6604 
G01 X14.9350 Y35.6604 
G01 X14.8074 Y35.6350 
G01 X14.6872 Y35.5852 
G01 X14.5790 Y35.5130 
G01 X14.4870 Y35.4210 
G01 X14.4148 Y35.3128 
G01 X14.4009 Y35.2794 
G01 X10.9632 Y35.2794 
G01 X10.8922 Y35.2604 
G01 X10.8284 Y35.2236 
G01 X10.2261 Y34.6212 
G01 X10.1926 Y34.6350 
G01 X10.0650 Y34.6604 
G01 X9.9350 Y34.6604 
G01 X9.8074 Y34.6350 
G01 X9.6872 Y34.5852 
G01 X9.5790 Y34.5130 
G01 X9.4870 Y34.4210 
G01 X9.4148 Y34.3128 
G01 X9.3650 Y34.1926 
G01 X9.3396 Y34.0650 
G01 X9.3396 Y33.9350 
G01 X9.3650 Y33.8074 
G01 X9.4148 Y33.6872 
G01 X9.4870 Y33.5790 
G01 X9.5790 Y33.4870 
G01 X9.6872 Y33.4148 
G01 X9.8074 Y33.3650 
G01 X9.9350 Y33.3396 
G01 X10.0650 Y33.3396 
G01 X10.1926 Y33.3650 
G01 X10.3128 Y33.4148 
G01 X10.4210 Y33.4870 
G01 X10.5130 Y33.5790 
G01 X10.5852 Y33.6872 
G01 X10.6350 Y33.8074 
G01 X10.6604 Y33.9350 
G01 X10.6604 Y34.0650 
G01 X10.6350 Y34.1926 
G01 X10.6212 Y34.2261 
G01 X11.1157 Y34.7206 
G01 X14.4009 Y34.7206 
G01 X14.4148 Y34.6872 
G01 X14.4870 Y34.5790 
G01 X14.5790 Y34.4870 
G01 X14.6872 Y34.4148 
G01 X14.8074 Y34.3650 
G01 X14.9350 Y34.3396 
G01 X15.0650 Y34.3396 
G01 X15.1926 Y34.3650 
G01 X15.3128 Y34.4148 
G01 X15.4210 Y34.4870 
G01 X15.5130 Y34.5790 
G01 X15.5852 Y34.6872 
G01 X15.6350 Y34.8074 
G01 X15.6604 Y34.9350 
G00 Z3.0000 
G00 X38.6604 Y29.9350 
G01 Z-0.0800 F254.00 
G01 X38.6604 Y30.0650 F300.00 
G01 X38.6350 Y30.1926 
G01 X38.5852 Y30.3128 
G01 X38.5130 Y30.4210 
G01 X38.4210 Y30.5130 
G01 X38.3128 Y30.5852 
G01 X38.2794 Y30.5991 
G01 X38.2794 Y31.0368 
G01 X38.2604 Y31.1078 
G01 X38.2236 Y31.1716 
G01 X33.6212 Y35.7739 
G01 X33.6350 Y35.8074 
G01 X33.6604 Y35.9350 
G01 X33.6604 Y36.0650 
G01 X33.6350 Y36.1926 
G01 X33.5852 Y36.3128 
G01 X33.5130 Y36.4210 
G01 X33.4210 Y36.5130 
G01 X33.3128 Y36.5852 
G01 X33.1926 Y36.6350 
G01 X33.0650 Y36.6604 
G01 X32.9350 Y36.6604 
G01 X32.8074 Y36.6350 
G01 X32.6872 Y36.5852 
G01 X32.5790 Y36.5130 
G01 X32.4870 Y36.4210 
G01 X32.4148 Y36.3128 
G01 X32.3650 Y36.1926 
G01 X32.3396 Y36.0650 
G01 X32.3396 Y35.9350 
G01 X32.3650 Y35.8074 
G01 X32.4148 Y35.6872 
G01 X32.4870 Y35.5790 
G01 X32.5790 Y35.4870 
G01 X32.6872 Y35.4148 
G01 X32.8074 Y35.3650 
G01 X32.9350 Y35.3396 
G01 X33.0650 Y35.3396 
G01 X33.1926 Y35.3650 
G01 X33.2261 Y35.3788 
G01 X37.7206 Y30.8843 
G01 X37.7206 Y30.5991 
G01 X37.6872 Y30.5852 
G01 X37.5790 Y30.5130 
G01 X37.4870 Y30.4210 
G01 X37.4148 Y30.3128 
G01 X37.3650 Y30.1926 
G01 X37.3396 Y30.0650 
G01 X37.3396 Y29.9350 
G01 X37.3650 Y29.8074 
G01 X37.4148 Y29.6872 
G01 X37.4870 Y29.5790 
G01 X37.5790 Y29.4870 
G01 X37.6872 Y29.4148 
G01 X37.8074 Y29.3650 
G01 X37.9350 Y29.3396 
G01 X38.0650 Y29.3396 
G01 X38.1926 Y29.3650 
G01 X38.3128 Y29.4148 
G01 X38.4210 Y29.4870 
G01 X38.5130 Y29.5790 
G01 X38.5852 Y29.6872 
G01 X38.6350 Y29.8074 
G01 X38.6604 Y29.9350 
G00 Z3.0000 
G00 X7.7874 Y38.9224 
G01 Z-0.0800 F254.00 
G01 X7.7874 Y39.0776 F300.00 
G01 X7.7571 Y39.2297 
G01 X7.6978 Y39.3730 
G01 X7.6116 Y39.5019 
G01 X7.5019 Y39.6116 
G01 X7.4064 Y39.6754 
G01 X7.4064 Y57.0535 
G01 X7.3787 Y57.1569 
G01 X7.3252 Y57.2495 
G01 X6.7650 Y57.8098 
G01 X6.7874 Y57.9224 
G01 X6.7874 Y58.0776 
G01 X6.7571 Y58.2297 
G01 X6.6978 Y58.3730 
G01 X6.6116 Y58.5019 
G01 X6.5019 Y58.6116 
G01 X6.3730 Y58.6978 
G01 X6.2297 Y58.7571 
G01 X6.0776 Y58.7874 
G01 X5.9224 Y58.7874 
G01 X5.7703 Y58.7571 
G01 X5.6270 Y58.6978 
G01 X5.4981 Y58.6116 
G01 X5.3884 Y58.5019 
G01 X5.3022 Y58.3730 
G01 X5.2429 Y58.2297 
G01 X5.2126 Y58.0776 
G01 X5.2126 Y57.9224 
G01 X5.2429 Y57.7703 
G01 X5.3022 Y57.6270 
G01 X5.3884 Y57.4981 
G01 X5.4981 Y57.3884 
G01 X5.6270 Y57.3022 
G01 X5.7703 Y57.2429 
G01 X5.9224 Y57.2126 
G01 X6.0776 Y57.2126 
G01 X6.1902 Y57.2350 
G01 X6.5936 Y56.8317 
G01 X6.5936 Y39.6754 
G01 X6.4981 Y39.6116 
G01 X6.3884 Y39.5019 
G01 X6.3022 Y39.3730 
G01 X6.2429 Y39.2297 
G01 X6.2126 Y39.0776 
G01 X6.2126 Y38.9224 
G01 X6.2429 Y38.7703 
G01 X6.3022 Y38.6270 
G01 X6.3884 Y38.4981 
G01 X6.4981 Y38.3884 
G01 X6.6270 Y38.3022 
G01 X6.7703 Y38.2429 
G01 X6.9224 Y38.2126 
G01 X7.0776 Y38.2126 
G01 X7.2297 Y38.2429 
G01 X7.3730 Y38.3022 
G01 X7.5019 Y38.3884 
G01 X7.6116 Y38.4981 
G01 X7.6978 Y38.6270 
G01 X7.7571 Y38.7703 
G01 X7.7874 Y38.9224 
G00 Z3.0000 
G00 X52.0192 Y40.5440 
G01 Z-0.0800 F254.00 
G01 X52.0192 Y40.7360 F300.00 
G01 X51.9892 Y40.9255 
G01 X51.9299 Y41.1080 
G01 X51.8428 Y41.2790 
G01 X51.7300 Y41.4343 
G01 X51.5943 Y41.5699 
G01 X51.4390 Y41.6827 
G01 X51.2680 Y41.7699 
G01 X51.0855 Y41.8292 
G01 X50.8960 Y41.8592 
G01 X50.7040 Y41.8592 
G01 X50.5145 Y41.8292 
G01 X50.3320 Y41.7699 
G01 X50.1610 Y41.6827 
G01 X50.0057 Y41.5699 
G01 X49.8700 Y41.4343 
G01 X49.7572 Y41.2790 
G01 X49.6701 Y41.1080 
G01 X49.6108 Y40.9255 
G01 X49.5808 Y40.7360 
G01 X49.5808 Y40.5440 
G01 X49.6108 Y40.3545 
G01 X49.6701 Y40.1720 
G01 X49.7572 Y40.0010 
G01 X49.8700 Y39.8457 
G01 X50.0057 Y39.7100 
G01 X50.1610 Y39.5972 
G01 X50.3320 Y39.5101 
G01 X50.5145 Y39.4508 
G01 X50.7040 Y39.4208 
G01 X50.8960 Y39.4208 
G01 X51.0855 Y39.4508 
G01 X51.2680 Y39.5101 
G01 X51.4390 Y39.5972 
G01 X51.5943 Y39.7100 
G01 X51.7300 Y39.8457 
G01 X51.8428 Y40.0010 
G01 X51.9299 Y40.1720 
G01 X51.9892 Y40.3545 
G01 X52.0192 Y40.5440 
G00 Z3.0000 
G00 X52.0192 Y43.0840 
G01 Z-0.0800 F254.00 
G01 X52.0192 Y43.2760 F300.00 
G01 X51.9892 Y43.4655 
G01 X51.9299 Y43.6480 
G01 X51.8428 Y43.8190 
G01 X51.7300 Y43.9743 
G01 X51.5943 Y44.1100 
G01 X51.4390 Y44.2228 
G01 X51.2680 Y44.3099 
G01 X51.0855 Y44.3692 
G01 X50.8960 Y44.3992 
G01 X50.7040 Y44.3992 
G01 X50.5145 Y44.3692 
G01 X50.3320 Y44.3099 
G01 X50.1610 Y44.2228 
G01 X50.0057 Y44.1100 
G01 X49.8700 Y43.9743 
G01 X49.7572 Y43.8190 
G01 X49.6701 Y43.6480 
G01 X49.6108 Y43.4655 
G01 X49.5808 Y43.2760 
G01 X49.5808 Y43.0840 
G01 X49.6108 Y42.8945 
G01 X49.6701 Y42.7120 
G01 X49.7572 Y42.5410 
G01 X49.8700 Y42.3857 
G01 X50.0057 Y42.2500 
G01 X50.1610 Y42.1372 
G01 X50.3320 Y42.0501 
G01 X50.5145 Y41.9908 
G01 X50.7040 Y41.9608 
G01 X50.8960 Y41.9608 
G01 X51.0855 Y41.9908 
G01 X51.2680 Y42.0501 
G01 X51.4390 Y42.1372 
G01 X51.5943 Y42.2500 
G01 X51.7300 Y42.3857 
G01 X51.8428 Y42.5410 
G01 X51.9299 Y42.7120 
G01 X51.9892 Y42.8945 
G01 X52.0192 Y43.0840 
G00 Z3.0000 
G00 X52.0192 Y45.6240 
G01 Z-0.0800 F254.00 
G01 X52.0192 Y45.8160 F300.00 
G01 X51.9892 Y46.0055 
G01 X51.9299 Y46.1880 
G01 X51.8428 Y46.3590 
G01 X51.7300 Y46.5143 
G01 X51.5943 Y46.6500 
G01 X51.4390 Y46.7628 
G01 X51.2680 Y46.8499 
G01 X51.0855 Y46.9092 
G01 X50.8960 Y46.9392 
G01 X50.7040 Y46.9392 
G01 X50.5145 Y46.9092 
G01 X50.3320 Y46.8499 
G01 X50.1610 Y46.7628 
G01 X50.0057 Y46.6500 
G01 X49.8700 Y46.5143 
G01 X49.7572 Y46.3590 
G01 X49.6701 Y46.1880 
G01 X49.6108 Y46.0055 
G01 X49.5808 Y45.8160 
G01 X49.5808 Y45.6240 
G01 X49.6108 Y45.4345 
G01 X49.6701 Y45.2520 
G01 X49.7572 Y45.0810 
G01 X49.8700 Y44.9257 
G01 X50.0057 Y44.7900 
G01 X50.1610 Y44.6772 
G01 X50.3320 Y44.5901 
G01 X50.5145 Y44.5308 
G01 X50.7040 Y44.5008 
G01 X50.8960 Y44.5008 
G01 X51.0855 Y44.5308 
G01 X51.2680 Y44.5901 
G01 X51.4390 Y44.6772 
G01 X51.5943 Y44.7900 
G01 X51.7300 Y44.9257 
G01 X51.8428 Y45.0810 
G01 X51.9299 Y45.2520 
G01 X51.9892 Y45.4345 
G01 X52.0192 Y45.6240 
G00 Z3.0000 
G00 X52.0192 Y48.1640 
G01 Z-0.0800 F254.00 
G01 X52.0192 Y48.3560 F300.00 
G01 X51.9892 Y48.5455 
G01 X51.9299 Y48.7280 
G01 X51.8428 Y48.8990 
G01 X51.7300 Y49.0543 
G01 X51.5943 Y49.1900 
G01 X51.4390 Y49.3028 
G01 X51.2680 Y49.3899 
G01 X51.0855 Y49.4492 
G01 X50.8960 Y49.4792 
G01 X50.7040 Y49.4792 
G01 X50.5145 Y49.4492 
G01 X50.3320 Y49.3899 
G01 X50.1610 Y49.3028 
G01 X50.0057 Y49.1900 
G01 X49.8700 Y49.0543 
G01 X49.7572 Y48.8990 
G01 X49.6701 Y48.7280 
G01 X49.6108 Y48.5455 
G01 X49.5808 Y48.3560 
G01 X49.5808 Y48.1640 
G01 X49.6108 Y47.9745 
G01 X49.6701 Y47.7920 
G01 X49.7572 Y47.6210 
G01 X49.8700 Y47.4657 
G01 X50.0057 Y47.3300 
G01 X50.1610 Y47.2172 
G01 X50.3320 Y47.1301 
G01 X50.5145 Y47.0708 
G01 X50.7040 Y47.0408 
G01 X50.8960 Y47.0408 
G01 X51.0855 Y47.0708 
G01 X51.2680 Y47.1301 
G01 X51.4390 Y47.2172 
G01 X51.5943 Y47.3300 
G01 X51.7300 Y47.4657 
G01 X51.8428 Y47.6210 
G01 X51.9299 Y47.7920 
G01 X51.9892 Y47.9745 
G01 X52.0192 Y48.1640 
G00 Z3.0000 
G00 X52.0192 Y50.7040 
G01 Z-0.0800 F254.00 
G01 X52.0192 Y50.8960 F300.00 
G01 X51.9892 Y51.0855 
G01 X51.9299 Y51.2680 
G01 X51.8428 Y51.4390 
G01 X51.7300 Y51.5943 
G01 X51.5943 Y51.7300 
G01 X51.4390 Y51.8428 
G01 X51.2680 Y51.9299 
G01 X51.0855 Y51.9892 
G01 X50.8960 Y52.0192 
G01 X50.7040 Y52.0192 
G01 X50.5145 Y51.9892 
G01 X50.3320 Y51.9299 
G01 X50.1610 Y51.8428 
G01 X50.0057 Y51.7300 
G01 X49.8700 Y51.5943 
G01 X49.7572 Y51.4390 
G01 X49.6701 Y51.2680 
G01 X49.6108 Y51.0855 
G01 X49.5808 Y50.8960 
G01 X49.5808 Y50.7040 
G01 X49.6108 Y50.5145 
G01 X49.6701 Y50.3320 
G01 X49.7572 Y50.1610 
G01 X49.8700 Y50.0057 
G01 X50.0057 Y49.8700 
G01 X50.1610 Y49.7572 
G01 X50.3320 Y49.6701 
G01 X50.5145 Y49.6108 
G01 X50.7040 Y49.5808 
G01 X50.8960 Y49.5808 
G01 X51.0855 Y49.6108 
G01 X51.2680 Y49.6701 
G01 X51.4390 Y49.7572 
G01 X51.5943 Y49.8700 
G01 X51.7300 Y50.0057 
G01 X51.8428 Y50.1610 
G01 X51.9299 Y50.3320 
G01 X51.9892 Y50.5145 
G01 X52.0192 Y50.7040 
G00 Z3.0000 
G00 X52.0192 Y53.2440 
G01 Z-0.0800 F254.00 
G01 X52.0192 Y53.4360 F300.00 
G01 X51.9892 Y53.6255 
G01 X51.9299 Y53.8080 
G01 X51.8428 Y53.9790 
G01 X51.7300 Y54.1343 
G01 X51.5943 Y54.2700 
G01 X51.4390 Y54.3828 
G01 X51.2680 Y54.4699 
G01 X51.0855 Y54.5292 
G01 X50.8960 Y54.5592 
G01 X50.7040 Y54.5592 
G01 X50.5145 Y54.5292 
G01 X50.3320 Y54.4699 
G01 X50.1610 Y54.3828 
G01 X50.0057 Y54.2700 
G01 X49.8700 Y54.1343 
G01 X49.7572 Y53.9790 
G01 X49.6701 Y53.8080 
G01 X49.6108 Y53.6255 
G01 X49.5808 Y53.4360 
G01 X49.5808 Y53.2440 
G01 X49.6108 Y53.0545 
G01 X49.6701 Y52.8720 
G01 X49.7572 Y52.7010 
G01 X49.8700 Y52.5457 
G01 X50.0057 Y52.4100 
G01 X50.1610 Y52.2972 
G01 X50.3320 Y52.2101 
G01 X50.5145 Y52.1508 
G01 X50.7040 Y52.1208 
G01 X50.8960 Y52.1208 
G01 X51.0855 Y52.1508 
G01 X51.2680 Y52.2101 
G01 X51.4390 Y52.2972 
G01 X51.5943 Y52.4100 
G01 X51.7300 Y52.5457 
G01 X51.8428 Y52.7010 
G01 X51.9299 Y52.8720 
G01 X51.9892 Y53.0545 
G01 X52.0192 Y53.2440 
G00 Z3.0000 
G00 X52.0192 Y58.3240 
G01 Z-0.0800 F254.00 
G01 X52.0192 Y58.5160 F300.00 
G01 X51.9892 Y58.7055 
G01 X51.9299 Y58.8880 
G01 X51.8428 Y59.0590 
G01 X51.7300 Y59.2143 
G01 X51.5943 Y59.3499 
G01 X51.4390 Y59.4627 
G01 X51.2680 Y59.5499 
G01 X51.0855 Y59.6092 
G01 X50.8960 Y59.6392 
G01 X50.7040 Y59.6392 
G01 X50.5145 Y59.6092 
G01 X50.3320 Y59.5499 
G01 X50.1610 Y59.4627 
G01 X50.0057 Y59.3499 
G01 X49.8700 Y59.2143 
G01 X49.7572 Y59.0590 
G01 X49.6701 Y58.8880 
G01 X49.6108 Y58.7055 
G01 X49.5808 Y58.5160 
G01 X49.5808 Y58.3240 
G01 X49.6108 Y58.1345 
G01 X49.6701 Y57.9520 
G01 X49.7572 Y57.7810 
G01 X49.8700 Y57.6257 
G01 X50.0057 Y57.4900 
G01 X50.1610 Y57.3772 
G01 X50.3320 Y57.2901 
G01 X50.5145 Y57.2308 
G01 X50.7040 Y57.2008 
G01 X50.8960 Y57.2008 
G01 X51.0855 Y57.2308 
G01 X51.2680 Y57.2901 
G01 X51.4390 Y57.3772 
G01 X51.5943 Y57.4900 
G01 X51.7300 Y57.6257 
G01 X51.8428 Y57.7810 
G01 X51.9299 Y57.9520 
G01 X51.9892 Y58.1345 
G01 X52.0192 Y58.3240 
G00 Z3.0000 
G00 X52.0192 Y60.8640 
G01 Z-0.0800 F254.00 
G01 X52.0192 Y61.0560 F300.00 
G01 X51.9892 Y61.2455 
G01 X51.9299 Y61.4280 
G01 X51.8428 Y61.5990 
G01 X51.7300 Y61.7543 
G01 X51.5943 Y61.8900 
G01 X51.4390 Y62.0028 
G01 X51.2680 Y62.0899 
G01 X51.0855 Y62.1492 
G01 X50.8960 Y62.1792 
G01 X50.7040 Y62.1792 
G01 X50.5145 Y62.1492 
G01 X50.3320 Y62.0899 
G01 X50.1610 Y62.0028 
G01 X50.0057 Y61.8900 
G01 X49.8700 Y61.7543 
G01 X49.7572 Y61.5990 
G01 X49.6701 Y61.4280 
G01 X49.6108 Y61.2455 
G01 X49.5808 Y61.0560 
G01 X49.5808 Y60.8640 
G01 X49.6108 Y60.6745 
G01 X49.6701 Y60.4920 
G01 X49.7572 Y60.3210 
G01 X49.8700 Y60.1657 
G01 X50.0057 Y60.0300 
G01 X50.1610 Y59.9172 
G01 X50.3320 Y59.8301 
G01 X50.5145 Y59.7708 
G01 X50.7040 Y59.7408 
G01 X50.8960 Y59.7408 
G01 X51.0855 Y59.7708 
G01 X51.2680 Y59.8301 
G01 X51.4390 Y59.9172 
G01 X51.5943 Y60.0300 
G01 X51.7300 Y60.1657 
G01 X51.8428 Y60.3210 
G01 X51.9299 Y60.4920 
G01 X51.9892 Y60.6745 
G01 X52.0192 Y60.8640 
G00 Z3.0000 
G00 X52.0192 Y63.4040 
G01 Z-0.0800 F254.00 
G01 X52.0192 Y63.5960 F300.00 
G01 X51.9892 Y63.7855 
G01 X51.9299 Y63.9680 
G01 X51.8428 Y64.1390 
G01 X51.7300 Y64.2943 
G01 X51.5943 Y64.4300 
G01 X51.4390 Y64.5427 
G01 X51.2680 Y64.6299 
G01 X51.0855 Y64.6892 
G01 X50.8960 Y64.7192 
G01 X50.7040 Y64.7192 
G01 X50.5145 Y64.6892 
G01 X50.3320 Y64.6299 
G01 X50.1610 Y64.5427 
G01 X50.0057 Y64.4300 
G01 X49.8700 Y64.2943 
G01 X49.7572 Y64.1390 
G01 X49.6701 Y63.9680 
G01 X49.6108 Y63.7855 
G01 X49.5808 Y63.5960 
G01 X49.5808 Y63.4040 
G01 X49.6108 Y63.2145 
G01 X49.6701 Y63.0320 
G01 X49.7572 Y62.8610 
G01 X49.8700 Y62.7057 
G01 X50.0057 Y62.5700 
G01 X50.1610 Y62.4572 
G01 X50.3320 Y62.3701 
G01 X50.5145 Y62.3108 
G01 X50.7040 Y62.2808 
G01 X50.8960 Y62.2808 
G01 X51.0855 Y62.3108 
G01 X51.2680 Y62.3701 
G01 X51.4390 Y62.4572 
G01 X51.5943 Y62.5700 
G01 X51.7300 Y62.7057 
G01 X51.8428 Y62.8610 
G01 X51.9299 Y63.0320 
G01 X51.9892 Y63.2145 
G01 X52.0192 Y63.4040 
G00 Z3.0000 
G00 X52.0192 Y65.9440 
G01 Z-0.0800 F254.00 
G01 X52.0192 Y66.1360 F300.00 
G01 X51.9892 Y66.3255 
G01 X51.9299 Y66.5080 
G01 X51.8428 Y66.6790 
G01 X51.7300 Y66.8343 
G01 X51.5943 Y66.9699 
G01 X51.4390 Y67.0828 
G01 X51.2680 Y67.1699 
G01 X51.0855 Y67.2292 
G01 X50.8960 Y67.2592 
G01 X50.7040 Y67.2592 
G01 X50.5145 Y67.2292 
G01 X50.3320 Y67.1699 
G01 X50.1610 Y67.0828 
G01 X50.0057 Y66.9699 
G01 X49.8700 Y66.8343 
G01 X49.7572 Y66.6790 
G01 X49.6701 Y66.5080 
G01 X49.6108 Y66.3255 
G01 X49.5808 Y66.1360 
G01 X49.5808 Y65.9440 
G01 X49.6108 Y65.7545 
G01 X49.6701 Y65.5720 
G01 X49.7572 Y65.4010 
G01 X49.8700 Y65.2457 
G01 X50.0057 Y65.1100 
G01 X50.1610 Y64.9972 
G01 X50.3320 Y64.9101 
G01 X50.5145 Y64.8508 
G01 X50.7040 Y64.8208 
G01 X50.8960 Y64.8208 
G01 X51.0855 Y64.8508 
G01 X51.2680 Y64.9101 
G01 X51.4390 Y64.9972 
G01 X51.5943 Y65.1100 
G01 X51.7300 Y65.2457 
G01 X51.8428 Y65.4010 
G01 X51.9299 Y65.5720 
G01 X51.9892 Y65.7545 
G01 X52.0192 Y65.9440 
G00 Z3.0000 
G00 X52.0192 Y68.4840 
G01 Z-0.0800 F254.00 
G01 X52.0192 Y68.6760 F300.00 
G01 X51.9892 Y68.8655 
G01 X51.9299 Y69.0480 
G01 X51.8428 Y69.2190 
G01 X51.7300 Y69.3743 
G01 X51.5943 Y69.5100 
G01 X51.4390 Y69.6227 
G01 X51.2680 Y69.7099 
G01 X51.0855 Y69.7692 
G01 X50.8960 Y69.7992 
G01 X50.7040 Y69.7992 
G01 X50.5145 Y69.7692 
G01 X50.3320 Y69.7099 
G01 X50.1610 Y69.6227 
G01 X50.0057 Y69.5100 
G01 X49.8700 Y69.3743 
G01 X49.7572 Y69.2190 
G01 X49.6701 Y69.0480 
G01 X49.6108 Y68.8655 
G01 X49.5808 Y68.6760 
G01 X49.5808 Y68.4840 
G01 X49.6108 Y68.2945 
G01 X49.6701 Y68.1120 
G01 X49.7572 Y67.9410 
G01 X49.8700 Y67.7857 
G01 X50.0057 Y67.6500 
G01 X50.1610 Y67.5372 
G01 X50.3320 Y67.4501 
G01 X50.5145 Y67.3908 
G01 X50.7040 Y67.3608 
G01 X50.8960 Y67.3608 
G01 X51.0855 Y67.3908 
G01 X51.2680 Y67.4501 
G01 X51.4390 Y67.5372 
G01 X51.5943 Y67.6500 
G01 X51.7300 Y67.7857 
G01 X51.8428 Y67.9410 
G01 X51.9299 Y68.1120 
G01 X51.9892 Y68.2945 
G01 X52.0192 Y68.4840 
G00 Z3.0000 
G00 X52.0192 Y71.0240 
G01 Z-0.0800 F254.00 
G01 X52.0192 Y71.2160 F300.00 
G01 X51.9892 Y71.4055 
G01 X51.9299 Y71.5880 
G01 X51.8428 Y71.7590 
G01 X51.7300 Y71.9143 
G01 X51.5943 Y72.0500 
G01 X51.4390 Y72.1628 
G01 X51.2680 Y72.2499 
G01 X51.0855 Y72.3092 
G01 X50.8960 Y72.3392 
G01 X50.7040 Y72.3392 
G01 X50.5145 Y72.3092 
G01 X50.3320 Y72.2499 
G01 X50.1610 Y72.1628 
G01 X50.0057 Y72.0500 
G01 X49.8700 Y71.9143 
G01 X49.7572 Y71.7590 
G01 X49.6701 Y71.5880 
G01 X49.6108 Y71.4055 
G01 X49.5808 Y71.2160 
G01 X49.5808 Y71.0240 
G01 X49.6108 Y70.8345 
G01 X49.6701 Y70.6520 
G01 X49.7572 Y70.4810 
G01 X49.8700 Y70.3257 
G01 X50.0057 Y70.1900 
G01 X50.1610 Y70.0772 
G01 X50.3320 Y69.9901 
G01 X50.5145 Y69.9308 
G01 X50.7040 Y69.9008 
G01 X50.8960 Y69.9008 
G01 X51.0855 Y69.9308 
G01 X51.2680 Y69.9901 
G01 X51.4390 Y70.0772 
G01 X51.5943 Y70.1900 
G01 X51.7300 Y70.3257 
G01 X51.8428 Y70.4810 
G01 X51.9299 Y70.6520 
G01 X51.9892 Y70.8345 
G01 X52.0192 Y71.0240 
G00 Z3.0000 
G00 X3.7592 Y71.0240 
G01 Z-0.0800 F254.00 
G01 X3.7592 Y71.2160 F300.00 
G01 X3.7292 Y71.4055 
G01 X3.6699 Y71.5880 
G01 X3.5828 Y71.7590 
G01 X3.4700 Y71.9143 
G01 X3.3343 Y72.0500 
G01 X3.1790 Y72.1628 
G01 X3.0080 Y72.2499 
G01 X2.8255 Y72.3092 
G01 X2.6360 Y72.3392 
G01 X2.4440 Y72.3392 
G01 X2.2545 Y72.3092 
G01 X2.0720 Y72.2499 
G01 X1.9010 Y72.1628 
G01 X1.7457 Y72.0500 
G01 X1.6100 Y71.9143 
G01 X1.4972 Y71.7590 
G01 X1.4101 Y71.5880 
G01 X1.3508 Y71.4055 
G01 X1.3208 Y71.2160 
G01 X1.3208 Y71.0240 
G01 X1.3508 Y70.8345 
G01 X1.4101 Y70.6520 
G01 X1.4972 Y70.4810 
G01 X1.6100 Y70.3257 
G01 X1.7457 Y70.1900 
G01 X1.9010 Y70.0772 
G01 X2.0720 Y69.9901 
G01 X2.2545 Y69.9308 
G01 X2.4440 Y69.9008 
G01 X2.6360 Y69.9008 
G01 X2.8255 Y69.9308 
G01 X3.0080 Y69.9901 
G01 X3.1790 Y70.0772 
G01 X3.3343 Y70.1900 
G01 X3.4700 Y70.3257 
G01 X3.5828 Y70.4810 
G01 X3.6699 Y70.6520 
G01 X3.7292 Y70.8345 
G01 X3.7592 Y71.0240 
G00 Z3.0000 
G00 X3.7592 Y68.4840 
G01 Z-0.0800 F254.00 
G01 X3.7592 Y68.6760 F300.00 
G01 X3.7292 Y68.8655 
G01 X3.6699 Y69.0480 
G01 X3.5828 Y69.2190 
G01 X3.4700 Y69.3743 
G01 X3.3343 Y69.5100 
G01 X3.1790 Y69.6227 
G01 X3.0080 Y69.7099 
G01 X2.8255 Y69.7692 
G01 X2.6360 Y69.7992 
G01 X2.4440 Y69.7992 
G01 X2.2545 Y69.7692 
G01 X2.0720 Y69.7099 
G01 X1.9010 Y69.6227 
G01 X1.7457 Y69.5100 
G01 X1.6100 Y69.3743 
G01 X1.4972 Y69.2190 
G01 X1.4101 Y69.0480 
G01 X1.3508 Y68.8655 
G01 X1.3208 Y68.6760 
G01 X1.3208 Y68.4840 
G01 X1.3508 Y68.2945 
G01 X1.4101 Y68.1120 
G01 X1.4972 Y67.9410 
G01 X1.6100 Y67.7857 
G01 X1.7457 Y67.6500 
G01 X1.9010 Y67.5372 
G01 X2.0720 Y67.4501 
G01 X2.2545 Y67.3908 
G01 X2.4440 Y67.3608 
G01 X2.6360 Y67.3608 
G01 X2.8255 Y67.3908 
G01 X3.0080 Y67.4501 
G01 X3.1790 Y67.5372 
G01 X3.3343 Y67.6500 
G01 X3.4700 Y67.7857 
G01 X3.5828 Y67.9410 
G01 X3.6699 Y68.1120 
G01 X3.7292 Y68.2945 
G01 X3.7592 Y68.4840 
G00 Z3.0000 
G00 X3.7592 Y65.9440 
G01 Z-0.0800 F254.00 
G01 X3.7592 Y66.1360 F300.00 
G01 X3.7292 Y66.3255 
G01 X3.6699 Y66.5080 
G01 X3.5828 Y66.6790 
G01 X3.4700 Y66.8343 
G01 X3.3343 Y66.9699 
G01 X3.1790 Y67.0828 
G01 X3.0080 Y67.1699 
G01 X2.8255 Y67.2292 
G01 X2.6360 Y67.2592 
G01 X2.4440 Y67.2592 
G01 X2.2545 Y67.2292 
G01 X2.0720 Y67.1699 
G01 X1.9010 Y67.0828 
G01 X1.7457 Y66.9699 
G01 X1.6100 Y66.8343 
G01 X1.4972 Y66.6790 
G01 X1.4101 Y66.5080 
G01 X1.3508 Y66.3255 
G01 X1.3208 Y66.1360 
G01 X1.3208 Y65.9440 
G01 X1.3508 Y65.7545 
G01 X1.4101 Y65.5720 
G01 X1.4972 Y65.4010 
G01 X1.6100 Y65.2457 
G01 X1.7457 Y65.1100 
G01 X1.9010 Y64.9972 
G01 X2.0720 Y64.9101 
G01 X2.2545 Y64.8508 
G01 X2.4440 Y64.8208 
G01 X2.6360 Y64.8208 
G01 X2.8255 Y64.8508 
G01 X3.0080 Y64.9101 
G01 X3.1790 Y64.9972 
G01 X3.3343 Y65.1100 
G01 X3.4700 Y65.2457 
G01 X3.5828 Y65.4010 
G01 X3.6699 Y65.5720 
G01 X3.7292 Y65.7545 
G01 X3.7592 Y65.9440 
G00 Z3.0000 
G00 X3.7592 Y63.4040 
G01 Z-0.0800 F254.00 
G01 X3.7592 Y63.5960 F300.00 
G01 X3.7292 Y63.7855 
G01 X3.6699 Y63.9680 
G01 X3.5828 Y64.1390 
G01 X3.4700 Y64.2943 
G01 X3.3343 Y64.4300 
G01 X3.1790 Y64.5427 
G01 X3.0080 Y64.6299 
G01 X2.8255 Y64.6892 
G01 X2.6360 Y64.7192 
G01 X2.4440 Y64.7192 
G01 X2.2545 Y64.6892 
G01 X2.0720 Y64.6299 
G01 X1.9010 Y64.5427 
G01 X1.7457 Y64.4300 
G01 X1.6100 Y64.2943 
G01 X1.4972 Y64.1390 
G01 X1.4101 Y63.9680 
G01 X1.3508 Y63.7855 
G01 X1.3208 Y63.5960 
G01 X1.3208 Y63.4040 
G01 X1.3508 Y63.2145 
G01 X1.4101 Y63.0320 
G01 X1.4972 Y62.8610 
G01 X1.6100 Y62.7057 
G01 X1.7457 Y62.5700 
G01 X1.9010 Y62.4572 
G01 X2.0720 Y62.3701 
G01 X2.2545 Y62.3108 
G01 X2.4440 Y62.2808 
G01 X2.6360 Y62.2808 
G01 X2.8255 Y62.3108 
G01 X3.0080 Y62.3701 
G01 X3.1790 Y62.4572 
G01 X3.3343 Y62.5700 
G01 X3.4700 Y62.7057 
G01 X3.5828 Y62.8610 
G01 X3.6699 Y63.0320 
G01 X3.7292 Y63.2145 
G01 X3.7592 Y63.4040 
G00 Z3.0000 
G00 X3.7592 Y60.8640 
G01 Z-0.0800 F254.00 
G01 X3.7592 Y61.0560 F300.00 
G01 X3.7292 Y61.2455 
G01 X3.6699 Y61.4280 
G01 X3.5828 Y61.5990 
G01 X3.4700 Y61.7543 
G01 X3.3343 Y61.8900 
G01 X3.1790 Y62.0028 
G01 X3.0080 Y62.0899 
G01 X2.8255 Y62.1492 
G01 X2.6360 Y62.1792 
G01 X2.4440 Y62.1792 
G01 X2.2545 Y62.1492 
G01 X2.0720 Y62.0899 
G01 X1.9010 Y62.0028 
G01 X1.7457 Y61.8900 
G01 X1.6100 Y61.7543 
G01 X1.4972 Y61.5990 
G01 X1.4101 Y61.4280 
G01 X1.3508 Y61.2455 
G01 X1.3208 Y61.0560 
G01 X1.3208 Y60.8640 
G01 X1.3508 Y60.6745 
G01 X1.4101 Y60.4920 
G01 X1.4972 Y60.3210 
G01 X1.6100 Y60.1657 
G01 X1.7457 Y60.0300 
G01 X1.9010 Y59.9172 
G01 X2.0720 Y59.8301 
G01 X2.2545 Y59.7708 
G01 X2.4440 Y59.7408 
G01 X2.6360 Y59.7408 
G01 X2.8255 Y59.7708 
G01 X3.0080 Y59.8301 
G01 X3.1790 Y59.9172 
G01 X3.3343 Y60.0300 
G01 X3.4700 Y60.1657 
G01 X3.5828 Y60.3210 
G01 X3.6699 Y60.4920 
G01 X3.7292 Y60.6745 
G01 X3.7592 Y60.8640 
G00 Z3.0000 
G00 X3.7592 Y58.3240 
G01 Z-0.0800 F254.00 
G01 X3.7592 Y58.5160 F300.00 
G01 X3.7292 Y58.7055 
G01 X3.6699 Y58.8880 
G01 X3.5828 Y59.0590 
G01 X3.4700 Y59.2143 
G01 X3.3343 Y59.3499 
G01 X3.1790 Y59.4627 
G01 X3.0080 Y59.5499 
G01 X2.8255 Y59.6092 
G01 X2.6360 Y59.6392 
G01 X2.4440 Y59.6392 
G01 X2.2545 Y59.6092 
G01 X2.0720 Y59.5499 
G01 X1.9010 Y59.4627 
G01 X1.7457 Y59.3499 
G01 X1.6100 Y59.2143 
G01 X1.4972 Y59.0590 
G01 X1.4101 Y58.8880 
G01 X1.3508 Y58.7055 
G01 X1.3208 Y58.5160 
G01 X1.3208 Y58.3240 
G01 X1.3508 Y58.1345 
G01 X1.4101 Y57.9520 
G01 X1.4972 Y57.7810 
G01 X1.6100 Y57.6257 
G01 X1.7457 Y57.4900 
G01 X1.9010 Y57.3772 
G01 X2.0720 Y57.2901 
G01 X2.2545 Y57.2308 
G01 X2.4440 Y57.2008 
G01 X2.6360 Y57.2008 
G01 X2.8255 Y57.2308 
G01 X3.0080 Y57.2901 
G01 X3.1790 Y57.3772 
G01 X3.3343 Y57.4900 
G01 X3.4700 Y57.6257 
G01 X3.5828 Y57.7810 
G01 X3.6699 Y57.9520 
G01 X3.7292 Y58.1345 
G01 X3.7592 Y58.3240 
G00 Z3.0000 
G00 X3.7592 Y55.7840 
G01 Z-0.0800 F254.00 
G01 X3.7592 Y55.9760 F300.00 
G01 X3.7292 Y56.1655 
G01 X3.6699 Y56.3480 
G01 X3.5828 Y56.5190 
G01 X3.4700 Y56.6743 
G01 X3.3343 Y56.8100 
G01 X3.1790 Y56.9228 
G01 X3.0080 Y57.0099 
G01 X2.8255 Y57.0692 
G01 X2.6360 Y57.0992 
G01 X2.4440 Y57.0992 
G01 X2.2545 Y57.0692 
G01 X2.0720 Y57.0099 
G01 X1.9010 Y56.9228 
G01 X1.7457 Y56.8100 
G01 X1.6100 Y56.6743 
G01 X1.4972 Y56.5190 
G01 X1.4101 Y56.3480 
G01 X1.3508 Y56.1655 
G01 X1.3208 Y55.9760 
G01 X1.3208 Y55.7840 
G01 X1.3508 Y55.5945 
G01 X1.4101 Y55.4120 
G01 X1.4972 Y55.2410 
G01 X1.6100 Y55.0857 
G01 X1.7457 Y54.9500 
G01 X1.9010 Y54.8372 
G01 X2.0720 Y54.7501 
G01 X2.2545 Y54.6908 
G01 X2.4440 Y54.6608 
G01 X2.6360 Y54.6608 
G01 X2.8255 Y54.6908 
G01 X3.0080 Y54.7501 
G01 X3.1790 Y54.8372 
G01 X3.3343 Y54.9500 
G01 X3.4700 Y55.0857 
G01 X3.5828 Y55.2410 
G01 X3.6699 Y55.4120 
G01 X3.7292 Y55.5945 
G01 X3.7592 Y55.7840 
G00 Z3.0000 
G00 X3.7592 Y53.2440 
G01 Z-0.0800 F254.00 
G01 X3.7592 Y53.4360 F300.00 
G01 X3.7292 Y53.6255 
G01 X3.6699 Y53.8080 
G01 X3.5828 Y53.9790 
G01 X3.4700 Y54.1343 
G01 X3.3343 Y54.2700 
G01 X3.1790 Y54.3828 
G01 X3.0080 Y54.4699 
G01 X2.8255 Y54.5292 
G01 X2.6360 Y54.5592 
G01 X2.4440 Y54.5592 
G01 X2.2545 Y54.5292 
G01 X2.0720 Y54.4699 
G01 X1.9010 Y54.3828 
G01 X1.7457 Y54.2700 
G01 X1.6100 Y54.1343 
G01 X1.4972 Y53.9790 
G01 X1.4101 Y53.8080 
G01 X1.3508 Y53.6255 
G01 X1.3208 Y53.4360 
G01 X1.3208 Y53.2440 
G01 X1.3508 Y53.0545 
G01 X1.4101 Y52.8720 
G01 X1.4972 Y52.7010 
G01 X1.6100 Y52.5457 
G01 X1.7457 Y52.4100 
G01 X1.9010 Y52.2972 
G01 X2.0720 Y52.2101 
G01 X2.2545 Y52.1508 
G01 X2.4440 Y52.1208 
G01 X2.6360 Y52.1208 
G01 X2.8255 Y52.1508 
G01 X3.0080 Y52.2101 
G01 X3.1790 Y52.2972 
G01 X3.3343 Y52.4100 
G01 X3.4700 Y52.5457 
G01 X3.5828 Y52.7010 
G01 X3.6699 Y52.8720 
G01 X3.7292 Y53.0545 
G01 X3.7592 Y53.2440 
G00 Z3.0000 
G00 X3.7592 Y49.4340 
G01 Z-0.0800 F254.00 
G01 X3.7592 Y49.6260 F300.00 
G01 X3.7292 Y49.8155 
G01 X3.6699 Y49.9980 
G01 X3.5828 Y50.1690 
G01 X3.4700 Y50.3243 
G01 X3.3343 Y50.4599 
G01 X3.1790 Y50.5727 
G01 X3.0080 Y50.6599 
G01 X2.8255 Y50.7192 
G01 X2.6360 Y50.7492 
G01 X2.4440 Y50.7492 
G01 X2.2545 Y50.7192 
G01 X2.0720 Y50.6599 
G01 X1.9010 Y50.5727 
G01 X1.7457 Y50.4599 
G01 X1.6100 Y50.3243 
G01 X1.4972 Y50.1690 
G01 X1.4101 Y49.9980 
G01 X1.3508 Y49.8155 
G01 X1.3208 Y49.6260 
G01 X1.3208 Y49.4340 
G01 X1.3508 Y49.2445 
G01 X1.4101 Y49.0620 
G01 X1.4972 Y48.8910 
G01 X1.6100 Y48.7357 
G01 X1.7457 Y48.6000 
G01 X1.9010 Y48.4872 
G01 X2.0720 Y48.4001 
G01 X2.2545 Y48.3408 
G01 X2.4440 Y48.3108 
G01 X2.6360 Y48.3108 
G01 X2.8255 Y48.3408 
G01 X3.0080 Y48.4001 
G01 X3.1790 Y48.4872 
G01 X3.3343 Y48.6000 
G01 X3.4700 Y48.7357 
G01 X3.5828 Y48.8910 
G01 X3.6699 Y49.0620 
G01 X3.7292 Y49.2445 
G01 X3.7592 Y49.4340 
G00 Z3.0000 
G00 X3.7592 Y46.8940 
G01 Z-0.0800 F254.00 
G01 X3.7592 Y47.0860 F300.00 
G01 X3.7292 Y47.2755 
G01 X3.6699 Y47.4580 
G01 X3.5828 Y47.6290 
G01 X3.4700 Y47.7843 
G01 X3.3343 Y47.9200 
G01 X3.1790 Y48.0328 
G01 X3.0080 Y48.1199 
G01 X2.8255 Y48.1792 
G01 X2.6360 Y48.2092 
G01 X2.4440 Y48.2092 
G01 X2.2545 Y48.1792 
G01 X2.0720 Y48.1199 
G01 X1.9010 Y48.0328 
G01 X1.7457 Y47.9200 
G01 X1.6100 Y47.7843 
G01 X1.4972 Y47.6290 
G01 X1.4101 Y47.4580 
G01 X1.3508 Y47.2755 
G01 X1.3208 Y47.0860 
G01 X1.3208 Y46.8940 
G01 X1.3508 Y46.7045 
G01 X1.4101 Y46.5220 
G01 X1.4972 Y46.3510 
G01 X1.6100 Y46.1957 
G01 X1.7457 Y46.0600 
G01 X1.9010 Y45.9472 
G01 X2.0720 Y45.8601 
G01 X2.2545 Y45.8008 
G01 X2.4440 Y45.7708 
G01 X2.6360 Y45.7708 
G01 X2.8255 Y45.8008 
G01 X3.0080 Y45.8601 
G01 X3.1790 Y45.9472 
G01 X3.3343 Y46.0600 
G01 X3.4700 Y46.1957 
G01 X3.5828 Y46.3510 
G01 X3.6699 Y46.5220 
G01 X3.7292 Y46.7045 
G01 X3.7592 Y46.8940 
G00 Z3.0000 
G00 X3.7592 Y44.3540 
G01 Z-0.0800 F254.00 
G01 X3.7592 Y44.5460 F300.00 
G01 X3.7292 Y44.7355 
G01 X3.6699 Y44.9180 
G01 X3.5828 Y45.0890 
G01 X3.4700 Y45.2443 
G01 X3.3343 Y45.3800 
G01 X3.1790 Y45.4928 
G01 X3.0080 Y45.5799 
G01 X2.8255 Y45.6392 
G01 X2.6360 Y45.6692 
G01 X2.4440 Y45.6692 
G01 X2.2545 Y45.6392 
G01 X2.0720 Y45.5799 
G01 X1.9010 Y45.4928 
G01 X1.7457 Y45.3800 
G01 X1.6100 Y45.2443 
G01 X1.4972 Y45.0890 
G01 X1.4101 Y44.9180 
G01 X1.3508 Y44.7355 
G01 X1.3208 Y44.5460 
G01 X1.3208 Y44.3540 
G01 X1.3508 Y44.1645 
G01 X1.4101 Y43.9820 
G01 X1.4972 Y43.8110 
G01 X1.6100 Y43.6557 
G01 X1.7457 Y43.5200 
G01 X1.9010 Y43.4072 
G01 X2.0720 Y43.3201 
G01 X2.2545 Y43.2608 
G01 X2.4440 Y43.2308 
G01 X2.6360 Y43.2308 
G01 X2.8255 Y43.2608 
G01 X3.0080 Y43.3201 
G01 X3.1790 Y43.4072 
G01 X3.3343 Y43.5200 
G01 X3.4700 Y43.6557 
G01 X3.5828 Y43.8110 
G01 X3.6699 Y43.9820 
G01 X3.7292 Y44.1645 
G01 X3.7592 Y44.3540 
G00 Z3.0000 
G00 X3.7592 Y41.8140 
G01 Z-0.0800 F254.00 
G01 X3.7592 Y42.0060 F300.00 
G01 X3.7292 Y42.1955 
G01 X3.6699 Y42.3780 
G01 X3.5828 Y42.5490 
G01 X3.4700 Y42.7043 
G01 X3.3343 Y42.8400 
